;FLAVOR:Marlin
;TIME:3468
;Filament used: 2.78558m
;Layer height: 0.28
;MINX:91.51
;MINY:91.509
;MINZ:0.28
;MAXX:143.488
;MAXY:143.491
;MAXZ:20.16
;Generated with Cura_SteamEngine main
M82 ;absolute extrusion mode
; Ender 3 Custom Start G-code
G92 E0 ; Reset Extruder
G28 ; Home all axes
M104 S175 ; Start heating up the nozzle most of the way
M190 S60 ; Start heating the bed, wait until target temperature reached
M109 S200 ; Finish heating the nozzle
G1 Z2.0 F3000 ; Move Z Axis up little to prevent scratching of Heat Bed
G1 X0.1 Y20 Z0.3 F5000.0 ; Move to start position
G1 X0.1 Y200.0 Z0.3 F1500.0 E15 ; Draw the first line
G1 X0.4 Y200.0 Z0.3 F5000.0 ; Move to side a little
G1 X0.4 Y20 Z0.3 F1500.0 E30 ; Draw the second line
G92 E0 ; Reset Extruder
G1 Z2.0 F3000 ; Move Z Axis up little to prevent scratching of Heat Bed
G1 X5 Y20 Z0.3 F5000.0 ; Move over to prevent blob squish
G92 E0
G92 E0
G1 F1500 E-6.5
;LAYER_COUNT:72
;LAYER:0
M107
G0 F6000 X99.229 Y99.024 Z0.28
G0 X91.551 Y116.049
;TYPE:SKIRT
G1 F1500 E0
G1 F1200 X91.591 Y115.434 E0.0287
G1 X91.66 Y114.699 E0.06307
G1 X91.718 Y114.202 E0.08637
G1 X91.81 Y113.545 E0.11726
G1 X91.9 Y113.002 E0.14289
G1 X92.056 Y112.187 E0.18153
G1 X92.183 Y111.609 E0.20909
G1 X92.35 Y110.935 E0.24142
G1 X92.485 Y110.44 E0.26531
G1 X92.693 Y109.742 E0.29923
G1 X92.863 Y109.22 E0.32479
G1 X93.13 Y108.464 E0.36212
G1 X93.333 Y107.933 E0.38859
G1 X93.604 Y107.276 E0.42169
G1 X93.834 Y106.757 E0.44812
G1 X94.173 Y106.042 E0.48497
G1 X94.409 Y105.573 E0.50941
G1 X94.722 Y104.987 E0.54035
G1 X94.982 Y104.527 E0.56495
G1 X95.371 Y103.876 E0.60027
G1 X95.659 Y103.42 E0.62538
G1 X96.076 Y102.794 E0.6604
G1 X96.372 Y102.372 E0.68441
G1 X96.765 Y101.838 E0.71528
G1 X97.069 Y101.444 E0.73845
G1 X97.524 Y100.881 E0.77216
G1 X97.891 Y100.45 E0.79852
G1 X98.405 Y99.877 E0.83436
G1 X98.765 Y99.494 E0.85884
G1 X99.229 Y99.024 E0.88959
G1 X99.579 Y98.685 E0.91228
G1 X100.113 Y98.19 E0.94618
G1 X100.509 Y97.84 E0.97079
G1 X101.032 Y97.4 E1.00262
G1 X101.423 Y97.086 E1.02597
G1 X102.035 Y96.617 E1.06187
G1 X102.511 Y96.272 E1.08925
G1 X103.117 Y95.857 E1.12345
G1 X103.536 Y95.584 E1.14673
G1 X104.136 Y95.212 E1.1796
G1 X104.595 Y94.942 E1.2044
G1 X105.215 Y94.598 E1.23742
G1 X105.658 Y94.366 E1.2607
G1 X106.288 Y94.053 E1.29346
G1 X106.81 Y93.81 E1.32027
G1 X107.535 Y93.496 E1.35706
G1 X108.019 Y93.3 E1.38137
G1 X108.67 Y93.054 E1.41378
G1 X109.2 Y92.869 E1.43992
G1 X109.955 Y92.627 E1.47684
G1 X110.461 Y92.478 E1.5014
G1 X111.072 Y92.314 E1.53086
G1 X111.576 Y92.191 E1.55501
G1 X112.313 Y92.03 E1.59014
G1 X112.845 Y91.928 E1.61536
G1 X113.502 Y91.818 E1.64638
G1 X114.039 Y91.742 E1.67164
G1 X114.919 Y91.639 E1.71289
G1 X115.491 Y91.587 E1.73964
G1 X116.159 Y91.544 E1.77081
G1 X116.7 Y91.522 E1.79602
G1 X117.559 Y91.509 E1.83602
G1 X118.214 Y91.519 E1.86652
G1 X119.068 Y91.557 E1.90633
G1 X119.607 Y91.594 E1.93149
G1 X120.289 Y91.658 E1.96338
G1 X120.792 Y91.717 E1.98697
G1 X121.461 Y91.811 E2.01842
G1 X121.998 Y91.9 E2.04377
G1 X122.813 Y92.056 E2.08241
G1 X123.403 Y92.186 E2.11054
G1 X124.142 Y92.37 E2.146
G1 X124.64 Y92.506 E2.17004
G1 X125.211 Y92.677 E2.19779
G1 X125.699 Y92.836 E2.22169
G1 X126.525 Y93.126 E2.26246
G1 X127.068 Y93.333 E2.28952
G1 X127.668 Y93.58 E2.31973
G1 X128.149 Y93.792 E2.34421
G1 X128.883 Y94.136 E2.38195
G1 X129.374 Y94.381 E2.4075
G1 X129.986 Y94.706 E2.43977
G1 X130.476 Y94.982 E2.46596
G1 X131.121 Y95.368 E2.50096
G1 X131.528 Y95.624 E2.52335
G1 X132.036 Y95.959 E2.55168
G1 X132.465 Y96.257 E2.576
G1 X133.124 Y96.738 E2.61399
G1 X133.535 Y97.053 E2.63811
G1 X134.088 Y97.498 E2.67116
G1 X134.511 Y97.857 E2.69699
G1 X135.054 Y98.341 E2.73086
G1 X135.454 Y98.715 E2.75636
G1 X135.986 Y99.239 E2.79113
G1 X136.355 Y99.621 E2.81586
G1 X136.838 Y100.145 E2.84905
G1 X137.178 Y100.531 E2.873
G1 X137.641 Y101.083 E2.90655
G1 X137.954 Y101.473 E2.92983
G1 X138.388 Y102.041 E2.96312
G1 X138.717 Y102.496 E2.98926
G1 X139.137 Y103.108 E3.02383
G1 X139.425 Y103.55 E3.04839
G1 X139.797 Y104.152 E3.08134
G1 X140.045 Y104.574 E3.10413
G1 X140.396 Y105.203 E3.13768
G1 X140.658 Y105.703 E3.16396
G1 X140.984 Y106.365 E3.19832
G1 X141.216 Y106.868 E3.22411
G1 X141.505 Y107.538 E3.25809
G1 X141.689 Y107.992 E3.2809
G1 X141.941 Y108.656 E3.31397
G1 X142.134 Y109.206 E3.34111
G1 X142.375 Y109.959 E3.37793
G1 X142.522 Y110.46 E3.40224
G1 X142.686 Y111.071 E3.4317
G1 X142.818 Y111.617 E3.45785
G1 X142.997 Y112.452 E3.49762
G1 X143.109 Y113.059 E3.52636
G1 X143.23 Y113.833 E3.56284
G1 X143.296 Y114.331 E3.58623
G1 X143.374 Y115.041 E3.61949
G1 X143.422 Y115.608 E3.64599
G1 X143.466 Y116.37 E3.68153
G1 X143.484 Y116.951 E3.70859
G1 X143.488 Y117.775 E3.74696
G1 X143.477 Y118.322 E3.77244
G1 X143.445 Y119.034 E3.80563
G1 X143.41 Y119.543 E3.82938
G1 X143.345 Y120.253 E3.86258
G1 X143.274 Y120.85 E3.89058
G1 X143.147 Y121.714 E3.93124
G1 X143.06 Y122.222 E3.95524
G1 X142.937 Y122.852 E3.98513
G1 X142.816 Y123.398 E4.01117
G1 X142.642 Y124.098 E4.04476
G1 X142.513 Y124.572 E4.06763
G1 X142.33 Y125.189 E4.0976
G1 X142.161 Y125.709 E4.12306
G1 X141.872 Y126.531 E4.16363
G1 X141.662 Y127.082 E4.19109
G1 X141.415 Y127.68 E4.22121
G1 X141.22 Y128.124 E4.24379
G1 X140.916 Y128.777 E4.27733
G1 X140.677 Y129.26 E4.30243
G1 X140.312 Y129.953 E4.3389
G1 X140.018 Y130.476 E4.36684
G1 X139.632 Y131.121 E4.40184
G1 X139.373 Y131.533 E4.4245
G1 X139.029 Y132.054 E4.45357
G1 X138.734 Y132.478 E4.47762
G1 X138.261 Y133.126 E4.51498
G1 X137.93 Y133.557 E4.54028
G1 X137.478 Y134.116 E4.57376
G1 X137.129 Y134.527 E4.59886
G1 X136.628 Y135.088 E4.63389
G1 X136.25 Y135.49 E4.65958
G1 X135.773 Y135.973 E4.69119
G1 X135.426 Y136.309 E4.71368
G1 X134.874 Y136.821 E4.74874
G1 X134.456 Y137.19 E4.7747
G1 X133.903 Y137.653 E4.80829
G1 X133.523 Y137.957 E4.83095
G1 X132.962 Y138.386 E4.86383
G1 X132.498 Y138.722 E4.89051
G1 X131.891 Y139.138 E4.92477
G1 X131.461 Y139.418 E4.94866
G1 X130.855 Y139.793 E4.98185
G1 X130.417 Y140.05 E5.0055
G1 X129.799 Y140.394 E5.03843
G1 X129.32 Y140.646 E5.06363
G1 X128.662 Y140.971 E5.0978
G1 X128.166 Y141.201 E5.12326
G1 X127.467 Y141.504 E5.15874
G1 X126.977 Y141.702 E5.18335
G1 X126.328 Y141.947 E5.21565
G1 X125.797 Y142.132 E5.24183
G1 X125.041 Y142.374 E5.27879
G1 X124.543 Y142.521 E5.30297
G1 X123.933 Y142.685 E5.33238
G1 X123.422 Y142.809 E5.35687
G1 X122.684 Y142.97 E5.39204
G1 X122.153 Y143.072 E5.41722
G1 X121.501 Y143.181 E5.448
G1 X120.969 Y143.257 E5.47302
G1 X120.074 Y143.362 E5.51499
G1 X119.498 Y143.414 E5.54192
G1 X118.845 Y143.456 E5.57238
G1 X118.304 Y143.478 E5.5976
G1 X117.44 Y143.491 E5.63783
G1 X116.861 Y143.484 E5.6648
G1 X116.277 Y143.462 E5.69201
G1 X115.664 Y143.426 E5.7206
G1 X114.716 Y143.342 E5.76492
G1 X114.115 Y143.27 E5.7931
G1 X113.272 Y143.145 E5.83278
G1 X112.761 Y143.057 E5.85693
G1 X112.131 Y142.933 E5.88683
G1 X111.597 Y142.814 E5.9123
G1 X110.858 Y142.63 E5.94776
G1 X110.294 Y142.473 E5.97503
G1 X109.54 Y142.242 E6.01175
G1 X109.058 Y142.083 E6.03538
G1 X108.412 Y141.852 E6.06732
G1 X107.925 Y141.664 E6.09163
G1 X107.328 Y141.418 E6.1217
G1 X106.851 Y141.208 E6.14597
G1 X106.117 Y140.864 E6.18371
G1 X105.627 Y140.62 E6.2092
G1 X105.013 Y140.294 E6.24157
G1 X104.52 Y140.016 E6.26793
G1 X103.877 Y139.631 E6.30282
G1 X103.467 Y139.373 E6.32538
G1 X102.946 Y139.029 E6.35445
G1 X102.522 Y138.734 E6.3785
G1 X101.874 Y138.261 E6.41586
G1 X101.443 Y137.93 E6.44116
G1 X100.884 Y137.478 E6.47464
G1 X100.473 Y137.129 E6.49975
G1 X99.912 Y136.628 E6.53477
G1 X99.51 Y136.25 E6.56046
G1 X99.027 Y135.773 E6.59207
G1 X98.691 Y135.426 E6.61456
G1 X98.179 Y134.874 E6.64962
G1 X97.81 Y134.456 E6.67558
G1 X97.347 Y133.903 E6.70917
G1 X97.043 Y133.523 E6.73183
G1 X96.614 Y132.962 E6.76471
G1 X96.282 Y132.504 E6.79105
G1 X95.862 Y131.892 E6.82562
G1 X95.579 Y131.457 E6.84978
G1 X95.207 Y130.856 E6.88269
G1 X94.938 Y130.399 E6.90739
G1 X94.595 Y129.78 E6.94034
G1 X94.366 Y129.342 E6.96335
G1 X94.052 Y128.71 E6.99621
G1 X93.813 Y128.198 E7.02252
G1 X93.499 Y127.475 E7.05923
G1 X93.287 Y126.949 E7.08563
G1 X93.034 Y126.273 E7.11924
G1 X92.866 Y125.79 E7.14306
G1 X92.646 Y125.107 E7.17647
G1 X92.482 Y124.548 E7.20359
G1 X92.279 Y123.781 E7.24054
G1 X92.162 Y123.295 E7.26382
G1 X92.026 Y122.667 E7.29374
G1 X91.928 Y122.155 E7.31801
G1 X91.818 Y121.498 E7.34903
G1 X91.742 Y120.967 E7.37401
G1 X91.642 Y120.117 E7.41386
G1 X91.59 Y119.543 E7.4407
G1 X91.544 Y118.833 E7.47383
G1 X91.522 Y118.297 E7.49881
G1 X91.51 Y117.542 E7.53397
G1 X91.517 Y116.954 E7.56135
G1 X91.551 Y116.049 E7.60352
G0 F6000 X91.91 Y117.535
G1 F1200 X91.916 Y116.969 E7.62987
G1 X91.95 Y116.064 E7.67204
G1 X91.989 Y115.471 E7.69972
G1 X92.058 Y114.736 E7.73409
G1 X92.114 Y114.257 E7.75655
G1 X92.206 Y113.6 E7.78744
G1 X92.293 Y113.077 E7.81213
G1 X92.449 Y112.262 E7.85077
G1 X92.571 Y111.706 E7.87727
G1 X92.738 Y111.032 E7.9096
G1 X92.868 Y110.554 E7.93267
G1 X93.076 Y109.856 E7.96659
G1 X93.24 Y109.353 E7.99122
G1 X93.507 Y108.597 E8.02855
G1 X93.703 Y108.085 E8.05408
G1 X93.974 Y107.428 E8.08717
G1 X94.195 Y106.929 E8.11259
G1 X94.534 Y106.214 E8.14943
G1 X94.762 Y105.761 E8.17305
G1 X95.075 Y105.175 E8.20398
G1 X95.326 Y104.732 E8.22769
G1 X95.715 Y104.081 E8.263
G1 X95.992 Y103.641 E8.28721
G1 X96.409 Y103.015 E8.32224
G1 X96.694 Y102.609 E8.34534
G1 X97.087 Y102.075 E8.37621
G1 X97.38 Y101.695 E8.39855
G1 X97.835 Y101.132 E8.43226
G1 X98.188 Y100.717 E8.45763
G1 X98.702 Y100.144 E8.49347
G1 X99.05 Y99.775 E8.51709
G1 X99.514 Y99.305 E8.54784
G1 X99.851 Y98.978 E8.56971
G1 X100.385 Y98.483 E8.60361
G1 X100.767 Y98.146 E8.62733
G1 X101.29 Y97.706 E8.65916
G1 X101.666 Y97.403 E8.68165
G1 X102.278 Y96.934 E8.71755
G1 X102.737 Y96.602 E8.74393
G1 X103.343 Y96.187 E8.77813
G1 X103.746 Y95.924 E8.80053
G1 X104.346 Y95.552 E8.83341
G1 X104.789 Y95.292 E8.85733
G1 X105.409 Y94.948 E8.89034
G1 X105.836 Y94.724 E8.91279
G1 X106.466 Y94.411 E8.94555
G1 X106.969 Y94.177 E8.97138
G1 X107.694 Y93.863 E9.00817
G1 X108.16 Y93.674 E9.03159
G1 X108.811 Y93.428 E9.06399
G1 X109.323 Y93.25 E9.08923
G1 X110.078 Y93.008 E9.12615
G1 X110.565 Y92.864 E9.1498
G1 X111.176 Y92.7 E9.17926
G1 X111.662 Y92.582 E9.20254
G1 X112.399 Y92.421 E9.23767
G1 X112.911 Y92.323 E9.26194
G1 X113.568 Y92.213 E9.29296
G1 X114.086 Y92.139 E9.31733
G1 X114.966 Y92.036 E9.35858
G1 X115.517 Y91.986 E9.38435
G1 X116.185 Y91.943 E9.41552
G1 X116.706 Y91.922 E9.4398
G1 X117.565 Y91.909 E9.4798
G1 X118.196 Y91.918 E9.50918
G1 X119.05 Y91.956 E9.54899
G1 X119.569 Y91.992 E9.57321
G1 X120.251 Y92.056 E9.60511
G1 X120.736 Y92.113 E9.62785
G1 X121.405 Y92.207 E9.65931
G1 X121.923 Y92.293 E9.68376
G1 X122.738 Y92.449 E9.7224
G1 X123.306 Y92.574 E9.74948
G1 X124.045 Y92.758 E9.78494
G1 X124.525 Y92.89 E9.80812
G1 X125.096 Y93.061 E9.83587
G1 X125.566 Y93.214 E9.85889
G1 X126.392 Y93.504 E9.89965
G1 X126.916 Y93.703 E9.92575
G1 X127.516 Y93.95 E9.95597
G1 X127.979 Y94.154 E9.97953
G1 X128.713 Y94.498 E10.01727
G1 X129.187 Y94.734 E10.04193
G1 X129.799 Y95.059 E10.07419
G1 X130.27 Y95.325 E10.09938
G1 X130.915 Y95.711 E10.13438
G1 X131.308 Y95.958 E10.156
G1 X131.816 Y96.293 E10.18433
G1 X132.229 Y96.58 E10.20775
G1 X132.888 Y97.061 E10.24574
G1 X133.284 Y97.365 E10.26899
G1 X133.837 Y97.81 E10.30204
G1 X134.245 Y98.155 E10.32692
G1 X134.788 Y98.639 E10.36079
G1 X135.173 Y99 E10.38536
G1 X135.705 Y99.524 E10.42013
G1 X136.061 Y99.892 E10.44398
G1 X136.544 Y100.416 E10.47716
G1 X136.871 Y100.788 E10.50022
G1 X137.334 Y101.34 E10.53377
G1 X137.636 Y101.716 E10.55623
G1 X138.07 Y102.284 E10.58951
G1 X138.387 Y102.722 E10.61469
G1 X138.807 Y103.334 E10.64925
G1 X139.084 Y103.76 E10.67291
G1 X139.456 Y104.362 E10.70586
G1 X139.695 Y104.769 E10.72784
G1 X140.046 Y105.398 E10.76138
G1 X140.299 Y105.88 E10.78673
G1 X140.625 Y106.542 E10.82109
G1 X140.849 Y107.027 E10.84597
G1 X141.138 Y107.697 E10.87994
G1 X141.315 Y108.134 E10.9019
G1 X141.567 Y108.798 E10.93497
G1 X141.753 Y109.328 E10.96112
G1 X141.994 Y110.081 E10.99794
G1 X142.136 Y110.564 E11.02138
G1 X142.3 Y111.175 E11.05084
G1 X142.427 Y111.701 E11.07603
G1 X142.606 Y112.536 E11.1158
G1 X142.714 Y113.121 E11.1435
G1 X142.835 Y113.895 E11.17998
G1 X142.899 Y114.374 E11.20248
G1 X142.977 Y115.084 E11.23574
G1 X143.022 Y115.631 E11.2613
G1 X143.066 Y116.393 E11.29684
G1 X143.084 Y116.953 E11.32293
G1 X143.088 Y117.777 E11.3613
G1 X143.077 Y118.304 E11.38584
G1 X143.045 Y119.016 E11.41903
G1 X143.012 Y119.506 E11.4419
G1 X142.947 Y120.216 E11.47509
G1 X142.878 Y120.792 E11.50211
G1 X142.751 Y121.656 E11.54277
G1 X142.668 Y122.145 E11.56587
G1 X142.545 Y122.775 E11.59576
G1 X142.428 Y123.301 E11.62085
G1 X142.254 Y124.001 E11.65443
G1 X142.129 Y124.458 E11.6765
G1 X141.946 Y125.075 E11.70646
G1 X141.784 Y125.577 E11.73102
G1 X141.495 Y126.399 E11.7716
G1 X141.292 Y126.93 E11.79807
G1 X141.045 Y127.528 E11.8282
G1 X140.858 Y127.955 E11.8499
G1 X140.554 Y128.608 E11.88344
G1 X140.323 Y129.074 E11.90766
G1 X139.958 Y129.767 E11.94413
G1 X139.675 Y130.27 E11.97101
G1 X139.289 Y130.915 E12.00601
G1 X139.039 Y131.313 E12.02789
G1 X138.695 Y131.834 E12.05696
G1 X138.411 Y132.243 E12.08015
G1 X137.938 Y132.891 E12.11751
G1 X137.619 Y133.306 E12.14188
G1 X137.167 Y133.865 E12.17535
G1 X136.83 Y134.261 E12.19957
G1 X136.329 Y134.822 E12.23459
G1 X135.965 Y135.209 E12.25933
G1 X135.488 Y135.692 E12.29094
G1 X135.154 Y136.016 E12.31261
G1 X134.602 Y136.528 E12.34766
G1 X134.199 Y136.883 E12.37267
G1 X133.646 Y137.346 E12.40625
G1 X133.28 Y137.639 E12.42809
G1 X132.719 Y138.068 E12.46097
G1 X132.272 Y138.392 E12.48668
G1 X131.665 Y138.808 E12.52094
G1 X131.251 Y139.078 E12.54396
G1 X130.645 Y139.453 E12.57714
G1 X130.222 Y139.701 E12.59997
G1 X129.604 Y140.045 E12.63291
G1 X129.143 Y140.287 E12.65715
G1 X128.485 Y140.612 E12.69132
G1 X128.007 Y140.834 E12.71587
G1 X127.308 Y141.137 E12.75134
G1 X126.836 Y141.328 E12.77505
G1 X126.187 Y141.573 E12.80735
G1 X125.675 Y141.751 E12.83259
G1 X124.919 Y141.993 E12.86955
G1 X124.439 Y142.134 E12.89285
G1 X123.829 Y142.298 E12.92226
G1 X123.336 Y142.418 E12.94589
G1 X122.598 Y142.579 E12.98106
G1 X122.087 Y142.678 E13.0053
G1 X121.435 Y142.787 E13.03608
G1 X120.922 Y142.86 E13.06021
G1 X120.027 Y142.965 E13.10217
G1 X119.472 Y143.015 E13.12812
G1 X118.819 Y143.057 E13.15859
G1 X118.298 Y143.078 E13.18286
G1 X117.434 Y143.091 E13.2231
G1 X116.876 Y143.084 E13.24909
G1 X115.993 Y143.047 E13.29024
G1 X115.412 Y143.005 E13.31736
G1 X114.752 Y142.944 E13.34823
G1 X114.173 Y142.874 E13.37538
G1 X113.33 Y142.749 E13.41507
G1 X112.838 Y142.664 E13.43831
G1 X112.208 Y142.54 E13.46821
G1 X111.694 Y142.426 E13.49273
G1 X110.955 Y142.242 E13.52819
G1 X110.411 Y142.091 E13.55448
G1 X109.657 Y141.86 E13.5912
G1 X109.193 Y141.706 E13.61396
G1 X108.547 Y141.475 E13.64591
G1 X108.078 Y141.295 E13.6693
G1 X107.481 Y141.049 E13.69937
G1 X107.021 Y140.846 E13.72278
G1 X106.287 Y140.502 E13.76053
G1 X105.814 Y140.266 E13.78514
G1 X105.2 Y139.94 E13.81751
G1 X104.726 Y139.672 E13.84286
G1 X104.083 Y139.287 E13.87776
G1 X103.687 Y139.039 E13.89952
G1 X103.166 Y138.695 E13.92859
G1 X102.757 Y138.411 E13.95178
G1 X102.109 Y137.938 E13.98913
G1 X101.694 Y137.619 E14.01351
G1 X101.135 Y137.167 E14.04698
G1 X100.739 Y136.83 E14.07119
G1 X100.178 Y136.329 E14.10622
G1 X99.791 Y135.965 E14.13096
G1 X99.308 Y135.488 E14.16256
G1 X98.984 Y135.154 E14.18423
G1 X98.472 Y134.602 E14.21929
G1 X98.117 Y134.199 E14.2443
G1 X97.654 Y133.646 E14.27788
G1 X97.361 Y133.28 E14.29971
G1 X96.932 Y132.719 E14.3326
G1 X96.612 Y132.278 E14.35797
G1 X96.192 Y131.666 E14.39253
G1 X95.919 Y131.247 E14.41582
G1 X95.547 Y130.646 E14.44873
G1 X95.288 Y130.205 E14.47254
G1 X94.945 Y129.586 E14.5055
G1 X94.724 Y129.164 E14.52768
G1 X94.41 Y128.532 E14.56054
G1 X94.18 Y128.039 E14.58587
G1 X93.866 Y127.316 E14.62257
G1 X93.661 Y126.808 E14.64808
G1 X93.408 Y126.132 E14.68169
G1 X93.246 Y125.667 E14.70462
G1 X93.026 Y124.984 E14.73803
G1 X92.869 Y124.446 E14.76413
G1 X92.666 Y123.679 E14.80107
G1 X92.553 Y123.211 E14.82349
G1 X92.417 Y122.583 E14.85341
G1 X92.323 Y122.089 E14.87683
G1 X92.213 Y121.432 E14.90785
