;FLAVOR:Marlin
;TIME:1628
;Filament used: 1.41142m
;Layer height: 0.28
;MINX:72.47
;MINY:91.511
;MINZ:0.28
;MAXX:166.738
;MAXY:143.489
;MAXZ:29.96
;Generated with Cura_SteamEngine main
M82 ;absolute extrusion mode
; Ender 3 Custom Start G-code
G92 E0 ; Reset Extruder
G28 ; Home all axes
M104 S175 ; Start heating up the nozzle most of the way
M190 S60 ; Start heating the bed, wait until target temperature reached
M109 S200 ; Finish heating the nozzle
G1 Z2.0 F3000 ; Move Z Axis up little to prevent scratching of Heat Bed
G1 X0.1 Y20 Z0.3 F5000.0 ; Move to start position
G1 X0.1 Y200.0 Z0.3 F1500.0 E15 ; Draw the first line
G1 X0.4 Y200.0 Z0.3 F5000.0 ; Move to side a little
G1 X0.4 Y20 Z0.3 F1500.0 E30 ; Draw the second line
G92 E0 ; Reset Extruder
G1 Z2.0 F3000 ; Move Z Axis up little to prevent scratching of Heat Bed
G1 X5 Y20 Z0.3 F5000.0 ; Move over to prevent blob squish
G92 E0
G92 E0
G1 F1500 E-6.5
;LAYER_COUNT:107
;LAYER:0
M107
G0 F6000 X82.136 Y97.276 Z0.28
G0 X77.039 Y102.9
;TYPE:SKIRT
G1 F1500 E0
G1 F1200 X77.524 Y102.152 E0.04151
G1 X78.068 Y101.388 E0.08518
G1 X78.849 Y100.491 E0.14056
G1 X79.415 Y99.909 E0.17837
G1 X80.955 Y98.37 E0.27975
G1 X81.437 Y97.901 E0.31106
G1 X82.136 Y97.276 E0.35472
G1 X83.113 Y96.562 E0.41107
G1 X83.696 Y96.183 E0.44345
G1 X85.631 Y94.965 E0.54991
G1 X86.22 Y94.606 E0.58203
G1 X87.041 Y94.153 E0.6257
G1 X88.143 Y93.677 E0.68159
G1 X88.8 Y93.435 E0.71419
G1 X90.945 Y92.684 E0.82002
G1 X91.642 Y92.451 E0.85424
G1 X92.543 Y92.192 E0.89789
G1 X93.731 Y91.973 E0.95414
G1 X94.332 Y91.896 E0.98236
G1 X96.751 Y91.624 E1.09571
G1 X97.417 Y91.56 E1.12686
G1 X98.353 Y91.511 E1.1705
G1 X99.549 Y91.563 E1.22625
G1 X100.349 Y91.643 E1.26368
G1 X102.364 Y91.87 E1.35811
G1 X103.192 Y91.975 E1.39697
G1 X103.63 Y92.039 E1.41758
G1 X105.871 Y92.417 E1.52341
G1 X108.359 Y92.77 E1.64042
G1 X110.846 Y93.051 E1.75696
G1 X113.359 Y93.264 E1.87439
G1 X115.872 Y93.404 E1.99159
G1 X118.403 Y93.475 E2.10949
G1 X120.928 Y93.473 E2.22707
G1 X123.407 Y93.402 E2.34255
G1 X125.942 Y93.257 E2.46078
G1 X128.446 Y93.042 E2.57781
G1 X130.963 Y92.755 E2.69577
G1 X133.431 Y92.402 E2.81186
G1 X135.638 Y92.03 E2.91607
G1 X136.084 Y91.964 E2.93707
G1 X136.636 Y91.894 E2.96298
G1 X139.041 Y91.624 E3.07567
G1 X139.707 Y91.56 E3.10682
G1 X140.643 Y91.511 E3.15047
G1 X141.839 Y91.563 E3.20621
G1 X142.639 Y91.643 E3.24365
G1 X144.654 Y91.87 E3.33807
G1 X145.483 Y91.975 E3.37698
G1 X146.407 Y92.133 E3.42063
G1 X147.586 Y92.457 E3.47756
G1 X148.373 Y92.722 E3.51623
G1 X150.227 Y93.37 E3.60768
G1 X151.051 Y93.672 E3.64854
G1 X151.917 Y94.033 E3.69223
G1 X152.973 Y94.599 E3.74802
G1 X153.718 Y95.054 E3.78867
G1 X155.468 Y96.155 E3.88494
G1 X156.075 Y96.548 E3.91861
G1 X156.84 Y97.091 E3.9623
G1 X157.751 Y97.882 E4.01848
G1 X158.328 Y98.443 E4.05595
G1 X159.871 Y99.988 E4.15763
G1 X160.34 Y100.469 E4.18891
G1 X160.965 Y101.167 E4.23253
G1 X161.692 Y102.161 E4.28988
G1 X162.153 Y102.873 E4.32937
G1 X163.254 Y104.627 E4.4258
G1 X163.652 Y105.281 E4.46145
G1 X164.105 Y106.103 E4.50516
G1 X164.573 Y107.188 E4.56018
G1 X164.856 Y107.956 E4.59829
G1 X165.529 Y109.879 E4.69316
G1 X165.801 Y110.694 E4.73317
G1 X166.058 Y111.596 E4.77684
G1 X166.269 Y112.739 E4.83096
G1 X166.372 Y113.535 E4.86833
G1 X166.606 Y115.61 E4.96557
G1 X166.687 Y116.431 E5.00398
G1 X166.738 Y117.367 E5.04763
G1 X166.688 Y118.561 E5.10328
G1 X166.606 Y119.391 E5.14211
G1 X166.361 Y121.558 E5.24366
G1 X166.277 Y122.22 E5.27473
G1 X166.119 Y123.144 E5.31838
G1 X165.792 Y124.337 E5.37598
G1 X165.522 Y125.138 E5.41534
G1 X164.833 Y127.104 E5.51235
G1 X164.588 Y127.775 E5.54561
G1 X164.229 Y128.641 E5.58926
G1 X163.653 Y129.718 E5.64613
G1 X163.2 Y130.461 E5.68665
G1 X162.171 Y132.098 E5.77669
G1 X161.698 Y132.829 E5.81723
G1 X161.154 Y133.594 E5.86094
G1 X160.381 Y134.485 E5.91587
G1 X159.796 Y135.088 E5.95499
G1 X158.246 Y136.638 E6.05706
G1 X157.763 Y137.107 E6.08841
G1 X157.063 Y137.731 E6.13207
G1 X156.095 Y138.438 E6.18789
G1 X155.512 Y138.817 E6.22027
G1 X153.58 Y140.033 E6.32657
G1 X152.993 Y140.391 E6.35858
G1 X152.172 Y140.845 E6.40227
G1 X151.071 Y141.321 E6.45812
G1 X150.412 Y141.564 E6.49082
G1 X148.263 Y142.316 E6.59684
G1 X147.566 Y142.549 E6.63106
G1 X146.665 Y142.808 E6.67471
G1 X145.47 Y143.028 E6.73129
G1 X144.874 Y143.104 E6.75927
G1 X142.636 Y143.357 E6.86415
G1 X141.809 Y143.438 E6.90284
G1 X140.873 Y143.489 E6.94649
G1 X139.678 Y143.438 E7.00218
G1 X138.858 Y143.357 E7.04055
G1 X136.844 Y143.13 E7.13492
G1 X136.017 Y143.025 E7.17374
G1 X135.58 Y142.961 E7.19431
G1 X133.343 Y142.584 E7.29994
G1 X130.849 Y142.23 E7.41724
G1 X128.362 Y141.949 E7.53378
G1 X125.849 Y141.736 E7.65121
G1 X123.335 Y141.596 E7.76846
G1 X120.805 Y141.525 E7.88631
G1 X118.281 Y141.527 E8.00384
G1 X115.801 Y141.598 E8.11937
G1 X113.267 Y141.743 E8.23755
G1 X110.766 Y141.957 E8.35443
G1 X108.272 Y142.242 E8.47132
G1 X105.743 Y142.603 E8.59028
G1 X103.57 Y142.97 E8.69289
G1 X103.117 Y143.037 E8.71422
G1 X102.57 Y143.106 E8.73989
G1 X100.167 Y143.376 E8.85249
G1 X99.5 Y143.44 E8.88369
G1 X98.563 Y143.489 E8.92738
G1 X97.369 Y143.437 E8.98303
G1 X96.569 Y143.357 E9.02047
G1 X94.554 Y143.13 E9.11489
G1 X93.724 Y143.025 E9.15384
G1 X92.8 Y142.866 E9.1975
G1 X91.624 Y142.543 E9.25429
G1 X90.826 Y142.275 E9.29348
G1 X88.981 Y141.63 E9.38449
G1 X88.172 Y141.334 E9.42461
G1 X87.305 Y140.975 E9.4683
G1 X86.231 Y140.399 E9.52505
G1 X85.49 Y139.946 E9.56549
G1 X83.74 Y138.845 E9.66176
G1 X83.133 Y138.452 E9.69544
G1 X82.368 Y137.909 E9.73912
G1 X81.456 Y137.118 E9.79533
G1 X81.005 Y136.681 E9.82457
G1 X79.329 Y135.004 E9.93497
G1 X78.86 Y134.522 E9.96629
G1 X78.235 Y133.823 E10.00995
G1 X77.528 Y132.857 E10.06569
G1 X77.054 Y132.127 E10.10622
G1 X76.036 Y130.507 E10.19531
G1 X75.551 Y129.711 E10.23872
G1 X75.099 Y128.89 E10.28236
G1 X74.628 Y127.796 E10.33782
G1 X74.411 Y127.206 E10.36709
G1 X73.625 Y124.964 E10.47772
G1 X73.409 Y124.316 E10.50952
G1 X73.151 Y123.414 E10.55321
G1 X72.935 Y122.244 E10.60861
G1 X72.854 Y121.616 E10.63809
G1 X72.585 Y119.226 E10.75008
G1 X72.521 Y118.571 E10.78073
G1 X72.47 Y117.634 E10.82442
G1 X72.52 Y116.439 E10.88012
G1 X72.602 Y115.607 E10.91905
G1 X72.836 Y113.535 E11.01614
G1 X72.935 Y112.76 E11.05252
G1 X73.094 Y111.836 E11.09618
G1 X73.417 Y110.66 E11.15297
G1 X73.686 Y109.862 E11.19218
G1 X74.325 Y108.036 E11.28226
G1 X74.627 Y107.21 E11.32321
G1 X74.987 Y106.344 E11.36688
G1 X75.556 Y105.281 E11.42303
G1 X76.01 Y104.536 E11.46365
G1 X77.039 Y102.9 E11.55365
G1 F1500 E5.05365
G0 F6000 X74.755 Y108.022
G1 F1500 E11.55365
G1 F1200 X75.002 Y107.348 E11.58707
G1 X75.356 Y106.498 E11.62995
G1 X75.898 Y105.488 E11.68332
G1 X76.348 Y104.749 E11.72361
G1 X77.377 Y103.113 E11.8136
G1 X77.859 Y102.37 E11.85484
G1 X78.394 Y101.62 E11.89774
G1 X79.136 Y100.769 E11.95031
G1 X79.583 Y100.308 E11.98021
G1 X81.234 Y98.657 E12.08893
G1 X81.716 Y98.188 E12.12025
G1 X82.403 Y97.575 E12.16312
G1 X83.331 Y96.898 E12.21661
G1 X84.044 Y96.435 E12.2562
G1 X85.709 Y95.387 E12.34781
G1 X86.428 Y94.948 E12.38703
G1 X87.234 Y94.503 E12.4299
G1 X88.281 Y94.052 E12.48299
G1 X89.103 Y93.751 E12.52375
G1 X90.933 Y93.111 E12.61402
G1 X91.768 Y92.831 E12.65503
G1 X92.653 Y92.577 E12.6979
G1 X93.782 Y92.37 E12.75135
G1 X94.546 Y92.273 E12.78721
G1 X96.619 Y92.04 E12.88435
G1 X97.455 Y91.959 E12.92346
G1 X98.374 Y91.91 E12.96631
G1 X99.509 Y91.961 E13.01921
G1 X100.158 Y92.025 E13.04958
G1 X102.475 Y92.286 E13.15815
G1 X103.141 Y92.371 E13.18942
G1 X103.563 Y92.434 E13.20928
G1 X105.784 Y92.809 E13.31417
G1 X108.294 Y93.165 E13.43221
G1 X110.838 Y93.453 E13.55143
G1 X113.336 Y93.664 E13.66816
G1 X115.839 Y93.804 E13.78489
G1 X118.392 Y93.875 E13.90382
G1 X120.904 Y93.873 E14.02079
G1 X123.442 Y93.8 E14.13901
G1 X125.998 Y93.654 E14.25823
G1 X128.454 Y93.444 E14.37301
G1 X131.033 Y93.149 E14.49388
G1 X133.508 Y92.796 E14.61029
G1 X135.704 Y92.425 E14.71399
G1 X136.134 Y92.361 E14.73424
G1 X136.836 Y92.273 E14.76718
G1 X138.909 Y92.04 E14.86432
G1 X139.745 Y91.959 E14.90343
G1 X140.664 Y91.91 E14.94628
G1 X141.799 Y91.961 E14.99918
G1 X142.448 Y92.025 E15.02955
G1 X144.61 Y92.268 E15.13086
G1 X145.432 Y92.372 E15.16944
G1 X146.339 Y92.528 E15.21229
G1 X147.458 Y92.836 E15.26633
G1 X148.114 Y93.056 E15.29855
G1 X150.258 Y93.806 E15.40432
G1 X150.913 Y94.047 E15.43682
G1 X151.763 Y94.402 E15.47971
G1 X152.765 Y94.941 E15.53269
G1 X153.376 Y95.313 E15.566
G1 X155.251 Y96.491 E15.66911
G1 X155.858 Y96.884 E15.70278
G1 X156.608 Y97.418 E15.74565
G1 X157.473 Y98.169 E15.79899
G1 X158.045 Y98.725 E15.83613
G1 X159.493 Y100.174 E15.93152
G1 X160.053 Y100.748 E15.96886
G1 X160.667 Y101.434 E16.01173
G1 X161.356 Y102.379 E16.06619
G1 X161.814 Y103.086 E16.10541
G1 X162.912 Y104.835 E16.20157
G1 X163.31 Y105.489 E16.23722
G1 X163.754 Y106.296 E16.28011
G1 X164.198 Y107.326 E16.33234
G1 X164.478 Y108.089 E16.37018
G1 X165.205 Y110.17 E16.47282
G1 X165.421 Y110.82 E16.50472
G1 X165.673 Y111.706 E16.54761
G1 X165.873 Y112.791 E16.59898
G1 X165.952 Y113.396 E16.62739
G1 X166.225 Y115.814 E16.7407
G1 X166.289 Y116.47 E16.77139
G1 X166.338 Y117.389 E16.81425
G1 X166.29 Y118.522 E16.86705
G1 X166.226 Y119.182 E16.89793
G1 X165.964 Y121.507 E17.00687
G1 X165.88 Y122.169 E17.03795
G1 X165.724 Y123.077 E17.08085
G1 X165.413 Y124.21 E17.13556
G1 X165.188 Y124.88 E17.16847
G1 X164.457 Y126.967 E17.27143
G1 X164.212 Y127.638 E17.3047
G1 X163.859 Y128.488 E17.34755
G1 X163.311 Y129.511 E17.40159
G1 X162.943 Y130.116 E17.43457
G1 X161.75 Y132.014 E17.53895
G1 X161.362 Y132.612 E17.57215
G1 X160.828 Y133.361 E17.61498
G1 X160.094 Y134.207 E17.66713
G1 X159.513 Y134.806 E17.70599
G1 X158.081 Y136.239 E17.80032
G1 X157.484 Y136.82 E17.83911
G1 X156.797 Y137.432 E17.88195
G1 X155.877 Y138.102 E17.93495
G1 X155.164 Y138.565 E17.97454
G1 X153.499 Y139.613 E18.06614
G1 X152.784 Y140.05 E18.10516
G1 X151.978 Y140.495 E18.14803
G1 X150.932 Y140.945 E18.20106
G1 X150.105 Y141.249 E18.24209
G1 X148.275 Y141.889 E18.33236
G1 X147.44 Y142.169 E18.37337
G1 X146.555 Y142.423 E18.41624
G1 X145.42 Y142.631 E18.46997
G1 X144.824 Y142.707 E18.49795
G1 X142.43 Y142.976 E18.61012
G1 X141.771 Y143.04 E18.64095
G1 X140.851 Y143.089 E18.68385
G1 X139.717 Y143.04 E18.73671
G1 X139.061 Y142.976 E18.7674
G1 X136.734 Y142.714 E18.87644
G1 X136.068 Y142.629 E18.9077
G1 X135.647 Y142.566 E18.92752
G1 X133.431 Y142.192 E19.03217
G1 X130.914 Y141.835 E19.15054
G1 X128.37 Y141.547 E19.26976
G1 X125.872 Y141.336 E19.38649
G1 X123.368 Y141.196 E19.50327
G1 X120.816 Y141.125 E19.62215
G1 X118.304 Y141.127 E19.73912
G1 X115.767 Y141.2 E19.8573
G1 X113.211 Y141.346 E19.97651
G1 X110.719 Y141.559 E20.09297
G1 X108.246 Y141.842 E20.20888
G1 X105.661 Y142.211 E20.33047
G1 X103.504 Y142.575 E20.43232
G1 X103.067 Y142.64 E20.4529
G1 X102.52 Y142.709 E20.47857
G1 X100.128 Y142.978 E20.59065
G1 X99.461 Y143.042 E20.62185
G1 X98.542 Y143.09 E20.6647
G1 X97.409 Y143.039 E20.71752
G1 X96.76 Y142.975 E20.74788
G1 X94.439 Y142.713 E20.85664
G1 X93.775 Y142.628 E20.88781
G1 X92.868 Y142.472 E20.93067
G1 X91.751 Y142.164 E20.98462
G1 X90.958 Y141.897 E21.02358
G1 X88.964 Y141.199 E21.12196
G1 X88.309 Y140.959 E21.15444
G1 X87.459 Y140.605 E21.19731
G1 X86.439 Y140.057 E21.25123
G1 X85.827 Y139.684 E21.2846
G1 X83.957 Y138.509 E21.38744
G1 X83.35 Y138.116 E21.42111
G1 X82.6 Y137.582 E21.46398
G1 X81.735 Y136.831 E21.51732
G1 X81.162 Y136.274 E21.55453
G1 X79.715 Y134.826 E21.64985
G1 X79.147 Y134.243 E21.68776
G1 X78.534 Y133.556 E21.73063
G1 X77.863 Y132.638 E21.78358
G1 X77.393 Y131.914 E21.82377
G1 X76.375 Y130.294 E21.91286
G1 X75.893 Y129.503 E21.95599
G1 X75.45 Y128.697 E21.99882
G1 X75.004 Y127.658 E22.05147
G1 X74.731 Y126.913 E22.08841
G1 X74.005 Y124.837 E22.19082
G1 X73.789 Y124.189 E22.22263
G1 X73.536 Y123.304 E22.26549
G1 X73.332 Y122.193 E22.31808
G1 X73.23 Y121.394 E22.35559
G1 X72.999 Y119.341 E22.45179
G1 X72.919 Y118.532 E22.48965
G1 X72.87 Y117.613 E22.5325
G1 X72.918 Y116.478 E22.5854
G1 X72.982 Y115.818 E22.61627
G1 X73.253 Y113.418 E22.72874
G1 X73.331 Y112.811 E22.75723
G1 X73.488 Y111.904 E22.8001
G1 X73.797 Y110.787 E22.85406
G1 X74.064 Y109.994 E22.89302
G1 X74.755 Y108.022 E22.99032
G1 F1500 E16.49032
G0 F6000 X73.631 Y113.624
G1 F1500 E22.99032
G1 F1200 X73.728 Y112.862 E23.02609
G1 X73.883 Y111.972 E23.06816
G1 X74.176 Y110.915 E23.11923
G1 X74.441 Y110.126 E23.15799
G1 X75.08 Y108.3 E23.24807
G1 X75.378 Y107.485 E23.28848
G1 X75.726 Y106.652 E23.33051
G1 X76.239 Y105.696 E23.38103
G1 X76.605 Y105.094 E23.41384
G1 X77.716 Y103.326 E23.51107
G1 X78.195 Y102.588 E23.55204
G1 X78.72 Y101.853 E23.5941
G1 X79.423 Y101.048 E23.64386
G1 X79.87 Y100.587 E23.67376
G1 X81.513 Y98.944 E23.78196
G1 X81.995 Y98.475 E23.81327
G1 X82.669 Y97.874 E23.85532
G1 X83.549 Y97.233 E23.90601
G1 X84.132 Y96.854 E23.93839
G1 X86.047 Y95.648 E24.04377
G1 X86.636 Y95.289 E24.07589
G1 X87.428 Y94.854 E24.11797
G1 X88.419 Y94.428 E24.1682
G1 X89.235 Y94.129 E24.20866
G1 X91.198 Y93.443 E24.30549
G1 X91.895 Y93.21 E24.33971
G1 X92.764 Y92.962 E24.38179
G1 X93.833 Y92.767 E24.43239
G1 X94.591 Y92.671 E24.46797
G1 X96.827 Y92.421 E24.57273
G1 X97.493 Y92.357 E24.60389
G1 X98.395 Y92.31 E24.64594
G1 X99.47 Y92.359 E24.69605
G1 X100.26 Y92.438 E24.73302
G1 X102.275 Y92.665 E24.82744
G1 X103.09 Y92.768 E24.86569
G1 X103.497 Y92.828 E24.88485
G1 X105.744 Y93.207 E24.99096
G1 X108.26 Y93.564 E25.10929
G1 X110.761 Y93.847 E25.22649
G1 X113.314 Y94.062 E25.34579
G1 X115.842 Y94.204 E25.46369
G1 X118.381 Y94.275 E25.58196
G1 X120.916 Y94.273 E25.7
G1 X123.476 Y94.2 E25.81925
G1 X125.984 Y94.056 E25.93623
G1 X128.532 Y93.838 E26.05531
G1 X131.068 Y93.548 E26.17416
G1 X133.553 Y93.193 E26.29105
G1 X135.771 Y92.819 E26.39579
G1 X136.185 Y92.758 E26.41527
G1 X136.881 Y92.671 E26.44793
G1 X139.117 Y92.421 E26.5527
G1 X139.783 Y92.357 E26.58385
G1 X140.685 Y92.31 E26.62591
G1 X141.76 Y92.359 E26.67602
G1 X142.55 Y92.438 E26.71299
G1 X144.716 Y92.683 E26.81449
G1 X145.381 Y92.768 E26.84571
G1 X146.271 Y92.922 E26.88777
G1 X147.331 Y93.215 E26.93898
G1 X148.109 Y93.477 E26.9772
G1 X150.12 Y94.181 E27.07641
G1 X150.775 Y94.422 E27.10891
G1 X151.608 Y94.771 E27.15097
G1 X152.557 Y95.283 E27.20118
G1 X153.292 Y95.731 E27.24126
G1 X155.034 Y96.827 E27.33709
G1 X155.641 Y97.22 E27.37076
G1 X156.376 Y97.744 E27.4128
G1 X157.195 Y98.456 E27.46333
G1 X157.645 Y98.892 E27.4925
G1 X159.298 Y100.546 E27.60139
G1 X159.767 Y101.027 E27.63267
G1 X160.368 Y101.701 E27.67472
G1 X161.021 Y102.596 E27.72631
G1 X161.396 Y103.174 E27.75839
G1 X162.57 Y105.043 E27.86117
G1 X162.968 Y105.697 E27.89681
G1 X163.403 Y106.489 E27.93889
G1 X163.823 Y107.465 E27.98837
G1 X164.041 Y108.055 E28.01765
G1 X164.826 Y110.296 E28.12822
G1 X165.042 Y110.946 E28.16012
G1 X165.288 Y111.815 E28.20217
G1 X165.476 Y112.842 E28.25079
G1 X165.577 Y113.625 E28.28755
G1 X165.811 Y115.7 E28.38478
G1 X165.891 Y116.509 E28.42263
G1 X165.939 Y117.41 E28.46465
G1 X165.891 Y118.483 E28.51466
G1 X165.811 Y119.301 E28.55293
G1 X165.567 Y121.457 E28.65397
G1 X165.483 Y122.119 E28.68504
G1 X165.33 Y123.009 E28.72709
G1 X165.033 Y124.082 E28.77893
G1 X164.767 Y124.874 E28.81783
G1 X164.128 Y126.7 E28.90792
G1 X163.836 Y127.5 E28.94757
G1 X163.489 Y128.334 E28.98963
G1 X162.969 Y129.303 E29.04084
G1 X162.523 Y130.035 E29.08075
G1 X161.415 Y131.796 E29.17763
G1 X161.027 Y132.394 E29.21083
G1 X160.502 Y133.129 E29.25289
G1 X159.806 Y133.929 E29.30226
G1 X159.23 Y134.523 E29.34079
G1 X157.689 Y136.064 E29.44227
G1 X157.206 Y136.533 E29.47362
G1 X156.531 Y137.133 E29.51567
G1 X155.659 Y137.767 E29.56587
G1 X155.076 Y138.146 E29.59825
G1 X153.163 Y139.35 E29.7035
G1 X152.576 Y139.708 E29.73552
G1 X151.785 Y140.144 E29.77757
G1 X150.794 Y140.57 E29.8278
G1 X149.973 Y140.871 E29.86852
G1 X148.01 Y141.557 E29.96535
G1 X147.313 Y141.79 E29.99957
G1 X146.444 Y142.038 E30.04165
G1 X145.369 Y142.234 E30.09253
G1 X144.624 Y142.328 E30.12749
G1 X142.546 Y142.562 E30.22487
G1 X141.732 Y142.642 E30.26295
G1 X140.83 Y142.69 E30.30501
G1 X139.756 Y142.642 E30.35507
G1 X138.948 Y142.562 E30.39288
