;FLAVOR:Marlin
;TIME:7593
;Filament used: 12.9478m
;Layer height: 0.28
;MINX:63.277
;MINY:58.8
;MINZ:0.28
;MAXX:158.677
;MAXY:161.2
;MAXZ:42
;Generated with Cura_SteamEngine main
M82 ;absolute extrusion mode
; Ender 3 Custom Start G-code
G92 E0 ; Reset Extruder
G28 ; Home all axes
M104 S175 ; Start heating up the nozzle most of the way
M190 S50.0 ; Start heating the bed, wait until target temperature reached
M109 S200 ; Finish heating the nozzle
G1 Z2.0 F3000 ; Move Z Axis up little to prevent scratching of Heat Bed
G1 X0.1 Y20 Z0.3 F5000.0 ; Move to start position
G1 X0.1 Y200.0 Z0.3 F1500.0 E15 ; Draw the first line
G1 X0.4 Y200.0 Z0.3 F5000.0 ; Move to side a little
G1 X0.4 Y20 Z0.3 F1500.0 E30 ; Draw the second line
G92 E0 ; Reset Extruder
G1 Z2.0 F3000 ; Move Z Axis up little to prevent scratching of Heat Bed
G1 X5 Y20 Z0.3 F5000.0 ; Move over to prevent blob squish
G92 E0
G92 E0
G1 F1500 E-6
;LAYER_COUNT:150
;LAYER:0
M107
M204 S500
M205 X5 Y5
G0 F7500 X66.481 Y62.265 Z0.28
G0 X63.278 Y70.67
M205 X8 Y8
;TYPE:SKIRT
G1 F1500 E0
G1 X63.287 Y70.005 E0.03773
G1 X63.34 Y69.054 E0.09177
G1 X63.472 Y68.111 E0.14579
G1 X63.683 Y67.182 E0.19983
G1 X63.972 Y66.274 E0.25389
G1 X64.335 Y65.393 E0.30795
G1 X64.771 Y64.546 E0.362
G1 X65.277 Y63.738 E0.41608
G1 X65.848 Y62.976 E0.4701
G1 X66.481 Y62.265 E0.52411
G1 X67.172 Y61.608 E0.57821
G1 X67.915 Y61.013 E0.63221
G1 X68.706 Y60.481 E0.68629
G1 X69.539 Y60.018 E0.74036
G1 X70.407 Y59.626 E0.79439
G1 X71.305 Y59.309 E0.84842
G1 X72.227 Y59.068 E0.90248
G1 X73.166 Y58.905 E0.95655
G1 X74.318 Y58.813 E1.02211
G1 X74.957 Y58.8 E1.05837
G1 X146.783 Y58.801 E5.13325
G1 X147.481 Y58.811 E5.17286
G1 X148.432 Y58.865 E5.2269
G1 X149.375 Y58.998 E5.28092
G1 X150.304 Y59.21 E5.33498
G1 X151.212 Y59.499 E5.38904
G1 X152.092 Y59.863 E5.44307
G1 X152.939 Y60.3 E5.49714
G1 X153.746 Y60.806 E5.55118
G1 X154.508 Y61.378 E5.60523
G1 X155.219 Y62.012 E5.65928
G1 X155.874 Y62.703 E5.71329
G1 X156.47 Y63.447 E5.76738
G1 X157 Y64.238 E5.82139
G1 X157.463 Y65.071 E5.87546
G1 X157.854 Y65.939 E5.92947
G1 X158.171 Y66.838 E5.98355
G1 X158.411 Y67.76 E6.0376
G1 X158.574 Y68.698 E6.09162
G1 X158.664 Y69.841 E6.15666
G1 X158.677 Y70.48 E6.19292
G1 X158.676 Y149.254 E10.66198
G1 X158.667 Y149.981 E10.70323
G1 X158.615 Y150.933 E10.75732
G1 X158.484 Y151.876 E10.81133
G1 X158.274 Y152.806 E10.86542
G1 X157.987 Y153.714 E10.91944
G1 X157.624 Y154.595 E10.9735
G1 X157.189 Y155.443 E11.02757
G1 X156.685 Y156.251 E11.0816
G1 X156.114 Y157.014 E11.13566
G1 X155.482 Y157.726 E11.18968
G1 X154.792 Y158.383 E11.24373
G1 X154.049 Y158.98 E11.2978
G1 X153.259 Y159.512 E11.35184
G1 X152.427 Y159.976 E11.40588
G1 X151.559 Y160.369 E11.45994
G1 X150.661 Y160.687 E11.51398
G1 X149.74 Y160.93 E11.56802
G1 X148.801 Y161.094 E11.6221
G1 X147.636 Y161.187 E11.68841
G1 X146.997 Y161.2 E11.72466
G1 X75.188 Y161.199 E15.79858
G1 X74.49 Y161.19 E15.83818
G1 X73.538 Y161.138 E15.89227
G1 X72.595 Y161.006 E15.94629
G1 X71.666 Y160.795 E16.00034
G1 X70.758 Y160.508 E16.05436
G1 X69.877 Y160.145 E16.10842
G1 X69.029 Y159.71 E16.16249
G1 X68.221 Y159.205 E16.21655
G1 X67.459 Y158.634 E16.27057
G1 X66.747 Y158.001 E16.32462
G1 X66.09 Y157.31 E16.37871
G1 X65.494 Y156.567 E16.43275
G1 X64.962 Y155.777 E16.48678
G1 X64.498 Y154.945 E16.54083
G1 X64.106 Y154.077 E16.59486
G1 X63.788 Y153.179 E16.64891
G1 X63.546 Y152.257 E16.70299
G1 X63.383 Y151.319 E16.757
G1 X63.29 Y150.148 E16.82364
G1 X63.277 Y149.508 E16.85996
G1 X63.278 Y70.67 E21.33265
M205 X5 Y5
G0 F7500 X63.818 Y70.678
M205 X8 Y8
G1 F1500 X63.827 Y70.013 E21.37038
G1 X63.88 Y69.084 E21.42317
G1 X64.012 Y68.164 E21.4759
G1 X64.222 Y67.259 E21.52861
G1 X64.51 Y66.375 E21.58135
G1 X64.873 Y65.518 E21.63415
G1 X65.308 Y64.697 E21.68686
G1 X65.811 Y63.915 E21.73961
G1 X66.381 Y63.18 E21.79238
G1 X67.011 Y62.497 E21.8451
G1 X67.697 Y61.87 E21.89782
G1 X68.435 Y61.304 E21.95059
G1 X69.219 Y60.804 E22.00334
G1 X70.043 Y60.373 E22.0561
G1 X70.901 Y60.015 E22.10884
G1 X71.786 Y59.731 E22.16157
G1 X72.693 Y59.525 E22.21434
G1 X73.614 Y59.397 E22.26709
G1 X74.333 Y59.353 E22.30796
G1 X74.957 Y59.34 E22.34337
G1 X146.775 Y59.341 E26.41779
G1 X147.473 Y59.351 E26.4574
G1 X148.401 Y59.404 E26.51013
G1 X149.321 Y59.537 E26.56287
G1 X150.227 Y59.749 E26.61566
G1 X151.11 Y60.037 E26.66835
G1 X151.966 Y60.4 E26.7211
G1 X152.788 Y60.836 E26.77389
G1 X153.569 Y61.34 E26.82662
G1 X154.303 Y61.91 E26.87934
G1 X154.986 Y62.541 E26.9321
G1 X155.613 Y63.228 E26.98486
G1 X156.178 Y63.966 E27.03759
G1 X156.677 Y64.751 E27.09036
G1 X157.107 Y65.575 E27.14309
G1 X157.465 Y66.433 E27.19584
G1 X157.748 Y67.319 E27.2486
G1 X157.953 Y68.225 E27.3013
G1 X158.08 Y69.146 E27.35405
G1 X158.124 Y69.856 E27.39441
G1 X158.137 Y70.48 E27.42982
G1 X158.136 Y149.248 E31.89853
G1 X158.127 Y149.975 E31.93978
G1 X158.076 Y150.903 E31.99251
G1 X157.945 Y151.824 E32.04528
G1 X157.735 Y152.729 E32.09799
G1 X157.448 Y153.614 E32.15077
G1 X157.087 Y154.47 E32.20348
G1 X156.653 Y155.293 E32.25626
G1 X156.15 Y156.074 E32.30897
G1 X155.581 Y156.81 E32.36175
G1 X154.952 Y157.495 E32.41451
G1 X154.266 Y158.122 E32.46723
G1 X153.529 Y158.689 E32.51999
G1 X152.746 Y159.19 E32.57272
G1 X151.922 Y159.621 E32.62548
G1 X151.065 Y159.981 E32.67821
G1 X150.18 Y160.265 E32.73094
G1 X149.273 Y160.473 E32.78374
G1 X148.353 Y160.601 E32.83643
G1 X147.621 Y160.647 E32.87804
G1 X146.997 Y160.66 E32.91345
G1 X75.195 Y160.659 E36.98697
G1 X74.497 Y160.65 E37.02657
G1 X73.568 Y160.598 E37.07936
G1 X72.648 Y160.467 E37.13208
G1 X71.742 Y160.256 E37.18485
G1 X70.858 Y159.969 E37.23758
G1 X70.002 Y159.607 E37.29031
G1 X69.18 Y159.173 E37.34305
G1 X68.398 Y158.67 E37.3958
G1 X67.662 Y158.101 E37.44857
G1 X66.978 Y157.471 E37.50133
G1 X66.351 Y156.785 E37.55406
G1 X65.785 Y156.047 E37.60682
G1 X65.285 Y155.264 E37.65953
G1 X64.853 Y154.44 E37.71231
G1 X64.494 Y153.583 E37.76502
G1 X64.21 Y152.697 E37.81781
G1 X64.003 Y151.791 E37.87053
G1 X63.875 Y150.87 E37.92328
G1 X63.83 Y150.133 E37.96517
G1 X63.817 Y149.508 E38.00064
G1 X63.818 Y70.678 E42.47287
M205 X5 Y5
G0 F7500 X64.358 Y70.685
M205 X8 Y8
G1 F1500 X64.367 Y70.02 E42.51061
G1 X64.419 Y69.115 E42.56203
G1 X64.551 Y68.219 E42.61341
G1 X64.761 Y67.337 E42.66485
G1 X65.048 Y66.478 E42.71623
G1 X65.41 Y65.647 E42.76766
G1 X65.844 Y64.851 E42.81909
G1 X66.346 Y64.097 E42.87048
G1 X66.913 Y63.39 E42.9219
G1 X67.539 Y62.735 E42.9733
G1 X68.222 Y62.139 E43.02473
G1 X68.953 Y61.604 E43.07612
G1 X69.73 Y61.137 E43.12755
G1 X70.544 Y60.739 E43.17895
G1 X71.39 Y60.415 E43.23035
G1 X72.262 Y60.167 E43.28178
G1 X73.152 Y59.997 E43.33319
G1 X74.348 Y59.893 E43.40129
G1 X74.957 Y59.88 E43.43585
G1 X146.767 Y59.881 E47.50982
G1 X147.465 Y59.891 E47.54943
G1 X148.37 Y59.944 E47.60086
G1 X149.266 Y60.076 E47.65224
G1 X150.148 Y60.287 E47.70369
G1 X151.007 Y60.575 E47.75509
G1 X151.837 Y60.938 E47.80648
G1 X152.633 Y61.372 E47.85792
G1 X153.387 Y61.875 E47.90934
G1 X154.093 Y62.442 E47.96071
G1 X154.747 Y63.069 E48.01211
G1 X155.344 Y63.752 E48.06358
G1 X155.877 Y64.484 E48.11495
G1 X156.344 Y65.261 E48.16638
G1 X156.741 Y66.076 E48.21781
G1 X157.064 Y66.922 E48.26918
G1 X157.312 Y67.794 E48.32062
G1 X157.481 Y68.684 E48.37201
G1 X157.584 Y69.871 E48.4396
G1 X157.597 Y70.48 E48.47416
G1 X157.596 Y149.241 E52.94248
G1 X157.587 Y149.968 E52.98373
G1 X157.536 Y150.873 E53.03515
G1 X157.405 Y151.77 E53.08658
G1 X157.196 Y152.651 E53.13795
G1 X156.91 Y153.511 E53.18937
G1 X156.549 Y154.342 E53.24077
G1 X156.116 Y155.139 E53.29223
G1 X155.615 Y155.894 E53.34363
G1 X155.049 Y156.601 E53.39501
G1 X154.423 Y157.257 E53.44646
G1 X153.742 Y157.854 E53.49784
G1 X153.01 Y158.389 E53.54927
G1 X152.235 Y158.858 E53.60067
G1 X151.421 Y159.256 E53.65207
G1 X150.575 Y159.581 E53.70349
G1 X149.704 Y159.83 E53.75488
G1 X148.814 Y160.002 E53.80631
G1 X147.606 Y160.107 E53.8751
G1 X146.997 Y160.12 E53.90966
G1 X75.202 Y160.119 E57.98278
G1 X74.504 Y160.11 E58.02238
G1 X73.599 Y160.058 E58.07381
G1 X72.702 Y159.927 E58.12524
G1 X71.821 Y159.718 E58.1766
G1 X70.961 Y159.431 E58.22804
G1 X70.13 Y159.07 E58.27944
G1 X69.334 Y158.636 E58.33088
G1 X68.579 Y158.135 E58.38228
G1 X67.872 Y157.569 E58.43366
G1 X67.217 Y156.942 E58.4851
G1 X66.62 Y156.261 E58.53648
G1 X66.085 Y155.529 E58.58792
G1 X65.617 Y154.753 E58.63933
G1 X65.219 Y153.939 E58.69074
G1 X64.894 Y153.093 E58.74215
G1 X64.646 Y152.221 E58.79358
G1 X64.475 Y151.331 E58.845
G1 X64.37 Y150.118 E58.91407
G1 X64.357 Y149.508 E58.94869
G1 X64.358 Y70.685 E63.42053
M205 X5 Y5
G1 F1500 E57.42053
;MESH:wiz_box.stl
G0 F7500 X84.877 Y107.908
G0 X84.995 Y110.529
G1 F1500 E63.42053
G0 F7500 X85.079 Y110.526
M205 X8 Y8
;TYPE:WALL-INNER
G1 F1500 X85.087 Y109.177 E63.50556
G1 X85.161 Y107.88 E63.58745
G1 X85.296 Y106.641 E63.66602
G1 X85.497 Y105.378 E63.74663
G1 X85.765 Y104.112 E63.82821
G1 X86.078 Y102.927 E63.90547
G1 X86.466 Y101.707 E63.98617
G1 X86.879 Y100.596 E64.06088
G1 X87.368 Y99.448 E64.13954
G1 X87.888 Y98.376 E64.21464
G1 X88.449 Y97.346 E64.28858
G1 X89.046 Y96.361 E64.36118
G1 X89.656 Y95.444 E64.43061
G1 X90.321 Y94.536 E64.50155
G1 X91.069 Y93.609 E64.57664
G1 X91.845 Y92.732 E64.65046
G1 X92.645 Y91.905 E64.72299
G1 X93.555 Y91.052 E64.80161
G1 X94.457 Y90.284 E64.87629
G1 X95.48 Y89.494 E64.95776
G1 X96.505 Y88.784 E65.03636
G1 X97.545 Y88.134 E65.11367
G1 X98.659 Y87.512 E65.1941
G1 X99.855 Y86.924 E65.27811
G1 X101.047 Y86.412 E65.35989
G1 X102.271 Y85.958 E65.44218
G1 X103.52 Y85.567 E65.52468
G1 X104.804 Y85.237 E65.60825
G1 X106.06 Y84.983 E65.68903
G1 X107.381 Y84.786 E65.77322
G1 X108.644 Y84.663 E65.85321
G1 X109.951 Y84.602 E65.93569
G1 X111.3 Y84.61 E66.02072
G1 X112.597 Y84.684 E66.10262
G1 X113.835 Y84.819 E66.18112
G1 X115.099 Y85.02 E66.2618
G1 X116.365 Y85.288 E66.34337
G1 X117.55 Y85.601 E66.42063
G1 X118.77 Y85.989 E66.50133
G1 X119.881 Y86.402 E66.57604
G1 X121.029 Y86.891 E66.6547
G1 X122.101 Y87.411 E66.72981
G1 X123.098 Y87.953 E66.80134
G1 X124.116 Y88.569 E66.87634
G1 X125.032 Y89.178 E66.94568
G1 X125.941 Y89.844 E67.01672
G1 X126.868 Y90.592 E67.0918
G1 X127.745 Y91.368 E67.16562
G1 X128.572 Y92.168 E67.23815
G1 X129.425 Y93.078 E67.31677
G1 X130.219 Y94.012 E67.39405
G1 X130.957 Y94.969 E67.47023
G1 X131.692 Y96.026 E67.55138
G1 X132.343 Y97.068 E67.62883
G1 X132.965 Y98.182 E67.70926
G1 X133.553 Y99.378 E67.79327
G1 X134.065 Y100.569 E67.87499
G1 X134.505 Y101.751 E67.95449
G1 X134.91 Y103.043 E68.03984
G1 X135.24 Y104.327 E68.12341
G1 X135.49 Y105.56 E68.20272
G1 X135.691 Y106.904 E68.28838
G1 X135.817 Y108.209 E68.37103
G1 X135.876 Y109.513 E68.45331
G1 X135.867 Y110.824 E68.53595
G1 X135.792 Y112.119 E68.61772
G1 X135.658 Y113.358 E68.69628
G1 X135.455 Y114.635 E68.77779
G1 X135.189 Y115.888 E68.85853
G1 X134.876 Y117.073 E68.93579
G1 X134.488 Y118.293 E69.01649
G1 X134.075 Y119.404 E69.09121
G1 X133.586 Y120.552 E69.16986
G1 X133.084 Y121.589 E69.24249
G1 X132.525 Y122.619 E69.31636
G1 X131.908 Y123.639 E69.39151
G1 X131.298 Y124.556 E69.46093
G1 X130.633 Y125.464 E69.53188
G1 X129.885 Y126.391 E69.60696
G1 X129.109 Y127.268 E69.68078
G1 X128.309 Y128.095 E69.75331
G1 X127.399 Y128.948 E69.83193
G1 X126.497 Y129.716 E69.90661
G1 X125.474 Y130.506 E69.98809
G1 X124.449 Y131.216 E70.06669
G1 X123.409 Y131.866 E70.144
G1 X122.295 Y132.488 E70.22442
G1 X121.099 Y133.076 E70.30843
G1 X119.907 Y133.588 E70.39021
G1 X118.683 Y134.042 E70.4725
G1 X117.434 Y134.433 E70.555
G1 X116.15 Y134.763 E70.63857
G1 X114.894 Y135.017 E70.71935
G1 X113.573 Y135.214 E70.80354
G1 X112.31 Y135.337 E70.88353
G1 X111.003 Y135.398 E70.96601
G1 X109.697 Y135.392 E71.04834
G1 X108.357 Y135.316 E71.13294
G1 X107.119 Y135.181 E71.21144
G1 X105.855 Y134.98 E71.29212
G1 X104.589 Y134.712 E71.37369
G1 X103.404 Y134.399 E71.45095
G1 X102.185 Y134.011 E71.53159
G1 X101.073 Y133.598 E71.60637
G1 X99.927 Y133.109 E71.68491
G1 X98.88 Y132.603 E71.75821
G1 X97.823 Y132.027 E71.83409
G1 X96.838 Y131.431 E71.90666
G1 X95.921 Y130.821 E71.97609
G1 X94.98 Y130.131 E72.04964
G1 X94.114 Y129.431 E72.11984
G1 X93.209 Y128.632 E72.19594
G1 X92.381 Y127.831 E72.26856
G1 X91.527 Y126.92 E72.34727
G1 X90.761 Y126.02 E72.42177
G1 X89.971 Y124.997 E72.50324
G1 X89.261 Y123.972 E72.58184
G1 X88.585 Y122.89 E72.66227
G1 X87.988 Y121.817 E72.73967
G1 X87.401 Y120.622 E72.82359
G1 X86.889 Y119.43 E72.90537
G1 X86.435 Y118.206 E72.98766
G1 X86.044 Y116.957 E73.07016
G1 X85.714 Y115.673 E73.15373
G1 X85.46 Y114.418 E73.23445
G1 X85.263 Y113.096 E73.3187
G1 X85.14 Y111.833 E73.39869
G1 X85.079 Y110.526 E73.48117
M205 X5 Y5
G0 F7500 X85.649 Y110.5
M205 X8 Y8
;TYPE:WALL-OUTER
G1 F1500 X85.656 Y109.209 E73.55441
G1 X85.728 Y107.942 E73.62641
G1 X85.865 Y106.69 E73.69786
G1 X86.062 Y105.454 E73.76887
G1 X86.316 Y104.258 E73.83824
G1 X86.633 Y103.06 E73.90854
G1 X87 Y101.905 E73.9773
G1 X87.418 Y100.783 E74.04522
G1 X87.881 Y99.697 E74.1122
G1 X88.389 Y98.649 E74.17827
G1 X88.937 Y97.642 E74.24332
G1 X89.521 Y96.677 E74.30731
G1 X90.138 Y95.75 E74.37048
G1 X90.788 Y94.863 E74.43287
G1 X91.496 Y93.987 E74.49677
G1 X92.254 Y93.129 E74.56172
G1 X93.064 Y92.293 E74.62776
G1 X93.924 Y91.486 E74.69467
G1 X94.836 Y90.71 E74.7626
G1 X95.805 Y89.963 E74.83202
G1 X96.807 Y89.268 E74.9012
G1 X97.859 Y88.611 E74.97156
G1 X98.949 Y88.003 E75.04237
G1 X100.081 Y87.447 E75.11392
G1 X101.245 Y86.946 E75.18582
G1 X102.428 Y86.506 E75.25742
G1 X103.662 Y86.119 E75.33079
G1 X104.917 Y85.796 E75.40431
G1 X106.166 Y85.543 E75.47661
G1 X107.436 Y85.354 E75.54945
G1 X108.713 Y85.23 E75.62224
G1 X109.992 Y85.172 E75.69488
G1 X111.268 Y85.179 E75.76727
G1 X112.535 Y85.251 E75.83927
G1 X113.787 Y85.388 E75.91072
G1 X115.023 Y85.585 E75.98173
G1 X116.219 Y85.839 E76.05109
G1 X117.417 Y86.156 E76.1214
G1 X118.572 Y86.523 E76.19015
G1 X119.694 Y86.941 E76.25808
G1 X120.78 Y87.404 E76.32506
G1 X121.828 Y87.912 E76.39113
G1 X122.836 Y88.46 E76.45622
G1 X123.8 Y89.044 E76.52016
G1 X124.726 Y89.66 E76.58326
G1 X125.614 Y90.311 E76.64573
G1 X126.49 Y91.019 E76.70963
G1 X127.348 Y91.777 E76.77458
G1 X128.184 Y92.587 E76.84062
G1 X128.991 Y93.447 E76.90752
G1 X129.759 Y94.349 E76.97473
G1 X130.513 Y95.327 E77.04479
G1 X131.208 Y96.328 E77.11393
G1 X131.866 Y97.382 E77.18442
G1 X132.474 Y98.472 E77.25523
G1 X133.024 Y99.591 E77.32597
G1 X133.531 Y100.768 E77.39867
G1 X133.971 Y101.95 E77.47023
G1 X134.358 Y103.185 E77.54365
G1 X134.681 Y104.44 E77.61717
G1 X134.934 Y105.687 E77.68936
G1 X135.123 Y106.959 E77.76231
G1 X135.247 Y108.235 E77.83504
G1 X135.306 Y109.513 E77.90763
G1 X135.298 Y110.791 E77.98013
G1 X135.225 Y112.058 E78.05213
G1 X135.089 Y113.31 E78.12358
G1 X134.892 Y114.545 E78.19453
G1 X134.638 Y115.742 E78.26395
G1 X134.321 Y116.94 E78.33425
G1 X133.954 Y118.095 E78.40301
G1 X133.536 Y119.217 E78.47094
G1 X133.073 Y120.303 E78.53791
G1 X132.565 Y121.351 E78.60399
G1 X132.017 Y122.358 E78.66903
G1 X131.433 Y123.323 E78.73302
G1 X130.816 Y124.25 E78.7962
G1 X130.166 Y125.137 E78.85858
G1 X129.458 Y126.013 E78.92248
G1 X128.7 Y126.871 E78.98743
G1 X127.89 Y127.707 E79.05347
G1 X127.03 Y128.514 E79.12038
G1 X126.118 Y129.29 E79.18832
G1 X125.149 Y130.037 E79.25773
G1 X124.147 Y130.732 E79.32691
G1 X123.095 Y131.389 E79.39728
G1 X122.005 Y131.997 E79.46808
G1 X120.873 Y132.553 E79.53963
G1 X119.709 Y133.054 E79.61153
G1 X118.526 Y133.494 E79.68314
G1 X117.292 Y133.881 E79.75651
G1 X116.037 Y134.204 E79.83002
G1 X114.788 Y134.457 E79.90232
G1 X113.518 Y134.646 E79.97517
G1 X112.241 Y134.77 E80.04796
G1 X110.962 Y134.828 E80.12059
G1 X109.686 Y134.821 E80.19298
G1 X108.419 Y134.749 E80.26498
G1 X107.167 Y134.612 E80.33643
G1 X105.931 Y134.415 E80.40744
G1 X104.735 Y134.161 E80.4768
G1 X103.537 Y133.844 E80.54711
G1 X102.383 Y133.477 E80.61581
G1 X101.259 Y133.059 E80.68384
G1 X100.175 Y132.596 E80.75072
G1 X99.116 Y132.084 E80.81745
G1 X98.118 Y131.54 E80.88193
G1 X97.154 Y130.956 E80.94588
G1 X96.227 Y130.339 E81.00905
G1 X95.339 Y129.687 E81.07155
G1 X94.461 Y128.978 E81.13558
G1 X93.606 Y128.223 E81.20029
G1 X92.769 Y127.412 E81.26641
G1 X91.961 Y126.551 E81.3334
G1 X91.187 Y125.641 E81.40117
