;FLAVOR:Marlin
;TIME:19264
;Filament used: 33.672m
;Layer height: 0.28
;MINX:11.303
;MINY:55.551
;MINZ:0.336
;MAXX:196.039
;MAXY:165.515
;MAXZ:43.466
;Generated with Cura_SteamEngine main
M82 ;absolute extrusion mode
; Ender 3 Custom Start G-code
G92 E0 ; Reset Extruder
G28 ; Home all axes
M104 S175 ; Start heating up the nozzle most of the way
M190 S50.0 ; Start heating the bed, wait until target temperature reached
M109 S200 ; Finish heating the nozzle
G1 Z2.0 F3000 ; Move Z Axis up little to prevent scratching of Heat Bed
G1 X0.1 Y20 Z0.3 F5000.0 ; Move to start position
G1 X0.1 Y200.0 Z0.3 F1500.0 E15 ; Draw the first line
G1 X0.4 Y200.0 Z0.3 F5000.0 ; Move to side a little
G1 X0.4 Y20 Z0.3 F1500.0 E30 ; Draw the second line
G92 E0 ; Reset Extruder
G1 Z2.0 F3000 ; Move Z Axis up little to prevent scratching of Heat Bed
G1 X5 Y20 Z0.3 F5000.0 ; Move over to prevent blob squish
G92 E0
G92 E0
G1 F1500 E-6
;LAYER_COUNT:150
;LAYER:-6
M107
M204 S500
M205 X20 Y20
G0 F9000 X19.293 Y57.136 Z0.336
;TYPE:SUPPORT-INTERFACE
G1 F1500 E0
G1 F1350 X18.363 Y57.651 E0.1188
G1 X17.415 Y58.274 E0.24558
G1 X16.546 Y58.942 E0.36807
G1 X15.706 Y59.706 E0.49496
G1 X15.079 Y60.355 E0.59581
G1 X14.349 Y61.224 E0.72264
G1 X13.711 Y62.116 E0.8452
G1 X13.132 Y63.08 E0.97087
G1 X12.68 Y63.96 E1.08143
G1 X12.262 Y64.945 E1.201
G1 X11.922 Y65.949 E1.31946
G1 X11.638 Y67.053 E1.44686
G1 X11.475 Y67.935 E1.54709
G1 X11.35 Y69.009 E1.66793
G1 X11.303 Y70.159 E1.79655
G1 X11.303 Y149.899 E10.70782
G1 X11.31 Y150.296 E10.75219
G1 X11.391 Y151.455 E10.88203
G1 X11.535 Y152.427 E10.99184
G1 X11.78 Y153.547 E11.11997
G1 X12.118 Y154.651 E11.249
G1 X12.495 Y155.622 E11.3654
G1 X12.888 Y156.459 E11.46874
G1 X13.441 Y157.457 E11.59625
G1 X14.032 Y158.349 E11.71583
G1 X14.691 Y159.204 E11.83646
G1 X15.456 Y160.046 E11.9636
G1 X16.107 Y160.673 E12.0646
G1 X16.979 Y161.406 E12.19191
G1 X17.861 Y162.035 E12.31297
G1 X18.833 Y162.62 E12.43976
G1 X19.7 Y163.067 E12.54877
G1 X20.608 Y163.453 E12.65903
G1 X21.692 Y163.828 E12.78721
G1 X22.805 Y164.114 E12.91564
G1 X23.768 Y164.292 E13.02508
G1 X24.762 Y164.402 E13.13684
G1 X25.893 Y164.449 E13.26334
G1 X98.652 Y164.449 E21.39446
G1 X99.048 Y164.442 E21.43872
G1 X100.206 Y164.361 E21.56844
G1 X101.18 Y164.217 E21.67848
G1 X101.972 Y164.045 E21.76905
G1 X102.569 Y163.95 E21.8366
G1 X103.258 Y163.924 E21.91366
G1 X103.923 Y163.981 E21.98825
G1 X104.336 Y164.062 E22.03528
G1 X104.345 Y164.075 E22.03705
G1 X105.543 Y164.292 E22.17311
G1 X106.681 Y164.413 E22.301
G1 X107.665 Y164.449 E22.41104
G1 X180.426 Y164.449 E30.54238
G1 X180.82 Y164.442 E30.58642
G1 X181.977 Y164.361 E30.71603
G1 X182.952 Y164.217 E30.82617
G1 X184.077 Y163.971 E30.95487
G1 X185.085 Y163.668 E31.07249
G1 X186.162 Y163.25 E31.2016
G1 X186.983 Y162.864 E31.30299
G1 X187.913 Y162.349 E31.42179
G1 X188.861 Y161.726 E31.54856
G1 X189.73 Y161.058 E31.67105
G1 X190.57 Y160.294 E31.79795
G1 X191.197 Y159.645 E31.89879
G1 X191.927 Y158.776 E32.02563
G1 X192.565 Y157.884 E32.14818
G1 X193.144 Y156.92 E32.27385
G1 X193.596 Y156.04 E32.38441
G1 X194.018 Y155.047 E32.50499
G1 X194.354 Y154.051 E32.62246
G1 X194.638 Y152.947 E32.74985
G1 X194.801 Y152.065 E32.85009
G1 X194.926 Y150.991 E32.97092
G1 X194.974 Y149.841 E33.09955
G1 X194.973 Y70.101 E42.01082
G1 X194.966 Y69.704 E42.05519
G1 X194.885 Y68.547 E42.18481
G1 X194.741 Y67.572 E42.29495
G1 X194.496 Y66.453 E42.42296
G1 X194.158 Y65.349 E42.55199
G1 X193.774 Y64.36 E42.67056
G1 X193.357 Y63.474 E42.77999
G1 X192.79 Y62.476 E42.90826
G1 X192.25 Y61.66 E43.01761
G1 X191.585 Y60.797 E43.13937
G1 X190.82 Y59.954 E43.26659
G1 X190.169 Y59.327 E43.36759
G1 X189.297 Y58.594 E43.4949
G1 X188.415 Y57.965 E43.61596
G1 X187.443 Y57.38 E43.74275
G1 X186.576 Y56.933 E43.85176
G1 X185.668 Y56.547 E43.96202
G1 X184.584 Y56.172 E44.0902
G1 X183.471 Y55.886 E44.21863
G1 X182.508 Y55.708 E44.32807
G1 X181.514 Y55.598 E44.43983
G1 X180.383 Y55.551 E44.56633
G1 X107.624 Y55.551 E52.69745
G1 X107.228 Y55.558 E52.74171
G1 X106.07 Y55.639 E52.87143
G1 X105.096 Y55.783 E52.98147
G1 X104.296 Y55.956 E53.07294
G1 X103.721 Y56.049 E53.13803
G1 X103.018 Y56.076 E53.21665
G1 X102.353 Y56.019 E53.29124
G1 X101.956 Y55.942 E53.33643
G1 X101.943 Y55.925 E53.33882
G1 X100.818 Y55.723 E53.46656
G1 X99.743 Y55.598 E53.5875
G1 X98.611 Y55.552 E53.71411
G1 X25.85 Y55.551 E61.84545
G1 X25.456 Y55.558 E61.88949
G1 X24.299 Y55.639 E62.0191
G1 X23.324 Y55.783 E62.12925
G1 X22.199 Y56.029 E62.25794
G1 X21.191 Y56.332 E62.37557
G1 X20.114 Y56.75 E62.50467
G1 X19.293 Y57.136 E62.60606
G1 F1500 E56.60606
G0 F9000 X52.963 Y105.319
G1 F1500 E62.60606
G1 F1350 X53.172 Y104.947 E62.65374
G1 X53.41 Y104.563 E62.70423
G1 X53.685 Y104.161 E62.75866
G1 X53.938 Y103.827 E62.80549
G1 X54.205 Y103.506 E62.85215
G1 X54.543 Y103.131 E62.90857
G1 X55.003 Y102.677 E62.98079
G1 X55.409 Y102.323 E63.04099
G1 X55.755 Y102.051 E63.09018
G1 X56.184 Y101.746 E63.149
G1 X56.55 Y101.51 E63.19767
G1 X57.038 Y101.23 E63.26054
G1 X57.469 Y101.012 E63.31452
G1 X57.921 Y100.809 E63.36989
G1 X58.211 Y100.693 E63.4048
G1 X58.654 Y100.537 E63.45728
G1 X59.166 Y100.385 E63.51697
G1 X59.651 Y100.267 E63.57275
G1 X60.185 Y100.168 E63.63345
G1 X60.662 Y100.104 E63.68723
G1 X61.203 Y100.06 E63.74789
G1 X61.689 Y100.045 E63.80223
G1 X62.239 Y100.056 E63.8637
G1 X62.715 Y100.09 E63.91704
G1 X63.235 Y100.154 E63.97559
G1 X63.685 Y100.233 E64.02664
G1 X64.196 Y100.346 E64.08513
G1 X64.651 Y100.474 E64.13795
G1 X65.138 Y100.636 E64.19531
G1 X65.58 Y100.806 E64.24823
G1 X65.994 Y100.991 E64.29891
G1 X66.402 Y101.195 E64.34988
G1 X66.833 Y101.436 E64.40507
G1 X67.369 Y101.777 E64.47606
G1 X67.758 Y102.058 E64.52969
G1 X68.05 Y102.287 E64.57116
G1 X68.442 Y102.624 E64.62893
G1 X68.959 Y103.127 E64.70954
G1 X69.259 Y103.457 E64.75938
G1 X69.567 Y103.827 E64.81318
G1 X69.849 Y104.207 E64.86607
G1 X70.003 Y104.429 E64.89626
G1 X70.249 Y104.809 E64.94685
G1 X70.394 Y105.053 E64.97857
G1 X70.637 Y105.505 E65.03592
G1 X70.864 Y105.987 E65.09546
G1 X71.047 Y106.431 E65.14913
G1 X71.22 Y106.915 E65.20657
G1 X71.363 Y107.397 E65.26275
G1 X71.485 Y107.898 E65.32038
G1 X71.602 Y108.528 E65.39199
G1 X71.672 Y109.15 E65.46194
G1 X71.692 Y109.432 E65.49353
G1 X71.708 Y109.929 E65.5491
G1 X71.696 Y110.486 E65.61136
G1 X71.662 Y110.957 E65.66414
G1 X71.633 Y111.223 E65.69404
G1 X71.565 Y111.684 E65.74611
G1 X71.468 Y112.18 E65.80259
G1 X71.403 Y112.447 E65.8333
G1 X71.272 Y112.913 E65.8874
G1 X71.035 Y113.602 E65.96883
G1 X70.863 Y114.019 E66.01924
G1 X70.654 Y114.464 E66.07418
G1 X70.445 Y114.856 E66.12382
G1 X70.1 Y115.428 E66.19847
G1 X69.829 Y115.826 E66.25228
G1 X69.441 Y116.326 E66.32301
G1 X69.127 Y116.689 E66.37665
G1 X68.801 Y117.033 E66.42961
G1 X68.501 Y117.322 E66.47617
G1 X68.017 Y117.746 E66.54807
G1 X67.55 Y118.093 E66.61309
G1 X66.957 Y118.488 E66.69272
G1 X66.71 Y118.635 E66.72484
G1 X66.23 Y118.893 E66.78574
G1 X65.802 Y119.096 E66.83868
G1 X65.3 Y119.304 E66.8994
G1 X64.618 Y119.536 E66.97991
G1 X64.129 Y119.669 E67.03654
G1 X63.853 Y119.733 E67.06821
G1 X63.319 Y119.832 E67.1289
G1 X62.842 Y119.896 E67.18268
G1 X62.302 Y119.94 E67.24323
G1 X61.815 Y119.955 E67.29768
G1 X61.266 Y119.944 E67.35905
G1 X60.796 Y119.91 E67.41171
G1 X60.529 Y119.881 E67.44172
G1 X60.068 Y119.813 E67.4938
G1 X59.574 Y119.717 E67.55004
G1 X59.299 Y119.651 E67.58164
G1 X58.839 Y119.522 E67.63503
G1 X58.185 Y119.297 E67.71232
G1 X57.716 Y119.103 E67.76904
G1 X57.288 Y118.901 E67.82193
G1 X56.89 Y118.689 E67.87233
G1 X56.531 Y118.478 E67.91886
G1 X56.103 Y118.201 E67.97584
G1 X55.573 Y117.809 E68.04951
G1 X55.057 Y117.371 E68.12515
G1 X54.753 Y117.084 E68.17187
G1 X54.399 Y116.715 E68.22901
G1 X53.984 Y116.238 E68.29967
G1 X53.498 Y115.568 E68.39217
G1 X53.242 Y115.17 E68.44506
G1 X53.093 Y114.917 E68.47787
G1 X52.87 Y114.501 E68.53062
G1 X52.656 Y114.05 E68.5864
G1 X52.445 Y113.541 E68.64798
G1 X52.252 Y112.995 E68.7127
G1 X52.083 Y112.377 E68.7843
G1 X52.017 Y112.093 E68.81688
G1 X51.922 Y111.576 E68.87563
G1 X51.856 Y111.093 E68.9301
G1 X51.83 Y110.825 E68.96019
G1 X51.801 Y110.322 E69.0165
G1 X51.798 Y109.834 E69.07104
G1 X51.821 Y109.283 E69.13267
G1 X51.867 Y108.802 E69.18667
G1 X51.94 Y108.304 E69.24291
G1 X52.038 Y107.811 E69.29909
G1 X52.102 Y107.543 E69.32988
G1 X52.291 Y106.895 E69.40531
G1 X52.455 Y106.434 E69.46
G1 X52.56 Y106.171 E69.49164
G1 X52.749 Y105.743 E69.54393
G1 X52.963 Y105.319 E69.59701
G1 F1500 E63.59701
G0 F9000 X133.57 Y109.808
G1 F1500 E69.59701
G1 F1350 X133.59 Y109.321 E69.65148
G1 X133.614 Y109.027 E69.68444
G1 X133.677 Y108.525 E69.74098
G1 X133.77 Y107.999 E69.80068
G1 X133.874 Y107.542 E69.85305
G1 X133.993 Y107.121 E69.90195
G1 X134.193 Y106.512 E69.97358
G1 X134.415 Y105.976 E70.03841
G1 X134.616 Y105.548 E70.09126
G1 X134.886 Y105.037 E70.15584
G1 X135.186 Y104.554 E70.21939
G1 X135.56 Y104.02 E70.29224
G1 X136.001 Y103.476 E70.3705
G1 X136.292 Y103.154 E70.41901
G1 X136.66 Y102.785 E70.47725
G1 X136.983 Y102.491 E70.52606
G1 X137.361 Y102.177 E70.58097
G1 X137.744 Y101.892 E70.63433
G1 X137.954 Y101.747 E70.66284
G1 X138.361 Y101.487 E70.71682
G1 X138.797 Y101.236 E70.77304
G1 X139.22 Y101.021 E70.82607
G1 X139.471 Y100.906 E70.85692
G1 X139.953 Y100.705 E70.91528
G1 X140.432 Y100.535 E70.97208
G1 X140.938 Y100.385 E71.03106
G1 X141.423 Y100.267 E71.08685
G1 X141.957 Y100.168 E71.14754
G1 X142.434 Y100.104 E71.20132
G1 X142.975 Y100.06 E71.26198
G1 X143.461 Y100.045 E71.31632
G1 X143.998 Y100.055 E71.37634
G1 X144.619 Y100.1 E71.44592
G1 X145.245 Y100.194 E71.51667
G1 X145.678 Y100.277 E71.56594
G1 X145.935 Y100.338 E71.59546
G1 X146.429 Y100.478 E71.65284
G1 X146.94 Y100.647 E71.71298
G1 X147.335 Y100.801 E71.76036
G1 X147.771 Y100.994 E71.81365
G1 X148.199 Y101.209 E71.86718
G1 X148.586 Y101.426 E71.91676
G1 X148.98 Y101.67 E71.96855
G1 X149.491 Y102.026 E72.03815
G1 X149.833 Y102.296 E72.08684
G1 X150.219 Y102.631 E72.14396
G1 X150.545 Y102.94 E72.19416
G1 X150.858 Y103.266 E72.24466
G1 X151.19 Y103.644 E72.30089
G1 X151.46 Y103.989 E72.34985
G1 X151.769 Y104.419 E72.40902
G1 X152.038 Y104.837 E72.46457
G1 X152.291 Y105.281 E72.52168
G1 X152.512 Y105.716 E72.57621
G1 X152.624 Y105.96 E72.60621
G1 X152.815 Y106.421 E72.66198
G1 X152.982 Y106.89 E72.71761
G1 X153.138 Y107.409 E72.77818
G1 X153.254 Y107.888 E72.83325
G1 X153.351 Y108.41 E72.89259
G1 X153.419 Y108.913 E72.94931
G1 X153.473 Y109.549 E73.02064
G1 X153.478 Y110.195 E73.09284
G1 X153.457 Y110.684 E73.14754
G1 X153.405 Y111.222 E73.20794
G1 X153.332 Y111.712 E73.2633
G1 X153.24 Y112.179 E73.3165
G1 X153.109 Y112.692 E73.37566
G1 X152.974 Y113.135 E73.42742
G1 X152.813 Y113.584 E73.48073
G1 X152.628 Y114.032 E73.53489
G1 X152.423 Y114.468 E73.58873
G1 X152.212 Y114.869 E73.63937
G1 X151.874 Y115.425 E73.71209
G1 X151.556 Y115.894 E73.77541
G1 X151.076 Y116.487 E73.86067
G1 X150.738 Y116.864 E73.91726
G1 X150.256 Y117.336 E73.99265
G1 X149.887 Y117.66 E74.04753
G1 X149.673 Y117.832 E74.07821
G1 X149.332 Y118.086 E74.12573
G1 X148.873 Y118.397 E74.18769
G1 X148.369 Y118.703 E74.25358
G1 X147.811 Y118.985 E74.32345
G1 X147.321 Y119.203 E74.38338
G1 X146.877 Y119.373 E74.43652
G1 X146.614 Y119.464 E74.46762
G1 X146.131 Y119.611 E74.52404
G1 X145.639 Y119.728 E74.58055
G1 X145.118 Y119.827 E74.63982
G1 X144.849 Y119.867 E74.67021
G1 X144.371 Y119.92 E74.72396
G1 X143.847 Y119.951 E74.78262
G1 X143.329 Y119.954 E74.84051
G1 X143.049 Y119.945 E74.87182
G1 X142.427 Y119.9 E74.94151
G1 X141.802 Y119.806 E75.01214
G1 X141.368 Y119.722 E75.06154
G1 X141.089 Y119.655 E75.09361
G1 X140.504 Y119.491 E75.1615
G1 X139.954 Y119.296 E75.22672
G1 X139.49 Y119.104 E75.28284
G1 X138.838 Y118.789 E75.36376
G1 X138.457 Y118.572 E75.41276
G1 X137.898 Y118.217 E75.48676
G1 X137.524 Y117.947 E75.53831
G1 X137.018 Y117.539 E75.61095
G1 X136.635 Y117.192 E75.66871
G1 X136.34 Y116.895 E75.71549
G1 X136.016 Y116.541 E75.76912
G1 X135.691 Y116.149 E75.82602
G1 X135.345 Y115.684 E75.8908
G1 X135.007 Y115.158 E75.96067
G1 X134.75 Y114.709 E76.01849
G1 X134.542 Y114.296 E76.07016
G1 X134.327 Y113.814 E76.12914
G1 X134.1 Y113.221 E76.2001
G1 X133.875 Y112.478 E76.28686
G1 X133.744 Y111.859 E76.35757
G1 X133.695 Y111.584 E76.38878
G1 X133.628 Y111.087 E76.44483
G1 X133.574 Y110.45 E76.51627
G1 X133.57 Y109.808 E76.58802
G0 F9000 X133.18 Y110.553
G1 F1350 X78.579 Y55.951 E85.21746
G0 F9000 X76.316 Y55.951
G1 F1350 X133.721 Y113.356 E94.28999
G1 F1500 E88.28999
G0 F9000 X135.004 Y112.598
G0 X134.696 Y108.928
G0 X133.292 Y108.402
G1 F1500 E94.28999
G1 F1350 X80.842 Y55.951 E102.57948
G0 F9000 X83.104 Y55.951
G1 F1350 X133.745 Y106.592 E110.58299
G0 F9000 X134.44 Y105.024
G1 F1350 X85.367 Y55.951 E118.33869
G0 F9000 X87.63 Y55.951
G1 F1350 X135.338 Y103.659 E125.87865
G0 F9000 X136.411 Y102.47
G1 F1350 X89.893 Y55.951 E133.23063
G0 F9000 X92.155 Y55.951
G1 F1350 X137.664 Y101.46 E140.42306
G0 F9000 X139.101 Y100.634
G1 F1350 X94.418 Y55.951 E147.48494
G0 F9000 X96.681 Y55.951
G1 F1350 X140.751 Y100.022 E154.45002
G0 F9000 X142.674 Y99.682
G1 F1350 X98.958 Y55.966 E161.35908
G0 F9000 X101.508 Y56.253
G1 F1350 X145.007 Y99.752 E168.23384
G0 F9000 X148.361 Y100.844
G1 F1350 X103.936 Y56.418 E175.25503
G0 F9000 X105.856 Y56.075
G1 F1350 X194.573 Y144.793 E189.27631
G0 F9000 X194.573 Y147.056
G1 F1350 X152.677 Y105.16 E195.89772
G0 F9000 X153.766 Y108.511
G1 F1350 X194.573 Y149.319 E202.34711
G0 F9000 X194.466 Y151.474
G1 F1350 X153.84 Y110.848 E208.76781
G0 F9000 X153.5 Y112.771
G1 F1350 X194.112 Y153.382 E215.18621
G0 F9000 X193.562 Y155.096
G1 F1350 X152.886 Y114.419 E221.61489
G0 F9000 X152.062 Y115.858
G1 F1350 X192.84 Y156.636 E228.05962
G0 F9000 X191.969 Y158.028
G1 F1350 X151.052 Y117.111 E234.52631
G0 F9000 X149.865 Y118.187
G1 F1350 X190.971 Y159.292 E241.02279
G0 F9000 X189.835 Y160.419
G1 F1350 X148.5 Y119.085 E247.55546
G0 F9000 X146.93 Y119.777
G1 F1350 X188.582 Y161.429 E254.13832
G0 F9000 X187.184 Y162.294
G1 F1350 X145.12 Y120.23 E260.78628
G0 F9000 X142.967 Y120.34
G1 F1350 X185.647 Y163.019 E267.53153
G0 F9000 X183.953 Y163.588
G1 F1350 X140.157 Y119.792 E274.45322
G1 F1500 E268.45322
G0 F9000 X139.158 Y164.048
G1 F1500 E274.45322
G1 F1350 X31.061 Y55.951 E291.53732
G0 F9000 X33.323 Y55.951
G1 F1350 X141.421 Y164.048 E308.62149
G0 F9000 X143.684 Y164.048
G1 F1350 X35.586 Y55.951 E325.70566
G0 F9000 X37.849 Y55.951
G1 F1350 X145.946 Y164.048 E342.78975
G0 F9000 X148.209 Y164.048
G1 F1350 X40.112 Y55.951 E359.87385
G0 F9000 X42.374 Y55.951
G1 F1350 X150.472 Y164.048 E376.95802
G0 F9000 X152.735 Y164.048
G1 F1350 X44.637 Y55.951 E394.04219
G0 F9000 X46.9 Y55.951
G1 F1350 X154.997 Y164.048 E411.12628
G0 F9000 X157.261 Y164.049
G1 F1350 X49.163 Y55.951 E428.21054
G0 F9000 X51.425 Y55.951
G1 F1350 X159.523 Y164.049 E445.29479
G0 F9000 X161.786 Y164.049
G1 F1350 X53.688 Y55.951 E462.37904
G0 F9000 X55.951 Y55.951
G1 F1350 X164.049 Y164.049 E479.46329
G0 F9000 X166.312 Y164.049
G1 F1350 X58.213 Y55.951 E496.54762
G0 F9000 X60.476 Y55.951
G1 F1350 X168.574 Y164.049 E513.63187
G0 F9000 X170.837 Y164.049
G1 F1350 X62.74 Y55.951 E530.71604
G0 F9000 X65.002 Y55.951
G1 F1350 X173.1 Y164.049 E547.80029
G0 F9000 X175.363 Y164.049
G1 F1350 X67.265 Y55.951 E564.88454
G0 F9000 X69.528 Y55.951
G1 F1350 X177.625 Y164.049 E581.96871
G0 F9000 X179.888 Y164.049
G1 F1350 X71.791 Y55.951 E599.05289
G0 F9000 X74.053 Y55.951
G1 F1350 X182.048 Y163.946 E616.12086
G1 F1500 E610.12086
G0 F9000 X182.261 Y165.395
G0 X184.252 Y165.023
G0 X185.533 Y164.637
G0 X187.46 Y163.816
G0 X188.614 Y163.169
G0 X190.318 Y161.949
G0 X191.319 Y161.053
G0 X192.712 Y159.498
G0 X193.5 Y158.393
G0 X194.506 Y156.599
G0 X195.049 Y155.318
G0 X195.642 Y153.338
G0 X195.883 Y152.022
G0 X196.008 Y150.273
G0 X196.039 Y142.53
G0 X194.573 Y142.53
G1 F1500 E616.12086
G1 F1350 X107.994 Y55.951 E629.80416
G0 F9000 X110.257 Y55.951
G1 F1350 X194.573 Y140.268 E643.12988
G0 F9000 X194.573 Y138.005
G1 F1350 X112.519 Y55.951 E656.09803
G0 F9000 X114.782 Y55.951
G1 F1350 X194.573 Y135.742 E668.70853
G0 F9000 X194.573 Y133.479
G1 F1350 X117.045 Y55.951 E680.96137
