;FLAVOR:Marlin
;TIME:17246
;Filament used: 35.6489m
;Layer height: 0.28
;MINX:12.767
;MINY:58.397
;MINZ:0.336
;MAXX:192.101
;MAXY:162.669
;MAXZ:34.786
;Generated with Cura_SteamEngine main
M82 ;absolute extrusion mode
; Ender 3 Custom Start G-code
G92 E0 ; Reset Extruder
G28 ; Home all axes
M104 S175 ; Start heating up the nozzle most of the way
M190 S50.0 ; Start heating the bed, wait until target temperature reached
M109 S200 ; Finish heating the nozzle
G1 Z2.0 F3000 ; Move Z Axis up little to prevent scratching of Heat Bed
G1 X0.1 Y20 Z0.3 F5000.0 ; Move to start position
G1 X0.1 Y200.0 Z0.3 F1500.0 E15 ; Draw the first line
G1 X0.4 Y200.0 Z0.3 F5000.0 ; Move to side a little
G1 X0.4 Y20 Z0.3 F1500.0 E30 ; Draw the second line
G92 E0 ; Reset Extruder
G1 Z2.0 F3000 ; Move Z Axis up little to prevent scratching of Heat Bed
G1 X5 Y20 Z0.3 F5000.0 ; Move over to prevent blob squish
G92 E0
G92 E0
G1 F1500 E-6
;LAYER_COUNT:119
;LAYER:-6
M107
M204 S500
M205 X20 Y20
G0 F9000 X21.823 Y59.982 Z0.336
;TYPE:SUPPORT-INTERFACE
G1 F1500 E0
G1 F1350 X20.825 Y60.535 E0.12751
G1 X19.933 Y61.125 E0.24703
G1 X19.091 Y61.775 E0.3659
G1 X18.236 Y62.552 E0.49501
G1 X17.609 Y63.203 E0.59602
G1 X16.878 Y64.073 E0.72301
G1 X16.249 Y64.951 E0.84371
G1 X15.74 Y65.787 E0.95309
G1 X15.218 Y66.79 E1.07945
G1 X14.796 Y67.781 E1.19982
G1 X14.454 Y68.783 E1.31814
G1 X14.168 Y69.899 E1.44689
G1 X13.99 Y70.865 E1.55666
G1 X13.869 Y72.003 E1.68455
G1 X13.833 Y73.004 E1.79649
G1 X13.833 Y147.056 E10.0721
G1 X13.84 Y147.452 E10.11637
G1 X13.921 Y148.607 E10.24576
G1 X14.065 Y149.582 E10.3559
G1 X14.311 Y150.707 E10.48459
G1 X14.613 Y151.715 E10.60219
G1 X15.025 Y152.776 E10.72939
G1 X15.418 Y153.613 E10.83272
G1 X15.933 Y154.543 E10.95153
G1 X16.555 Y155.491 E11.07824
G1 X17.22 Y156.355 E11.20008
G1 X17.988 Y157.2 E11.32769
G1 X18.637 Y157.827 E11.42854
G1 X19.508 Y158.559 E11.55568
G1 X20.385 Y159.186 E11.67616
G1 X21.362 Y159.774 E11.8036
G1 X22.242 Y160.226 E11.91415
G1 X23.227 Y160.644 E12.03373
G1 X24.231 Y160.984 E12.15219
G1 X25.335 Y161.268 E12.27959
G1 X26.217 Y161.431 E12.37982
G1 X27.292 Y161.556 E12.50077
G1 X28.423 Y161.603 E12.62727
G1 X94.891 Y161.603 E20.05534
G1 X95.288 Y161.596 E20.09971
G1 X96.447 Y161.515 E20.22955
G1 X97.418 Y161.371 E20.33925
G1 X98.462 Y161.143 E20.45867
G1 X99.557 Y160.821 E20.58622
G1 X100.53 Y160.45 E20.7026
G1 X101.224 Y160.238 E20.78369
G1 X101.9 Y160.127 E20.86025
G1 X102.589 Y160.102 E20.9373
G1 X103.223 Y160.157 E21.00842
G1 X103.925 Y160.307 E21.08864
G1 X104.547 Y160.527 E21.16237
G1 X104.742 Y160.611 E21.1861
G1 X105.82 Y160.982 E21.3135
G1 X106.93 Y161.268 E21.4416
G1 X107.895 Y161.447 E21.55128
G1 X108.887 Y161.556 E21.66281
G1 X110.017 Y161.603 E21.7892
G1 X176.487 Y161.603 E29.21749
G1 X176.883 Y161.596 E29.26176
G1 X178.043 Y161.515 E29.39171
G1 X179.012 Y161.371 E29.50119
G1 X180.057 Y161.143 E29.62072
G1 X181.152 Y160.822 E29.74824
G1 X182.225 Y160.404 E29.87693
G1 X183.046 Y160.018 E29.97831
G1 X184.044 Y159.465 E30.10582
G1 X184.936 Y158.875 E30.22534
G1 X185.778 Y158.225 E30.34421
G1 X186.633 Y157.448 E30.47332
G1 X187.26 Y156.797 E30.57433
G1 X187.991 Y155.927 E30.70132
G1 X188.62 Y155.049 E30.82202
G1 X189.129 Y154.213 E30.9314
G1 X189.652 Y153.209 E31.05791
G1 X190.077 Y152.213 E31.17893
G1 X190.415 Y151.216 E31.29658
G1 X190.701 Y150.101 E31.42522
G1 X190.879 Y149.135 E31.53499
G1 X191 Y147.997 E31.66288
G1 X191.037 Y146.996 E31.77482
G1 X191.036 Y72.944 E40.05043
G1 X191.029 Y72.548 E40.0947
G1 X190.948 Y71.388 E40.22465
G1 X190.804 Y70.419 E40.33412
G1 X190.558 Y69.293 E40.46293
G1 X190.253 Y68.275 E40.58169
G1 X189.837 Y67.208 E40.70967
G1 X189.451 Y66.387 E40.81106
G1 X188.936 Y65.457 E40.92986
G1 X188.315 Y64.511 E41.05632
G1 X187.645 Y63.64 E41.17913
G1 X186.881 Y62.8 E41.30602
G1 X186.232 Y62.173 E41.40687
G1 X185.363 Y61.443 E41.5337
G1 X184.485 Y60.814 E41.6544
G1 X183.507 Y60.226 E41.78193
G1 X182.627 Y59.774 E41.89249
G1 X181.642 Y59.356 E42.01207
G1 X180.638 Y59.016 E42.13053
G1 X179.534 Y58.732 E42.25792
G1 X178.652 Y58.569 E42.35816
G1 X177.577 Y58.444 E42.4791
G1 X176.446 Y58.397 E42.60561
G1 X109.978 Y58.397 E50.03367
G1 X109.581 Y58.404 E50.07805
G1 X108.422 Y58.485 E50.20789
G1 X107.451 Y58.629 E50.31759
G1 X106.407 Y58.857 E50.43701
G1 X105.312 Y59.179 E50.56456
G1 X104.339 Y59.55 E50.68093
G1 X103.645 Y59.762 E50.76203
G1 X102.969 Y59.873 E50.83858
G1 X102.28 Y59.898 E50.91563
G1 X101.646 Y59.843 E50.98675
G1 X100.944 Y59.693 E51.06697
G1 X100.322 Y59.472 E51.14074
G1 X99.948 Y59.322 E51.18578
G1 X99.044 Y59.016 E51.29243
G1 X97.939 Y58.732 E51.41993
G1 X97.057 Y58.569 E51.52017
G1 X95.983 Y58.444 E51.641
G1 X94.851 Y58.397 E51.76762
G1 X28.382 Y58.397 E59.1958
G1 X27.986 Y58.404 E59.24006
G1 X26.826 Y58.485 E59.37001
G1 X25.857 Y58.629 E59.47949
G1 X24.812 Y58.857 E59.59902
G1 X23.717 Y59.178 E59.72654
G1 X22.644 Y59.596 E59.85523
G1 X21.823 Y59.982 E59.95661
G0 F9000 X21.918 Y60.385
G1 F1350 X122.736 Y161.202 E75.89023
G0 F9000 X124.998 Y161.202
G1 F1350 X23.49 Y59.694 E91.93297
G0 F9000 X25.233 Y59.174
G1 F1350 X127.261 Y161.202 E108.05789
G0 F9000 X129.524 Y161.202
G1 F1350 X27.182 Y58.86 E124.23244
G0 F9000 X29.38 Y58.796
G1 F1350 X131.787 Y161.202 E140.41718
G0 F9000 X134.049 Y161.202
G1 F1350 X31.643 Y58.796 E156.60184
G0 F9000 X33.906 Y58.796
G1 F1350 X136.312 Y161.202 E172.78651
G0 F9000 X138.575 Y161.202
G1 F1350 X36.169 Y58.796 E188.97117
G0 F9000 X38.431 Y58.796
G1 F1350 X140.837 Y161.202 E205.15584
G0 F9000 X143.1 Y161.202
G1 F1350 X40.694 Y58.796 E221.3405
G0 F9000 X42.957 Y58.796
G1 F1350 X145.363 Y161.202 E237.52516
G0 F9000 X147.626 Y161.202
G1 F1350 X45.22 Y58.796 E253.70983
G0 F9000 X47.482 Y58.796
G1 F1350 X149.888 Y161.202 E269.89449
G0 F9000 X152.151 Y161.202
G1 F1350 X49.745 Y58.796 E286.07916
G0 F9000 X52.008 Y58.796
G1 F1350 X154.414 Y161.202 E302.26382
G0 F9000 X156.677 Y161.202
G1 F1350 X54.271 Y58.796 E318.44848
G0 F9000 X56.533 Y58.796
G1 F1350 X158.939 Y161.202 E334.63315
G0 F9000 X161.202 Y161.202
G1 F1350 X58.796 Y58.796 E350.81781
G0 F9000 X61.059 Y58.796
G1 F1350 X163.465 Y161.202 E367.00248
G0 F9000 X165.728 Y161.202
G1 F1350 X63.322 Y58.796 E383.18714
G0 F9000 X65.584 Y58.796
G1 F1350 X167.99 Y161.202 E399.3718
G0 F9000 X170.253 Y161.202
G1 F1350 X67.847 Y58.796 E415.55647
G0 F9000 X70.11 Y58.796
G1 F1350 X172.516 Y161.202 E431.74113
G0 F9000 X174.779 Y161.202
G1 F1350 X72.373 Y58.796 E447.9258
G0 F9000 X74.635 Y58.796
G1 F1350 X177.023 Y161.184 E464.10761
G0 F9000 X179.053 Y160.951
G1 F1350 X76.898 Y58.796 E480.25261
G0 F9000 X79.161 Y58.796
G1 F1350 X180.855 Y160.49 E496.32475
G0 F9000 X182.472 Y159.845
G1 F1350 X81.424 Y58.796 E512.29487
G0 F9000 X83.686 Y58.796
G1 F1350 X183.941 Y159.051 E528.13958
G0 F9000 X185.266 Y158.113
G1 F1350 X85.949 Y58.796 E543.83604
G0 F9000 X88.212 Y58.796
G1 F1350 X186.462 Y157.047 E559.36395
G0 F9000 X187.531 Y155.852
G1 F1350 X90.475 Y58.796 E574.70308
G0 F9000 X92.737 Y58.796
G1 F1350 X188.468 Y154.527 E589.8328
G0 F9000 X189.273 Y153.069
G1 F1350 X95.007 Y58.803 E604.73099
G0 F9000 X97.53 Y59.063
G1 F1350 X189.914 Y151.447 E619.33173
G0 F9000 X190.377 Y149.648
G1 F1350 X100.793 Y60.063 E633.49003
G0 F9000 X103.227 Y60.235
G1 F1350 X190.613 Y147.621 E647.30088
G0 F9000 X190.635 Y145.381
G1 F1350 X104.986 Y59.731 E660.83727
G0 F9000 X106.716 Y59.198
G1 F1350 X190.635 Y143.118 E674.10026
G0 F9000 X190.635 Y140.855
G1 F1350 X108.65 Y58.87 E687.0575
G0 F9000 X110.84 Y58.797
G1 F1350 X190.635 Y138.592 E699.66863
G0 F9000 X190.635 Y136.33
G1 F1350 X113.103 Y58.797 E711.92218
G0 F9000 X115.365 Y58.797
G1 F1350 X190.635 Y134.067 E723.81816
G0 F9000 X190.635 Y131.804
G1 F1350 X117.628 Y58.797 E735.35649
G0 F9000 X119.891 Y58.797
G1 F1350 X190.635 Y129.541 E746.53716
G0 F9000 X190.635 Y127.279
G1 F1350 X122.154 Y58.797 E757.36026
G0 F9000 X124.416 Y58.797
G1 F1350 X190.635 Y125.016 E767.82578
G0 F9000 X190.635 Y122.753
G1 F1350 X126.679 Y58.797 E777.93365
G0 F9000 X128.942 Y58.797
G1 F1350 X190.635 Y120.49 E787.68386
G0 F9000 X190.635 Y118.228
G1 F1350 X131.205 Y58.797 E797.0765
G0 F9000 X133.467 Y58.797
G1 F1350 X190.635 Y115.965 E806.11157
G0 F9000 X190.635 Y113.702
G1 F1350 X135.73 Y58.797 E814.78898
G0 F9000 X137.993 Y58.797
G1 F1350 X190.635 Y111.44 E823.10881
G0 F9000 X190.635 Y109.177
G1 F1350 X140.256 Y58.797 E831.071
G0 F9000 X142.518 Y58.797
G1 F1350 X190.635 Y106.914 E838.67561
G0 F9000 X190.635 Y104.651
G1 F1350 X144.781 Y58.797 E845.92256
G0 F9000 X147.044 Y58.797
G1 F1350 X190.635 Y102.389 E852.81194
G0 F9000 X190.635 Y100.126
G1 F1350 X149.307 Y58.797 E859.34366
G0 F9000 X151.569 Y58.797
G1 F1350 X190.635 Y97.863 E865.51782
G0 F9000 X190.635 Y95.6
G1 F1350 X153.832 Y58.797 E871.33431
G0 F9000 X156.095 Y58.797
G1 F1350 X190.635 Y93.338 E876.79323
G0 F9000 X190.635 Y91.075
G1 F1350 X158.357 Y58.797 E881.89458
G0 F9000 X160.62 Y58.797
G1 F1350 X190.635 Y88.812 E886.63828
G0 F9000 X190.635 Y86.549
G1 F1350 X162.883 Y58.797 E891.02432
G0 F9000 X165.146 Y58.797
G1 F1350 X190.635 Y84.287 E895.05278
G0 F9000 X190.635 Y82.024
G1 F1350 X167.408 Y58.797 E898.72367
G0 F9000 X169.671 Y58.797
G1 F1350 X190.635 Y79.761 E902.03691
G0 F9000 X190.635 Y77.498
G1 F1350 X171.934 Y58.797 E904.99249
G0 F9000 X174.197 Y58.797
G1 F1350 X190.635 Y75.236 E907.5905
G0 F9000 X190.635 Y72.972
G1 F1350 X176.461 Y58.798 E909.83061
G0 F9000 X178.958 Y59.032
G1 F1350 X190.407 Y70.482 E911.64014
G0 F9000 X189.392 Y67.204
G1 F1350 X182.226 Y60.038 E912.77268
G1 F1500 E906.77268
G0 F9000 X182.798 Y58.69
G0 X184.18 Y59.383
G0 X185.918 Y60.53
G0 X186.951 Y61.388
G0 X188.405 Y62.893
G0 X189.233 Y63.968
G0 X190.315 Y65.739
G0 X190.887 Y66.957
G0 X191.558 Y68.923
G0 X191.854 Y70.238
G0 X192.083 Y72.306
G0 X192.063 Y148.061
G0 X191.916 Y149.387
G0 X191.464 Y151.414
G0 X191.024 Y152.704
G0 X190.142 Y154.584
G0 X189.433 Y155.743
G0 X188.162 Y157.387
G0 X187.239 Y158.344
G0 X185.638 Y159.677
G0 X184.519 Y160.419
G0 X182.654 Y161.379
G0 X181.395 Y161.86
G0 X179.371 Y162.389
G0 X178.058 Y162.58
G0 X177.11 Y162.63
G0 X120.473 Y162.669
G0 X120.473 Y161.202
G1 F1500 E912.77268
G1 F1350 X20.5 Y61.229 E928.57283
G0 F9000 X19.212 Y62.204
G1 F1350 X118.21 Y161.202 E944.21888
G0 F9000 X115.947 Y161.202
G1 F1350 X18.057 Y63.312 E959.68981
G0 F9000 X17.029 Y64.546
G1 F1350 X113.685 Y161.202 E974.96572
G0 F9000 X111.422 Y161.202
G1 F1350 X16.131 Y65.912 E990.02583
G0 F9000 X15.381 Y67.424
G1 F1350 X109.122 Y161.165 E1004.84104
G0 F9000 X106.416 Y160.721
G1 F1350 X14.787 Y69.092 E1019.32246
G0 F9000 X14.382 Y70.951
G1 F1350 X103.186 Y159.755 E1033.35741
G0 F9000 X101.041 Y159.872
G1 F1350 X14.231 Y73.063 E1047.07714
G0 F9000 X14.231 Y75.325
G1 F1350 X99.365 Y160.459 E1060.53206
G0 F9000 X97.57 Y160.926
G1 F1350 X14.231 Y77.588 E1073.70322
G0 F9000 X14.231 Y79.851
G1 F1350 X95.555 Y161.175 E1086.556
G0 F9000 X93.319 Y161.201
G1 F1350 X14.231 Y82.114 E1099.05531
G0 F9000 X14.231 Y84.376
G1 F1350 X91.056 Y161.201 E1111.19705
G0 F9000 X88.794 Y161.201
G1 F1350 X14.231 Y86.639 E1122.98121
G0 F9000 X14.231 Y88.902
G1 F1350 X86.531 Y161.201 E1134.40772
G0 F9000 X84.268 Y161.201
G1 F1350 X14.231 Y91.165 E1145.47658
G0 F9000 X14.231 Y93.427
G1 F1350 X82.006 Y161.201 E1156.18794
G0 F9000 X79.743 Y161.201
G1 F1350 X14.231 Y95.69 E1166.54164
G0 F9000 X14.231 Y97.953
G1 F1350 X77.48 Y161.201 E1176.5377
G0 F9000 X75.217 Y161.201
G1 F1350 X14.231 Y100.216 E1186.17609
G0 F9000 X14.231 Y102.478
G1 F1350 X72.955 Y161.201 E1195.457
G0 F9000 X70.692 Y161.201
G1 F1350 X14.231 Y104.741 E1204.38025
G0 F9000 X14.231 Y107.004
G1 F1350 X68.429 Y161.201 E1212.94584
G0 F9000 X66.166 Y161.201
G1 F1350 X14.231 Y109.267 E1221.15378
G0 F9000 X14.231 Y111.529
G1 F1350 X63.904 Y161.201 E1229.00423
G0 F9000 X61.641 Y161.201
G1 F1350 X14.231 Y113.792 E1236.49702
G0 F9000 X14.231 Y116.055
G1 F1350 X59.378 Y161.201 E1243.63216
G0 F9000 X57.115 Y161.201
G1 F1350 X14.231 Y118.318 E1250.40964
G0 F9000 X14.231 Y120.58
G1 F1350 X54.853 Y161.201 E1256.82963
G0 F9000 X52.59 Y161.201
G1 F1350 X14.231 Y122.843 E1262.89196
G0 F9000 X14.231 Y125.106
G1 F1350 X50.327 Y161.201 E1268.59664
G0 F9000 X48.064 Y161.201
G1 F1350 X14.231 Y127.369 E1273.94367
G0 F9000 X14.231 Y129.631
G1 F1350 X45.802 Y161.201 E1278.9332
G0 F9000 X43.539 Y161.201
G1 F1350 X14.231 Y131.894 E1283.56508
G0 F9000 X14.231 Y134.157
G1 F1350 X41.276 Y161.201 E1287.8393
G0 F9000 X39.013 Y161.201
G1 F1350 X14.231 Y136.419 E1291.75595
G0 F9000 X14.231 Y138.682
G1 F1350 X36.751 Y161.201 E1295.31503
G0 F9000 X34.488 Y161.201
G1 F1350 X14.231 Y140.945 E1298.51645
G0 F9000 X14.231 Y143.208
G1 F1350 X32.225 Y161.201 E1301.36021
G0 F9000 X29.962 Y161.201
G1 F1350 X14.231 Y145.47 E1303.84641
G0 F9000 X14.262 Y147.764
G1 F1350 X27.668 Y161.17 E1305.96514
G0 F9000 X25.004 Y160.768
G1 F1350 X14.658 Y150.422 E1307.60027
G0 F9000 X16.234 Y154.261
M104 S200
G1 F1350 X21.151 Y159.178 E1308.37737
G1 F1500 E1302.37737
G0 F600 X21.151 Y159.178 Z0.756
G0 F9000 X20.388 Y160.434
G0 X18.784 Y159.342
G0 X17.229 Y157.949
G0 X16.333 Y156.948
G0 X15.113 Y155.244
G0 X14.466 Y154.09
G0 X13.645 Y152.163
G0 X13.259 Y150.882
G0 X12.877 Y148.824
G0 X12.767 Y146.951
G0 X12.806 Y71.939
G0 X12.953 Y70.613
G0 X13.405 Y68.586
G0 X13.654 Y67.856
G0 X14.3 Y66.247
G0 X15.905 Y66.542
;TIME_ELAPSED:542.024486
;LAYER:-5
;TYPE:SUPPORT
G1 F1500 E1308.37737
G1 F1350 X21.988 Y60.46 E1309.7292
G0 F9000 X21.155 Y60.92
G1 F1350 X20.225 Y61.53 E1309.90399
G1 X19.347 Y62.215 E1310.079
G1 X18.578 Y62.914 E1310.24232
G1 X17.983 Y63.533 E1310.37725
G1 X17.326 Y64.312 E1310.5374
G1 X16.665 Y65.227 E1310.71479
G1 X16.093 Y66.176 E1310.88893
G1 X15.667 Y67.006 E1311.03554
G1 X15.262 Y67.96 E1311.19842
G1 X14.929 Y68.935 E1311.36033
G1 X14.881 Y69.123 E1311.39082
G1 X24.55 Y59.453 E1313.53987
G1 X24.948 Y59.336 E1313.60506
G1 X25.788 Y59.148 E1313.74034
G1 X26.524 Y59.035 E1313.85736
G1 X14.47 Y71.089 E1316.53635
G1 X14.378 Y71.887 E1316.66259
G1 X14.342 Y72.772 E1316.80179
G1 X28.214 Y58.901 E1319.88472
G1 X29.775 Y58.895 E1320.13004
G1 X14.332 Y74.338 E1323.56224
G1 X14.332 Y75.894 E1323.80677
G1 X31.331 Y58.895 E1327.58479
G1 X32.886 Y58.895 E1327.82917
G1 X14.332 Y77.45 E1331.9529
G1 X14.332 Y79.005 E1332.19727
G1 X34.442 Y58.895 E1336.66671
G1 X35.998 Y58.895 E1336.91124
G1 X14.332 Y80.561 E1341.7265
G1 X14.332 Y82.117 E1341.97103
G1 X37.553 Y58.895 E1347.132
G1 X39.109 Y58.895 E1347.37653
G1 X14.332 Y83.672 E1352.8832
G1 X14.332 Y85.228 E1353.12774
G1 X40.665 Y58.895 E1358.98023
G1 X42.22 Y58.895 E1359.22461
G1 X14.332 Y86.783 E1365.4227
G1 X14.332 Y88.339 E1365.66723
G1 X43.776 Y58.895 E1372.21115
G1 X45.331 Y58.895 E1372.45552
G1 X14.332 Y89.895 E1379.34515
G1 X14.332 Y91.45 E1379.58952
G1 X46.887 Y58.895 E1386.82485
G1 X48.443 Y58.895 E1387.06939
G1 X14.332 Y93.006 E1394.65054
G1 X14.332 Y94.562 E1394.89507
G1 X49.998 Y58.895 E1402.82193
G1 X51.554 Y58.895 E1403.06647
G1 X14.332 Y96.117 E1411.33904
G1 X14.332 Y97.673 E1411.58357
G1 X53.11 Y58.895 E1420.20196
G1 X54.665 Y58.895 E1420.44634
G1 X14.332 Y99.229 E1429.41044
G1 X14.332 Y100.784 E1429.65481
G1 X56.221 Y58.895 E1438.96462
G1 X57.776 Y58.895 E1439.209
G1 X14.332 Y102.34 E1448.86451
G1 X14.332 Y103.895 E1449.10889
G1 X59.332 Y58.895 E1459.11012
G1 X60.888 Y58.895 E1459.35465
G1 X14.332 Y105.451 E1469.7017
G1 X14.332 Y107.007 E1469.94623
G1 X62.443 Y58.896 E1480.63888
G1 X63.998 Y58.896 E1480.88325
G1 X14.332 Y108.562 E1491.92149
G1 X14.332 Y110.118 E1492.16603
G1 X65.554 Y58.896 E1503.55009
G1 X67.11 Y58.896 E1503.79462
G1 X14.332 Y111.674 E1515.52451
G1 X14.332 Y113.229 E1515.76888
G1 X68.665 Y58.896 E1527.84436
G1 X70.221 Y58.896 E1528.0889
G1 X14.332 Y114.785 E1540.5102
G1 X14.332 Y116.34 E1540.75457
G1 X71.776 Y58.896 E1553.52148
G1 X73.332 Y58.896 E1553.76601
G1 X14.332 Y117.896 E1566.87873
G1 X14.332 Y119.452 E1567.12326
G1 X74.888 Y58.896 E1580.5818
G1 X76.443 Y58.896 E1580.82618
G1 X14.332 Y121.007 E1594.63032
G1 X14.332 Y122.563 E1594.87485
G1 X77.999 Y58.896 E1609.02481
G1 X79.555 Y58.896 E1609.26934
G1 X14.332 Y124.119 E1623.76512
G1 X14.332 Y125.674 E1624.00949
