;FLAVOR:Marlin
;TIME:13171
;Filament used: 27.6749m
;Layer height: 0.28
;MINX:17.082
;MINY:61.646
;MINZ:0.28
;MAXX:187.787
;MAXY:158.354
;MAXZ:33.32
;Generated with Cura_SteamEngine main
M82 ;absolute extrusion mode
; Ender 3 Custom Start G-code
G92 E0 ; Reset Extruder
G28 ; Home all axes
M104 S175 ; Start heating up the nozzle most of the way
M190 S50.0 ; Start heating the bed, wait until target temperature reached
M109 S200 ; Finish heating the nozzle
G1 Z2.0 F3000 ; Move Z Axis up little to prevent scratching of Heat Bed
G1 X0.1 Y20 Z0.3 F5000.0 ; Move to start position
G1 X0.1 Y200.0 Z0.3 F1500.0 E15 ; Draw the first line
G1 X0.4 Y200.0 Z0.3 F5000.0 ; Move to side a little
G1 X0.4 Y20 Z0.3 F1500.0 E30 ; Draw the second line
G92 E0 ; Reset Extruder
G1 Z2.0 F3000 ; Move Z Axis up little to prevent scratching of Heat Bed
G1 X5 Y20 Z0.3 F5000.0 ; Move over to prevent blob squish
G92 E0
G92 E0
G1 F1500 E-6
;LAYER_COUNT:119
;LAYER:0
M107
M204 S500
M205 X5 Y5
G0 F7500 X24.212 Y62.472 Z0.28
G0 X17.083 Y73.516
M205 X8 Y8
;TYPE:SKIRT
G1 F1500 E0
G1 X17.092 Y72.851 E0.03773
G1 X17.145 Y71.9 E0.09177
G1 X17.277 Y70.957 E0.14579
G1 X17.488 Y70.028 E0.19983
G1 X17.777 Y69.12 E0.25389
G1 X18.14 Y68.239 E0.30795
G1 X18.576 Y67.392 E0.362
G1 X19.082 Y66.584 E0.41608
G1 X19.653 Y65.822 E0.4701
G1 X20.286 Y65.111 E0.52411
G1 X20.977 Y64.454 E0.57821
G1 X21.72 Y63.859 E0.63221
G1 X22.511 Y63.327 E0.68629
G1 X23.344 Y62.864 E0.74036
G1 X24.212 Y62.472 E0.79439
G1 X25.11 Y62.155 E0.84842
G1 X26.032 Y61.914 E0.90248
G1 X26.971 Y61.751 E0.95655
G1 X28.123 Y61.659 E1.02211
G1 X28.762 Y61.646 E1.05837
G1 X94.298 Y61.647 E4.7764
G1 X94.995 Y61.657 E4.81595
G1 X95.633 Y61.684 E4.85218
G1 X96.057 Y61.714 E4.87629
G1 X98.653 Y61.861 E5.02381
G1 X101.128 Y61.932 E5.16428
G1 X103.632 Y61.932 E5.30634
G1 X106.155 Y61.862 E5.44953
G1 X109.378 Y61.674 E5.63269
G1 X110.038 Y61.65 E5.67016
G1 X175.893 Y61.647 E9.40629
G1 X176.591 Y61.657 E9.44589
G1 X177.542 Y61.711 E9.49993
G1 X178.485 Y61.844 E9.55396
G1 X179.414 Y62.056 E9.60802
G1 X180.322 Y62.345 E9.66208
G1 X181.202 Y62.709 E9.7161
G1 X182.049 Y63.146 E9.77017
G1 X182.856 Y63.652 E9.82421
G1 X183.618 Y64.224 E9.87827
G1 X184.329 Y64.858 E9.93231
G1 X184.984 Y65.549 E9.98633
G1 X185.58 Y66.293 E10.04041
G1 X186.11 Y67.084 E10.09443
G1 X186.573 Y67.917 E10.1485
G1 X186.964 Y68.785 E10.2025
G1 X187.281 Y69.684 E10.25659
G1 X187.521 Y70.606 E10.31064
G1 X187.684 Y71.544 E10.36465
G1 X187.774 Y72.687 E10.42969
G1 X187.787 Y73.326 E10.46595
G1 X187.786 Y146.408 E14.61209
G1 X187.777 Y147.135 E14.65334
G1 X187.725 Y148.087 E14.70743
G1 X187.594 Y149.03 E14.76144
G1 X187.384 Y149.96 E14.81553
G1 X187.097 Y150.868 E14.86955
G1 X186.734 Y151.749 E14.92361
G1 X186.299 Y152.597 E14.97768
G1 X185.795 Y153.405 E15.03171
G1 X185.224 Y154.168 E15.08578
G1 X184.592 Y154.88 E15.13979
G1 X183.902 Y155.537 E15.19384
G1 X183.159 Y156.134 E15.24791
G1 X182.369 Y156.666 E15.30195
G1 X181.537 Y157.13 E15.35599
G1 X180.669 Y157.523 E15.41005
G1 X179.771 Y157.841 E15.46409
G1 X178.85 Y158.084 E15.51813
G1 X177.911 Y158.248 E15.57221
G1 X176.746 Y158.341 E15.63852
G1 X176.107 Y158.354 E15.67478
G1 X110.571 Y158.353 E19.39281
G1 X109.875 Y158.343 E19.4323
G1 X109.239 Y158.316 E19.46841
G1 X106.216 Y158.139 E19.64021
G1 X103.741 Y158.068 E19.78068
G1 X101.237 Y158.068 E19.92274
G1 X98.714 Y158.138 E20.06593
G1 X95.491 Y158.326 E20.24909
G1 X94.831 Y158.35 E20.28656
G1 X28.976 Y158.353 E24.02268
G1 X28.278 Y158.343 E24.06229
G1 X27.327 Y158.289 E24.11633
G1 X26.384 Y158.156 E24.17036
G1 X25.455 Y157.944 E24.22442
G1 X24.547 Y157.655 E24.27848
G1 X23.667 Y157.291 E24.3325
G1 X22.82 Y156.854 E24.38657
G1 X22.013 Y156.348 E24.44061
G1 X21.251 Y155.776 E24.49467
G1 X20.54 Y155.142 E24.54871
G1 X19.885 Y154.451 E24.60273
G1 X19.289 Y153.707 E24.65681
G1 X18.759 Y152.916 E24.71083
G1 X18.296 Y152.083 E24.76489
G1 X17.905 Y151.215 E24.8189
G1 X17.588 Y150.316 E24.87298
G1 X17.348 Y149.394 E24.92704
G1 X17.185 Y148.456 E24.98105
G1 X17.095 Y147.302 E25.04672
G1 X17.082 Y146.662 E25.08303
G1 X17.083 Y73.516 E29.2328
M205 X5 Y5
G0 F7500 X17.623 Y73.524
M205 X8 Y8
G1 F1500 X17.632 Y72.859 E29.27053
G1 X17.685 Y71.93 E29.32332
G1 X17.817 Y71.01 E29.37605
G1 X18.027 Y70.105 E29.42876
G1 X18.315 Y69.221 E29.4815
G1 X18.678 Y68.364 E29.5343
G1 X19.113 Y67.543 E29.58701
G1 X19.616 Y66.761 E29.63976
G1 X20.186 Y66.026 E29.69253
G1 X20.816 Y65.343 E29.74525
G1 X21.502 Y64.716 E29.79797
G1 X22.24 Y64.15 E29.85074
G1 X23.024 Y63.65 E29.90349
G1 X23.848 Y63.219 E29.95625
G1 X24.706 Y62.861 E30.00899
G1 X25.591 Y62.577 E30.06172
G1 X26.498 Y62.371 E30.11449
G1 X27.419 Y62.243 E30.16724
G1 X28.138 Y62.199 E30.20811
G1 X28.762 Y62.186 E30.24352
G1 X94.29 Y62.187 E33.9611
G1 X94.987 Y62.197 E34.00064
G1 X95.594 Y62.223 E34.03511
G1 X95.986 Y62.251 E34.05741
G1 X98.606 Y62.399 E34.20628
G1 X101.148 Y62.472 E34.35056
G1 X103.647 Y62.472 E34.49233
G1 X106.168 Y62.402 E34.63541
G1 X109.409 Y62.213 E34.81959
G1 X110.053 Y62.19 E34.85615
G1 X175.885 Y62.187 E38.59097
G1 X176.583 Y62.197 E38.63058
G1 X177.511 Y62.25 E38.68331
G1 X178.431 Y62.383 E38.73605
G1 X179.337 Y62.595 E38.78884
G1 X180.22 Y62.883 E38.84153
G1 X181.076 Y63.246 E38.89428
G1 X181.898 Y63.682 E38.94707
G1 X182.679 Y64.186 E38.9998
G1 X183.413 Y64.756 E39.05252
G1 X184.096 Y65.387 E39.10528
G1 X184.723 Y66.074 E39.15804
G1 X185.288 Y66.812 E39.21077
G1 X185.787 Y67.597 E39.26355
G1 X186.217 Y68.421 E39.31628
G1 X186.575 Y69.279 E39.36902
G1 X186.858 Y70.165 E39.42179
G1 X187.063 Y71.071 E39.47449
G1 X187.19 Y71.992 E39.52723
G1 X187.234 Y72.702 E39.56759
G1 X187.247 Y73.326 E39.603
G1 X187.246 Y146.402 E43.74879
G1 X187.237 Y147.129 E43.79004
G1 X187.186 Y148.057 E43.84277
G1 X187.055 Y148.978 E43.89554
G1 X186.845 Y149.883 E43.94825
G1 X186.558 Y150.768 E44.00103
G1 X186.197 Y151.624 E44.05374
G1 X185.763 Y152.447 E44.10652
G1 X185.26 Y153.228 E44.15923
G1 X184.691 Y153.964 E44.212
G1 X184.062 Y154.649 E44.26476
G1 X183.376 Y155.276 E44.31749
G1 X182.639 Y155.843 E44.37024
G1 X181.856 Y156.344 E44.42298
G1 X181.032 Y156.775 E44.47574
G1 X180.175 Y157.135 E44.52847
G1 X179.29 Y157.419 E44.5812
G1 X178.383 Y157.627 E44.634
G1 X177.463 Y157.755 E44.68669
G1 X176.731 Y157.801 E44.7283
G1 X176.107 Y157.814 E44.76371
G1 X110.579 Y157.813 E48.48129
G1 X109.883 Y157.803 E48.52078
G1 X109.277 Y157.777 E48.55519
G1 X106.263 Y157.601 E48.72647
G1 X103.721 Y157.528 E48.87075
G1 X101.222 Y157.528 E49.01252
G1 X98.701 Y157.598 E49.1556
G1 X95.46 Y157.787 E49.33978
G1 X94.816 Y157.81 E49.37634
G1 X28.984 Y157.813 E53.11117
G1 X28.286 Y157.803 E53.15077
G1 X27.358 Y157.75 E53.2035
G1 X26.438 Y157.617 E53.25624
G1 X25.532 Y157.405 E53.30903
G1 X24.649 Y157.117 E53.36172
G1 X23.793 Y156.754 E53.41447
G1 X22.971 Y156.318 E53.46726
G1 X22.19 Y155.814 E53.51999
G1 X21.456 Y155.244 E53.57271
G1 X20.773 Y154.613 E53.62547
G1 X20.146 Y153.926 E53.67823
G1 X19.581 Y153.188 E53.73096
G1 X19.082 Y152.403 E53.78374
G1 X18.652 Y151.579 E53.83647
G1 X18.294 Y150.721 E53.88921
G1 X18.011 Y149.835 E53.94198
G1 X17.806 Y148.929 E53.99468
G1 X17.679 Y148.008 E54.04742
G1 X17.635 Y147.287 E54.0884
G1 X17.622 Y146.662 E54.12387
G1 X17.623 Y73.524 E58.27318
M205 X5 Y5
G0 F7500 X18.163 Y73.531
M205 X8 Y8
G1 F1500 X18.172 Y72.866 E58.31091
G1 X18.224 Y71.961 E58.36234
G1 X18.356 Y71.065 E58.41372
G1 X18.566 Y70.183 E58.46516
G1 X18.853 Y69.324 E58.51654
G1 X19.215 Y68.493 E58.56796
G1 X19.649 Y67.697 E58.6194
G1 X20.151 Y66.943 E58.67079
G1 X20.718 Y66.236 E58.7222
G1 X21.344 Y65.581 E58.7736
G1 X22.027 Y64.985 E58.82503
G1 X22.758 Y64.45 E58.87642
G1 X23.535 Y63.983 E58.92785
G1 X24.349 Y63.585 E58.97926
G1 X25.195 Y63.261 E59.03065
G1 X26.067 Y63.013 E59.08209
G1 X26.957 Y62.843 E59.13349
G1 X28.153 Y62.739 E59.2016
G1 X28.762 Y62.726 E59.23616
G1 X94.282 Y62.727 E62.95328
G1 X94.979 Y62.737 E62.99283
G1 X95.556 Y62.762 E63.02559
G1 X98.597 Y62.939 E63.19841
G1 X101.132 Y63.012 E63.34228
G1 X103.662 Y63.012 E63.48582
G1 X106.18 Y62.942 E63.62873
G1 X109.44 Y62.752 E63.81399
G1 X110.068 Y62.73 E63.84964
G1 X175.877 Y62.727 E67.58316
G1 X176.575 Y62.737 E67.62276
G1 X177.48 Y62.79 E67.67419
G1 X178.376 Y62.922 E67.72557
G1 X179.258 Y63.133 E67.77702
G1 X180.117 Y63.421 E67.82842
G1 X180.947 Y63.784 E67.87982
G1 X181.743 Y64.218 E67.93125
G1 X182.497 Y64.721 E67.98267
G1 X183.203 Y65.288 E68.03404
G1 X183.857 Y65.915 E68.08544
G1 X184.454 Y66.598 E68.13691
G1 X184.987 Y67.33 E68.18828
G1 X185.454 Y68.107 E68.23971
G1 X185.851 Y68.922 E68.29114
G1 X186.174 Y69.768 E68.34252
G1 X186.422 Y70.64 E68.39395
G1 X186.591 Y71.53 E68.44534
G1 X186.694 Y72.717 E68.51294
G1 X186.707 Y73.326 E68.5475
G1 X186.706 Y146.395 E72.69289
G1 X186.697 Y147.122 E72.73414
G1 X186.646 Y148.027 E72.78557
G1 X186.515 Y148.924 E72.83699
G1 X186.306 Y149.805 E72.88836
G1 X186.02 Y150.665 E72.93978
G1 X185.659 Y151.496 E72.99118
G1 X185.226 Y152.293 E73.04264
G1 X184.725 Y153.048 E73.09405
G1 X184.159 Y153.755 E73.14543
G1 X183.533 Y154.411 E73.19687
G1 X182.852 Y155.008 E73.24825
G1 X182.12 Y155.543 E73.29969
G1 X181.345 Y156.012 E73.35108
G1 X180.531 Y156.41 E73.40248
G1 X179.685 Y156.735 E73.4539
G1 X178.814 Y156.984 E73.50529
G1 X177.924 Y157.156 E73.55672
G1 X176.716 Y157.261 E73.62551
G1 X176.107 Y157.274 E73.66007
G1 X110.586 Y157.273 E77.37725
G1 X109.89 Y157.263 E77.41674
G1 X109.315 Y157.239 E77.44939
G1 X108.888 Y157.209 E77.47367
G1 X106.272 Y157.061 E77.62232
G1 X103.737 Y156.988 E77.7662
G1 X101.207 Y156.988 E77.90973
G1 X98.689 Y157.058 E78.05264
G1 X95.429 Y157.248 E78.2379
G1 X94.801 Y157.27 E78.27355
G1 X28.992 Y157.273 E82.00707
G1 X28.294 Y157.263 E82.04667
G1 X27.389 Y157.21 E82.0981
G1 X26.493 Y157.078 E82.14949
G1 X25.611 Y156.867 E82.20094
G1 X24.752 Y156.579 E82.25234
G1 X23.922 Y156.216 E82.30373
G1 X23.126 Y155.782 E82.35517
G1 X22.372 Y155.279 E82.40659
G1 X21.666 Y154.712 E82.45796
G1 X21.012 Y154.085 E82.50936
G1 X20.415 Y153.402 E82.56082
G1 X19.882 Y152.67 E82.61219
G1 X19.415 Y151.893 E82.66362
G1 X19.018 Y151.078 E82.71505
G1 X18.695 Y150.232 E82.76643
G1 X18.447 Y149.36 E82.81786
G1 X18.278 Y148.47 E82.86926
G1 X18.175 Y147.272 E82.93747
G1 X18.162 Y146.662 E82.97209
G1 X18.163 Y73.531 E87.121
M205 X5 Y5
G1 F1500 E81.121
;MESH:wiz_male.stl
G0 F7500 X27.767 Y73.531
G0 X28.877 Y73.531
G0 X29.357 Y73.836
G1 F1500 E87.121
G0 F7500 X29.272 Y73.836
M205 X8 Y8
;TYPE:WALL-INNER
G1 F1500 X29.272 Y146.164 E91.68029
G1 X94.002 Y146.164 E95.76063
G1 X94.002 Y73.836 E100.31992
G1 X29.272 Y73.836 E104.40025
M205 X5 Y5
G0 F7500 X28.702 Y73.266
M205 X8 Y8
;TYPE:WALL-OUTER
G1 F1500 X28.702 Y146.734 E108.56829
G1 X94.572 Y146.734 E112.30527
G1 X94.572 Y73.266 E116.4733
G1 X28.702 Y73.266 E120.21028
M205 X5 Y5
G0 F7500 X28.702 Y73.466
G0 X29.327 Y73.891
G0 X29.472 Y74.335
G0 X29.771 Y74.335
M205 X8 Y8
;TYPE:SKIN
G1 F1500 X29.771 Y145.665 E124.25702
G1 X93.503 Y145.665 E127.8727
G1 X93.503 Y74.335 E131.91944
G1 X29.771 Y74.335 E135.53513
M205 X5 Y5
G1 F1500 E129.53513
G0 F7500 X29.472 Y74.335
G0 X93.73 Y74.108
G0 X93.802 Y75.398
G1 F1500 E135.53513
G0 F7500 X92.962 Y75.398
M205 X8 Y8
G1 F1500 X92.439 Y74.874 E135.57713
G1 X91.675 Y74.874 E135.62047
G1 X92.962 Y76.161 E135.72373
G1 X92.962 Y76.925 E135.76708
G1 X90.912 Y74.874 E135.93159
G1 X90.148 Y74.874 E135.97494
G1 X92.962 Y77.689 E136.20075
G1 X92.962 Y78.452 E136.24404
G1 X89.384 Y74.874 E136.53111
G1 X88.62 Y74.874 E136.57445
G1 X92.962 Y79.216 E136.92282
G1 X92.962 Y79.98 E136.96616
G1 X87.857 Y74.874 E137.37579
G1 X87.093 Y74.874 E137.41913
G1 X92.962 Y80.743 E137.89001
G1 X92.962 Y81.507 E137.93336
G1 X86.329 Y74.874 E138.46553
G1 X85.566 Y74.874 E138.50882
G1 X92.962 Y82.271 E139.10226
G1 X92.962 Y83.034 E139.14555
G1 X84.802 Y74.874 E139.80024
G1 X84.038 Y74.874 E139.84358
G1 X92.962 Y83.798 E140.55957
G1 X92.962 Y84.562 E140.60292
G1 X83.275 Y74.874 E141.38017
G1 X82.511 Y74.874 E141.42351
G1 X92.962 Y85.325 E142.26202
G1 X92.962 Y86.089 E142.30536
G1 X81.747 Y74.874 E143.20516
G1 X80.984 Y74.874 E143.24845
G1 X92.962 Y86.853 E144.20951
G1 X92.962 Y87.616 E144.2528
G1 X80.22 Y74.874 E145.27511
G1 X79.456 Y74.874 E145.31846
G1 X92.962 Y88.38 E146.40207
G1 X92.962 Y89.144 E146.44541
G1 X78.693 Y74.874 E147.59029
G1 X77.929 Y74.874 E147.63363
G1 X92.962 Y89.907 E148.83976
G1 X92.962 Y90.671 E148.8831
G1 X77.165 Y74.874 E150.15053
G1 X76.402 Y74.874 E150.19382
G1 X92.962 Y91.435 E151.5225
G1 X92.962 Y92.198 E151.56579
G1 X75.638 Y74.874 E152.95573
G1 X74.874 Y74.874 E152.99907
G1 X92.962 Y92.962 E154.45031
G1 X92.962 Y93.726 E154.49365
G1 X74.111 Y74.874 E156.00615
G1 X73.347 Y74.874 E156.04949
G1 X92.962 Y94.489 E157.62324
G1 X92.962 Y95.253 E157.66659
G1 X72.583 Y74.874 E159.30164
G1 X71.82 Y74.874 E159.34492
G1 X92.962 Y96.017 E161.04123
G1 X92.962 Y96.78 E161.08452
G1 X71.056 Y74.874 E162.84208
G1 X70.292 Y74.874 E162.88542
G1 X92.962 Y97.544 E164.70428
G1 X92.962 Y98.308 E164.74763
G1 X69.529 Y74.874 E166.62775
G1 X68.765 Y74.874 E166.67109
G1 X92.962 Y99.072 E168.61251
G1 X92.962 Y99.835 E168.65579
G1 X68.001 Y74.874 E170.65847
G1 X67.238 Y74.874 E170.70175
G1 X92.962 Y100.599 E172.76568
G1 X92.962 Y101.363 E172.80903
G1 X66.474 Y74.874 E174.93425
G1 X65.71 Y74.874 E174.9776
G1 X92.962 Y102.126 E177.16408
G1 X92.962 Y102.89 E177.20743
G1 X64.947 Y74.874 E179.45517
G1 X64.183 Y74.874 E179.49851
G1 X92.962 Y103.654 E181.80755
G1 X92.962 Y104.417 E181.85084
G1 X63.419 Y74.874 E184.22113
G1 X62.656 Y74.874 E184.26442
G1 X92.962 Y105.181 E186.69597
G1 X92.962 Y105.945 E186.73932
G1 X61.892 Y74.874 E189.23217
G1 X61.128 Y74.874 E189.27551
G1 X92.962 Y106.708 E191.82962
G1 X92.962 Y107.472 E191.87296
G1 X60.364 Y74.874 E194.48837
G1 X59.601 Y74.874 E194.53166
G1 X92.962 Y108.236 E197.20832
G1 X92.962 Y108.999 E197.25161
G1 X58.837 Y74.874 E199.98952
G1 X58.073 Y74.874 E200.03287
G1 X92.962 Y109.763 E202.83209
G1 X92.962 Y110.527 E202.87543
G1 X57.31 Y74.874 E205.7359
G1 X56.546 Y74.874 E205.77925
G1 X92.962 Y111.29 E208.70098
G1 X92.962 Y112.054 E208.74432
G1 X55.782 Y74.874 E211.72735
G1 X55.019 Y74.874 E211.77064
G1 X92.962 Y112.818 E214.81492
G1 X92.962 Y113.581 E214.85821
G1 X54.255 Y74.874 E217.96375
G1 X53.491 Y74.874 E218.0071
G1 X92.962 Y114.345 E221.17394
G1 X92.962 Y115.109 E221.21728
G1 X52.728 Y74.874 E224.44538
G1 X51.964 Y74.874 E224.48872
G1 X92.962 Y115.872 E227.77808
G1 X92.962 Y116.636 E227.82142
G1 X51.2 Y74.874 E231.17207
G1 X50.437 Y74.874 E231.21536
G1 X92.962 Y117.4 E234.62727
G1 X92.962 Y118.163 E234.67055
G1 X49.673 Y74.874 E238.14372
G1 X48.909 Y74.874 E238.18706
G1 X92.962 Y118.927 E241.72153
G1 X92.962 Y119.691 E241.76487
G1 X48.146 Y74.874 E245.36059
G1 X47.382 Y74.874 E245.40394
G1 X92.962 Y120.454 E249.06091
G1 X92.962 Y121.218 E249.10426
G1 X46.618 Y74.874 E252.82253
G1 X45.855 Y74.874 E252.86582
G1 X92.962 Y121.982 E256.64535
G1 X92.962 Y122.745 E256.68864
G1 X45.091 Y74.874 E260.52943
G1 X44.327 Y74.874 E260.57277
G1 X92.962 Y123.509 E264.47486
G1 X92.962 Y124.273 E264.5182
G1 X43.564 Y74.874 E268.48155
G1 X42.8 Y74.874 E268.52489
G1 X92.962 Y125.036 E272.54949
G1 X92.962 Y125.8 E272.59284
G1 X42.036 Y74.874 E276.67874
G1 X41.273 Y74.874 E276.72202
G1 X92.962 Y126.564 E280.86918
G1 X92.962 Y127.328 E280.91252
G1 X40.509 Y74.874 E285.12098
G1 X39.745 Y74.874 E285.16432
G1 X92.962 Y128.091 E289.43403
G1 X92.962 Y128.855 E289.47737
G1 X38.982 Y74.874 E293.80834
G1 X38.218 Y74.874 E293.85168
G1 X92.962 Y129.619 E298.24395
G1 X92.962 Y130.382 E298.28724
G1 X37.454 Y74.874 E302.74076
G1 X36.691 Y74.874 E302.78405
G1 X92.962 Y131.146 E307.29882
G1 X92.962 Y131.91 E307.34217
G1 X35.927 Y74.874 E311.91824
G1 X35.163 Y74.874 E311.96159
G1 X92.962 Y132.673 E316.59892
G1 X92.962 Y133.437 E316.64227
G1 X34.4 Y74.874 E321.34086
G1 X33.636 Y74.874 E321.3842
G1 X92.962 Y134.201 E326.14409
G1 X92.962 Y134.964 E326.18738
G1 X32.872 Y74.874 E331.00852
G1 X32.109 Y74.874 E331.05181
G1 X92.962 Y135.728 E335.93421
G1 X92.962 Y136.492 E335.97755
G1 X31.345 Y74.874 E340.92125
G1 X30.581 Y74.874 E340.9646
G1 X92.962 Y137.255 E345.96955
