;FLAVOR:Marlin
;TIME:25160
;Filament used: 42.0362m
;Layer height: 0.28
;MINX:48.001
;MINY:22.604
;MINZ:0.28
;MAXX:172.001
;MAXY:197.404
;MAXZ:127.12
;Generated with Cura_SteamEngine main
M82 ;absolute extrusion mode
; Ender 3 Custom Start G-code
G92 E0 ; Reset Extruder
G28 ; Home all axes
M104 S175 ; Start heating up the nozzle most of the way
M190 S50.0 ; Start heating the bed, wait until target temperature reached
M109 S200 ; Finish heating the nozzle
G1 Z2.0 F3000 ; Move Z Axis up little to prevent scratching of Heat Bed
G1 X0.1 Y20 Z0.3 F5000.0 ; Move to start position
G1 X0.1 Y200.0 Z0.3 F1500.0 E15 ; Draw the first line
G1 X0.4 Y200.0 Z0.3 F5000.0 ; Move to side a little
G1 X0.4 Y20 Z0.3 F1500.0 E30 ; Draw the second line
G92 E0 ; Reset Extruder
G1 Z2.0 F3000 ; Move Z Axis up little to prevent scratching of Heat Bed
G1 X5 Y20 Z0.3 F5000.0 ; Move over to prevent blob squish
G92 E0
G92 E0
G1 F1500 E-6
;LAYER_COUNT:454
;LAYER:0
M107
M204 S500
M205 X5 Y5
G0 F7500 X49.495 Y28.35 Z0.28
G0 X48.002 Y34.474
M205 X8 Y8
;TYPE:SKIRT
G1 F1500 E0
G1 X48.011 Y33.809 E0.03773
G1 X48.064 Y32.858 E0.09177
G1 X48.196 Y31.915 E0.14579
G1 X48.407 Y30.986 E0.19983
G1 X48.696 Y30.078 E0.25389
G1 X49.059 Y29.197 E0.30795
G1 X49.495 Y28.35 E0.362
G1 X50.001 Y27.542 E0.41608
G1 X50.572 Y26.78 E0.4701
G1 X51.205 Y26.069 E0.52411
G1 X51.896 Y25.412 E0.57821
G1 X52.639 Y24.817 E0.63221
G1 X53.43 Y24.285 E0.68629
G1 X54.263 Y23.822 E0.74036
G1 X55.131 Y23.43 E0.79439
G1 X56.029 Y23.113 E0.84842
G1 X56.951 Y22.872 E0.90248
G1 X57.89 Y22.709 E0.95655
G1 X59.042 Y22.617 E1.02211
G1 X59.681 Y22.604 E1.05837
G1 X160.107 Y22.605 E6.75581
G1 X160.805 Y22.615 E6.79541
G1 X161.756 Y22.669 E6.84945
G1 X162.699 Y22.802 E6.90348
G1 X163.628 Y23.014 E6.95754
G1 X164.536 Y23.303 E7.0116
G1 X165.416 Y23.667 E7.06562
G1 X166.263 Y24.104 E7.11969
G1 X167.07 Y24.61 E7.17373
G1 X167.832 Y25.182 E7.22779
G1 X168.543 Y25.816 E7.28183
G1 X169.198 Y26.507 E7.33585
G1 X169.794 Y27.251 E7.38993
G1 X170.324 Y28.042 E7.44395
G1 X170.787 Y28.875 E7.49802
G1 X171.178 Y29.743 E7.55203
G1 X171.495 Y30.642 E7.60611
G1 X171.735 Y31.564 E7.66016
G1 X171.898 Y32.502 E7.71417
G1 X171.988 Y33.645 E7.77922
G1 X172.001 Y34.284 E7.81548
G1 X172 Y185.458 E16.39198
G1 X171.991 Y186.185 E16.43322
G1 X171.939 Y187.137 E16.48731
G1 X171.808 Y188.08 E16.54133
G1 X171.598 Y189.01 E16.59542
G1 X171.311 Y189.918 E16.64944
G1 X170.948 Y190.799 E16.7035
G1 X170.513 Y191.647 E16.75757
G1 X170.009 Y192.455 E16.8116
G1 X169.438 Y193.218 E16.86566
G1 X168.806 Y193.93 E16.91967
G1 X168.116 Y194.587 E16.97373
G1 X167.373 Y195.184 E17.0278
G1 X166.583 Y195.716 E17.08183
G1 X165.751 Y196.18 E17.13588
G1 X164.883 Y196.573 E17.18994
G1 X163.985 Y196.891 E17.24398
G1 X163.064 Y197.134 E17.29802
G1 X162.125 Y197.298 E17.3521
G1 X160.96 Y197.391 E17.4184
G1 X160.321 Y197.404 E17.45466
G1 X59.912 Y197.403 E23.15113
G1 X59.214 Y197.394 E23.19073
G1 X58.262 Y197.342 E23.24482
G1 X57.319 Y197.21 E23.29884
G1 X56.39 Y196.999 E23.35289
G1 X55.482 Y196.712 E23.40692
G1 X54.601 Y196.349 E23.46097
G1 X53.753 Y195.914 E23.51504
G1 X52.945 Y195.409 E23.5691
G1 X52.183 Y194.838 E23.62312
G1 X51.471 Y194.205 E23.67717
G1 X50.814 Y193.514 E23.73126
G1 X50.218 Y192.771 E23.7853
G1 X49.686 Y191.981 E23.83934
G1 X49.222 Y191.149 E23.89338
G1 X48.83 Y190.281 E23.94741
G1 X48.512 Y189.383 E24.00146
G1 X48.27 Y188.461 E24.05554
G1 X48.107 Y187.523 E24.10955
G1 X48.014 Y186.352 E24.17619
G1 X48.001 Y185.712 E24.21251
G1 X48.002 Y34.474 E32.79264
M205 X5 Y5
G0 F7500 X48.542 Y34.482
M205 X8 Y8
G1 F1500 X48.551 Y33.817 E32.83037
G1 X48.604 Y32.888 E32.88316
G1 X48.736 Y31.968 E32.93589
G1 X48.946 Y31.063 E32.9886
G1 X49.234 Y30.179 E33.04135
G1 X49.597 Y29.322 E33.09415
G1 X50.032 Y28.501 E33.14686
G1 X50.535 Y27.719 E33.19961
G1 X51.105 Y26.984 E33.25238
G1 X51.735 Y26.301 E33.30509
G1 X52.421 Y25.674 E33.35782
G1 X53.159 Y25.108 E33.41058
G1 X53.943 Y24.608 E33.46334
G1 X54.767 Y24.177 E33.51609
G1 X55.625 Y23.819 E33.56884
G1 X56.51 Y23.535 E33.62157
G1 X57.417 Y23.329 E33.67433
G1 X58.338 Y23.201 E33.72709
G1 X59.057 Y23.157 E33.76795
G1 X59.681 Y23.144 E33.80336
G1 X160.099 Y23.145 E39.50034
G1 X160.797 Y23.155 E39.53994
G1 X161.725 Y23.208 E39.59268
G1 X162.645 Y23.341 E39.64541
G1 X163.551 Y23.553 E39.6982
G1 X164.434 Y23.841 E39.7509
G1 X165.29 Y24.204 E39.80364
G1 X166.112 Y24.64 E39.85643
G1 X166.893 Y25.144 E39.90917
G1 X167.627 Y25.714 E39.96189
G1 X168.31 Y26.345 E40.01464
G1 X168.937 Y27.032 E40.06741
G1 X169.502 Y27.77 E40.12014
G1 X170.001 Y28.555 E40.17291
G1 X170.431 Y29.379 E40.22564
G1 X170.789 Y30.237 E40.27839
G1 X171.072 Y31.123 E40.33115
G1 X171.277 Y32.029 E40.38385
G1 X171.404 Y32.95 E40.4366
G1 X171.448 Y33.66 E40.47695
G1 X171.461 Y34.284 E40.51236
G1 X171.46 Y185.452 E49.08852
G1 X171.451 Y186.179 E49.12977
G1 X171.4 Y187.107 E49.1825
G1 X171.269 Y188.028 E49.23528
G1 X171.059 Y188.933 E49.28798
G1 X170.772 Y189.818 E49.34077
G1 X170.411 Y190.674 E49.39347
G1 X169.977 Y191.497 E49.44626
G1 X169.474 Y192.278 E49.49896
G1 X168.905 Y193.014 E49.55174
G1 X168.276 Y193.699 E49.6045
G1 X167.59 Y194.326 E49.65722
G1 X166.853 Y194.893 E49.70998
G1 X166.07 Y195.394 E49.76271
G1 X165.246 Y195.825 E49.81547
G1 X164.389 Y196.185 E49.8682
G1 X163.504 Y196.469 E49.92093
G1 X162.597 Y196.677 E49.97373
G1 X161.677 Y196.805 E50.02642
G1 X160.945 Y196.851 E50.06803
G1 X160.321 Y196.864 E50.10344
G1 X59.919 Y196.863 E55.79951
G1 X59.221 Y196.854 E55.83912
G1 X58.292 Y196.802 E55.8919
G1 X57.372 Y196.671 E55.94462
G1 X56.466 Y196.46 E55.9974
G1 X55.582 Y196.173 E56.05013
G1 X54.726 Y195.811 E56.10286
G1 X53.904 Y195.377 E56.15559
G1 X53.122 Y194.874 E56.20834
G1 X52.386 Y194.305 E56.26112
G1 X51.702 Y193.675 E56.31388
G1 X51.075 Y192.989 E56.3666
G1 X50.509 Y192.251 E56.41937
G1 X50.009 Y191.468 E56.47207
G1 X49.577 Y190.644 E56.52485
G1 X49.218 Y189.787 E56.57757
G1 X48.934 Y188.901 E56.63035
G1 X48.727 Y187.995 E56.68308
G1 X48.599 Y187.074 E56.73583
G1 X48.554 Y186.337 E56.77772
G1 X48.541 Y185.712 E56.81318
G1 X48.542 Y34.482 E65.39286
M205 X5 Y5
G0 F7500 X49.082 Y34.489
M205 X8 Y8
G1 F1500 X49.091 Y33.824 E65.43059
G1 X49.143 Y32.919 E65.48202
G1 X49.275 Y32.023 E65.5334
G1 X49.485 Y31.141 E65.58484
G1 X49.772 Y30.282 E65.63622
G1 X50.134 Y29.451 E65.68764
G1 X50.568 Y28.655 E65.73908
G1 X51.07 Y27.901 E65.79047
G1 X51.637 Y27.194 E65.84189
G1 X52.263 Y26.539 E65.89329
G1 X52.946 Y25.943 E65.94471
G1 X53.677 Y25.408 E65.99611
G1 X54.454 Y24.941 E66.04754
G1 X55.268 Y24.543 E66.09894
G1 X56.114 Y24.219 E66.15034
G1 X56.986 Y23.971 E66.20177
G1 X57.876 Y23.801 E66.25317
G1 X59.072 Y23.697 E66.32128
G1 X59.681 Y23.684 E66.35584
G1 X160.091 Y23.685 E72.05237
G1 X160.789 Y23.695 E72.09197
G1 X161.694 Y23.748 E72.1434
G1 X162.59 Y23.88 E72.19478
G1 X163.472 Y24.091 E72.24623
G1 X164.331 Y24.379 E72.29763
G1 X165.161 Y24.742 E72.34902
G1 X165.957 Y25.176 E72.40046
G1 X166.711 Y25.679 E72.45188
G1 X167.417 Y26.246 E72.50325
G1 X168.071 Y26.873 E72.55465
G1 X168.668 Y27.556 E72.60612
G1 X169.201 Y28.288 E72.65749
G1 X169.668 Y29.065 E72.70892
G1 X170.065 Y29.88 E72.76035
G1 X170.388 Y30.726 E72.81172
G1 X170.636 Y31.598 E72.86316
G1 X170.805 Y32.488 E72.91455
G1 X170.908 Y33.675 E72.98215
G1 X170.921 Y34.284 E73.0167
G1 X170.92 Y185.445 E81.59247
G1 X170.911 Y186.172 E81.63372
G1 X170.86 Y187.077 E81.68514
G1 X170.729 Y187.974 E81.73657
G1 X170.52 Y188.855 E81.78794
G1 X170.234 Y189.715 E81.83935
G1 X169.873 Y190.546 E81.89076
G1 X169.44 Y191.343 E81.94221
G1 X168.939 Y192.098 E81.99362
G1 X168.373 Y192.805 E82.045
G1 X167.747 Y193.461 E82.09644
G1 X167.066 Y194.058 E82.14782
G1 X166.334 Y194.593 E82.19926
G1 X165.559 Y195.062 E82.25065
G1 X164.745 Y195.46 E82.30206
G1 X163.899 Y195.785 E82.35347
G1 X163.028 Y196.034 E82.40487
G1 X162.138 Y196.206 E82.45629
G1 X160.93 Y196.311 E82.52508
G1 X160.321 Y196.324 E82.55964
G1 X59.926 Y196.323 E88.25531
G1 X59.228 Y196.314 E88.29492
G1 X58.323 Y196.262 E88.34635
G1 X57.426 Y196.131 E88.39777
G1 X56.545 Y195.922 E88.44914
G1 X55.685 Y195.635 E88.50058
G1 X54.854 Y195.274 E88.55198
G1 X54.058 Y194.84 E88.60341
G1 X53.303 Y194.339 E88.65482
G1 X52.596 Y193.773 E88.7062
G1 X51.941 Y193.146 E88.75764
G1 X51.344 Y192.465 E88.80902
G1 X50.809 Y191.733 E88.86046
G1 X50.341 Y190.957 E88.91187
G1 X49.943 Y190.143 E88.96327
G1 X49.618 Y189.297 E89.01469
G1 X49.37 Y188.425 E89.06612
G1 X49.199 Y187.535 E89.11754
G1 X49.094 Y186.322 E89.18661
G1 X49.081 Y185.712 E89.22123
G1 X49.082 Y34.489 E97.80051
M205 X5 Y5
G1 F1500 E91.80051
G0 F7500 X142.803 Y50.224
M205 X8 Y8
G1 F1500 E97.80051
G1 X144.381 Y50.224 E97.89003
G1 X144.381 Y51.788 E97.97876
G1 X144.103 Y51.359 E98.00776
G1 X143.851 Y51.072 E98.02943
G1 X143.533 Y50.754 E98.05495
G1 X143.162 Y50.439 E98.08256
G1 X142.803 Y50.224 E98.1063
M205 X5 Y5
G0 F7500 X141.433 Y50.424
M205 X8 Y8
G1 F1500 X78.569 Y50.424 E101.67274
G1 X78.13 Y50.464 E101.69775
G1 X77.706 Y50.582 E101.72271
G1 X77.31 Y50.775 E101.74771
G1 X76.851 Y51.136 E101.78084
G1 X76.533 Y51.454 E101.80635
G1 X76.251 Y51.792 E101.83132
G1 X76.035 Y52.176 E101.85632
G1 X75.891 Y52.592 E101.88129
G1 X75.821 Y53.172 E101.91444
G1 X75.821 Y166.836 E108.3629
G1 X75.861 Y167.275 E108.38791
G1 X75.979 Y167.699 E108.41287
G1 X76.172 Y168.095 E108.43787
G1 X76.533 Y168.554 E108.471
G1 X76.851 Y168.872 E108.49651
G1 X77.189 Y169.154 E108.52148
G1 X77.573 Y169.37 E108.54648
G1 X77.989 Y169.514 E108.57145
G1 X78.569 Y169.584 E108.6046
G1 X141.433 Y169.584 E112.17104
G1 X141.872 Y169.544 E112.19605
G1 X142.296 Y169.426 E112.22102
G1 X142.692 Y169.233 E112.24601
G1 X143.151 Y168.872 E112.27914
G1 X143.469 Y168.554 E112.30465
G1 X143.751 Y168.216 E112.32962
G1 X143.967 Y167.832 E112.35462
G1 X144.111 Y167.416 E112.37959
G1 X144.181 Y166.836 E112.41274
G1 X144.181 Y53.172 E118.8612
G1 X144.141 Y52.733 E118.88621
G1 X144.023 Y52.309 E118.91117
G1 X143.83 Y51.913 E118.93617
G1 X143.469 Y51.454 E118.9693
G1 X143.151 Y51.136 E118.99481
G1 X142.813 Y50.854 E119.01978
G1 X142.429 Y50.638 E119.04478
G1 X142.013 Y50.494 E119.06975
G1 X141.433 Y50.424 E119.1029
M205 X5 Y5
G0 F7500 X141.433 Y50.964
M205 X8 Y8
G1 F1500 X78.569 Y50.964 E122.66934
G1 X78.183 Y51.004 E122.69135
G1 X77.813 Y51.122 E122.71339
G1 X77.475 Y51.313 E122.73541
G1 X77.233 Y51.518 E122.7534
G1 X76.915 Y51.836 E122.77892
G1 X76.67 Y52.137 E122.80094
G1 X76.491 Y52.482 E122.82299
G1 X76.388 Y52.856 E122.845
G1 X76.361 Y53.172 E122.86299
G1 X76.361 Y166.836 E129.31145
G1 X76.401 Y167.222 E129.33346
G1 X76.519 Y167.592 E129.3555
G1 X76.71 Y167.93 E129.37752
G1 X76.915 Y168.172 E129.39551
G1 X77.233 Y168.49 E129.42103
G1 X77.534 Y168.735 E129.44305
G1 X77.879 Y168.914 E129.4651
G1 X78.253 Y169.017 E129.48711
G1 X78.569 Y169.044 E129.5051
G1 X141.433 Y169.044 E133.07154
G1 X141.819 Y169.004 E133.09356
G1 X142.189 Y168.886 E133.11559
G1 X142.527 Y168.695 E133.13761
G1 X142.769 Y168.49 E133.15561
G1 X143.087 Y168.172 E133.18112
G1 X143.332 Y167.871 E133.20314
G1 X143.511 Y167.526 E133.22519
G1 X143.614 Y167.152 E133.2472
G1 X143.641 Y166.836 E133.26519
G1 X143.641 Y53.172 E139.71365
G1 X143.601 Y52.786 E139.73567
G1 X143.483 Y52.416 E139.7577
G1 X143.292 Y52.078 E139.77972
G1 X143.087 Y51.836 E139.79772
G1 X142.769 Y51.518 E139.82323
G1 X142.468 Y51.273 E139.84525
G1 X142.123 Y51.094 E139.8673
G1 X141.749 Y50.991 E139.88931
G1 X141.433 Y50.964 E139.9073
M205 X5 Y5
G0 F7500 X141.433 Y51.504
M205 X8 Y8
G1 F1500 X78.569 Y51.504 E143.47374
G1 X78.243 Y51.544 E143.49237
G1 X77.937 Y51.661 E143.51096
G1 X77.614 Y51.899 E143.53372
G1 X77.296 Y52.217 E143.55924
G1 X77.094 Y52.476 E143.57787
G1 X76.961 Y52.775 E143.59644
G1 X76.901 Y53.172 E143.61921
G1 X76.901 Y166.836 E150.06767
G1 X76.941 Y167.162 E150.08631
G1 X77.058 Y167.468 E150.10489
G1 X77.296 Y167.791 E150.12766
G1 X77.614 Y168.109 E150.15317
G1 X77.873 Y168.311 E150.1718
G1 X78.172 Y168.444 E150.19037
G1 X78.569 Y168.504 E150.21315
G1 X141.433 Y168.504 E153.77959
G1 X141.759 Y168.464 E153.79822
G1 X142.065 Y168.347 E153.81681
G1 X142.388 Y168.109 E153.83957
G1 X142.706 Y167.791 E153.86508
G1 X142.908 Y167.532 E153.88372
G1 X143.041 Y167.233 E153.90228
G1 X143.101 Y166.836 E153.92506
G1 X143.101 Y53.172 E160.37352
G1 X143.061 Y52.846 E160.39215
G1 X142.944 Y52.54 E160.41074
G1 X142.706 Y52.217 E160.4335
G1 X142.388 Y51.899 E160.45902
G1 X142.129 Y51.697 E160.47765
G1 X141.83 Y51.564 E160.49622
G1 X141.433 Y51.504 E160.51899
M205 X5 Y5
G0 F7500 X141.433 Y52.044
M205 X8 Y8
G1 F1500 X78.569 Y52.044 E164.08544
G1 X78.318 Y52.084 E164.09986
G1 X77.996 Y52.281 E164.12127
G1 X77.678 Y52.599 E164.14678
G1 X77.529 Y52.805 E164.16121
G1 X77.441 Y53.172 E164.18262
G1 X77.441 Y166.836 E170.63108
G1 X77.481 Y167.087 E170.6455
G1 X77.678 Y167.409 E170.66691
G1 X77.996 Y167.727 E170.69243
G1 X78.202 Y167.876 E170.70685
G1 X78.569 Y167.964 E170.72826
G1 X141.433 Y167.964 E174.2947
G1 X141.684 Y167.924 E174.30912
G1 X142.006 Y167.727 E174.33054
G1 X142.324 Y167.409 E174.35605
G1 X142.473 Y167.203 E174.37048
G1 X142.561 Y166.836 E174.39189
G1 X142.561 Y53.172 E180.84035
G1 X142.521 Y52.921 E180.85477
G1 X142.324 Y52.599 E180.87618
G1 X142.006 Y52.281 E180.90169
G1 X141.8 Y52.132 E180.91612
G1 X141.433 Y52.044 E180.93753
M205 X5 Y5
G0 F7500 X141.433 Y52.584
M205 X8 Y8
G1 F1500 X78.569 Y52.584 E184.50397
G1 X78.378 Y52.663 E184.5157
G1 X78.06 Y52.981 E184.54121
G1 X77.981 Y53.172 E184.55294
G1 X77.981 Y166.836 E191.0014
G1 X78.06 Y167.027 E191.01312
G1 X78.378 Y167.345 E191.03864
G1 X78.569 Y167.424 E191.05036
G1 X141.433 Y167.424 E194.6168
G1 X141.624 Y167.345 E194.62853
G1 X141.942 Y167.027 E194.65404
G1 X142.021 Y166.836 E194.66577
G1 X142.021 Y53.172 E201.11423
G1 X141.942 Y52.981 E201.12596
G1 X141.624 Y52.663 E201.15147
G1 X141.433 Y52.584 E201.1632
M205 X5 Y5
G1 F1500 E195.1632
G0 F7500 X144.921 Y49.684
M205 X8 Y8
G1 F1500 E201.1632
G1 X144.921 Y170.324 E208.00742
G1 X75.081 Y170.324 E211.96963
G1 X75.081 Y49.684 E218.81386
G1 X144.921 Y49.684 E222.77606
M205 X5 Y5
G0 F7500 X145.461 Y49.144
M205 X8 Y8
G1 F1500 X145.461 Y170.864 E229.68156
G1 X74.541 Y170.864 E233.70504
G1 X74.541 Y49.144 E240.61054
G1 X145.461 Y49.144 E244.63402
M205 X5 Y5
G0 F7500 X146.001 Y48.604
M205 X8 Y8
G1 F1500 X146.001 Y171.404 E251.60078
G1 X74.001 Y171.404 E255.68554
G1 X74.001 Y48.604 E262.6523
G1 X146.001 Y48.604 E266.73705
M205 X5 Y5
G0 F7500 X146.541 Y48.064
M205 X8 Y8
G1 F1500 X146.541 Y171.944 E273.76509
G1 X73.461 Y171.944 E277.91112
G1 X73.461 Y48.064 E284.93916
G1 X146.541 Y48.064 E289.08518
M205 X5 Y5
G0 F7500 X147.081 Y47.524
M205 X8 Y8
G1 F1500 X147.081 Y172.484 E296.17449
G1 X72.921 Y172.484 E300.38178
G1 X72.921 Y47.524 E307.47109
G1 X147.081 Y47.524 E311.67839
M205 X5 Y5
G1 F1500 E305.67839
G0 F7500 X77.185 Y50.224
M205 X8 Y8
G1 F1500 E311.67839
G1 X76.756 Y50.502 E311.70739
G1 X76.469 Y50.754 E311.72906
G1 X76.151 Y51.072 E311.75457
G1 X75.836 Y51.443 E311.78218
G1 X75.621 Y51.802 E311.80592
G1 X75.621 Y50.224 E311.89544
G1 X77.185 Y50.224 E311.98417
M205 X5 Y5
G1 F1500 E305.98417
G0 F7500 X75.621 Y168.22
M205 X8 Y8
G1 F1500 E311.98417
G1 X75.899 Y168.649 E312.01318
G1 X76.151 Y168.936 E312.03484
G1 X76.469 Y169.254 E312.06036
G1 X76.84 Y169.569 E312.08797
G1 X77.199 Y169.784 E312.11171
G1 X75.621 Y169.784 E312.20123
G1 X75.621 Y168.22 E312.28996
M205 X5 Y5
G1 F1500 E306.28996
G0 F7500 X142.817 Y169.784
M205 X8 Y8
G1 F1500 E312.28996
G1 X143.246 Y169.506 E312.31896
G1 X143.533 Y169.254 E312.34063
G1 X143.851 Y168.936 E312.36615
G1 X144.166 Y168.565 E312.39376
G1 X144.381 Y168.206 E312.4175
G1 X144.381 Y169.784 E312.50702
G1 X142.817 Y169.784 E312.59575
M205 X5 Y5
G1 F1500 E306.59575
;MESH:propstationmesh.stl
G0 F7500 X147.586 Y169.784
G0 X148.676 Y169.784
G0 X148.684 Y45.601
G1 F1500 E312.59575
G0 F7500 X148.647 Y45.683
M205 X8 Y8
;TYPE:WALL-INNER
G1 F1500 X148.863 Y45.87 E312.61376
G1 X148.96 Y46.018 E312.62492
G1 X149.091 Y46.425 E312.65187
G1 X149.091 Y173.611 E320.6692
G1 X148.922 Y174.05 E320.69885
G1 X148.735 Y174.266 E320.71686
G1 X148.587 Y174.363 E320.72802
