;FLAVOR:Marlin
;TIME:1725
;Filament used: 3.51683m
;Layer height: 0.28
;MINX:61.411
;MINY:78.277
;MINZ:0.28
;MAXX:158.589
;MAXY:141.723
;MAXZ:6.44
;Generated with Cura_SteamEngine main
M82 ;absolute extrusion mode
; Ender 3 Custom Start G-code
G92 E0 ; Reset Extruder
G28 ; Home all axes
M104 S175 ; Start heating up the nozzle most of the way
M190 S50.0 ; Start heating the bed, wait until target temperature reached
M109 S200 ; Finish heating the nozzle
G1 Z2.0 F3000 ; Move Z Axis up little to prevent scratching of Heat Bed
G1 X0.1 Y20 Z0.3 F5000.0 ; Move to start position
G1 X0.1 Y200.0 Z0.3 F1500.0 E15 ; Draw the first line
G1 X0.4 Y200.0 Z0.3 F5000.0 ; Move to side a little
G1 X0.4 Y20 Z0.3 F1500.0 E30 ; Draw the second line
G92 E0 ; Reset Extruder
G1 Z2.0 F3000 ; Move Z Axis up little to prevent scratching of Heat Bed
G1 X5 Y20 Z0.3 F5000.0 ; Move over to prevent blob squish
G92 E0
G92 E0
G1 F1500 E-6
;LAYER_COUNT:23
;LAYER:0
M107
M204 S500
M205 X5 Y5
G0 F7500 X65.306 Y81.085 Z0.28
G0 X61.412 Y90.147
M205 X8 Y8
;TYPE:SKIRT
G1 F1500 E0
G1 X61.421 Y89.482 E0.03773
G1 X61.474 Y88.531 E0.09177
G1 X61.606 Y87.588 E0.14579
G1 X61.817 Y86.659 E0.19983
G1 X62.106 Y85.751 E0.25389
G1 X62.469 Y84.87 E0.30795
G1 X62.905 Y84.023 E0.362
G1 X63.411 Y83.215 E0.41608
G1 X63.982 Y82.453 E0.4701
G1 X64.615 Y81.742 E0.52411
G1 X65.306 Y81.085 E0.57821
G1 X66.049 Y80.49 E0.63221
G1 X66.84 Y79.958 E0.68629
G1 X67.673 Y79.495 E0.74036
G1 X68.541 Y79.103 E0.79439
G1 X69.439 Y78.786 E0.84842
G1 X70.361 Y78.545 E0.90248
G1 X71.3 Y78.382 E0.95655
G1 X72.452 Y78.29 E1.02211
G1 X73.091 Y78.277 E1.05837
G1 X146.695 Y78.278 E5.23412
G1 X147.393 Y78.288 E5.27373
G1 X148.344 Y78.342 E5.32777
G1 X149.287 Y78.475 E5.38179
G1 X150.216 Y78.687 E5.43585
G1 X151.124 Y78.976 E5.48991
G1 X152.004 Y79.34 E5.54394
G1 X152.851 Y79.777 E5.59801
G1 X153.658 Y80.283 E5.65205
G1 X154.42 Y80.855 E5.70611
G1 X155.131 Y81.489 E5.76015
G1 X155.786 Y82.18 E5.81417
G1 X156.382 Y82.924 E5.86825
G1 X156.912 Y83.715 E5.92227
G1 X157.375 Y84.548 E5.97633
G1 X157.766 Y85.416 E6.03034
G1 X158.083 Y86.315 E6.08442
G1 X158.323 Y87.237 E6.13847
G1 X158.486 Y88.175 E6.19249
G1 X158.576 Y89.318 E6.25753
G1 X158.589 Y89.957 E6.29379
G1 X158.588 Y129.777 E8.55289
G1 X158.579 Y130.504 E8.59413
G1 X158.527 Y131.456 E8.64822
G1 X158.396 Y132.399 E8.70224
G1 X158.186 Y133.329 E8.75633
G1 X157.899 Y134.237 E8.81035
G1 X157.536 Y135.118 E8.86441
G1 X157.101 Y135.966 E8.91848
G1 X156.597 Y136.774 E8.97251
G1 X156.026 Y137.537 E9.02657
G1 X155.394 Y138.249 E9.08058
G1 X154.704 Y138.906 E9.13464
G1 X153.961 Y139.503 E9.18871
G1 X153.171 Y140.035 E9.24274
G1 X152.339 Y140.499 E9.29679
G1 X151.471 Y140.892 E9.35085
G1 X150.573 Y141.21 E9.40489
G1 X149.652 Y141.453 E9.45893
G1 X148.713 Y141.617 E9.51301
G1 X147.548 Y141.71 E9.57931
G1 X146.909 Y141.723 E9.61557
G1 X73.322 Y141.722 E13.79036
G1 X72.624 Y141.713 E13.82996
G1 X71.672 Y141.661 E13.88405
G1 X70.729 Y141.529 E13.93807
G1 X69.8 Y141.318 E13.99212
G1 X68.892 Y141.031 E14.04614
G1 X68.011 Y140.668 E14.1002
G1 X67.163 Y140.233 E14.15427
G1 X66.355 Y139.728 E14.20833
G1 X65.593 Y139.157 E14.26235
G1 X64.881 Y138.524 E14.3164
G1 X64.224 Y137.833 E14.37049
G1 X63.628 Y137.09 E14.42453
G1 X63.096 Y136.3 E14.47856
G1 X62.632 Y135.468 E14.53261
G1 X62.24 Y134.6 E14.58664
G1 X61.922 Y133.702 E14.64069
G1 X61.68 Y132.78 E14.69477
G1 X61.517 Y131.842 E14.74878
G1 X61.424 Y130.671 E14.81542
G1 X61.411 Y130.031 E14.85174
G1 X61.412 Y90.147 E17.11446
M205 X5 Y5
G0 F7500 X61.952 Y90.155
M205 X8 Y8
G1 F1500 X61.961 Y89.49 E17.15219
G1 X62.014 Y88.561 E17.20498
G1 X62.146 Y87.641 E17.25771
G1 X62.356 Y86.736 E17.31042
G1 X62.644 Y85.852 E17.36317
G1 X63.007 Y84.995 E17.41597
G1 X63.442 Y84.174 E17.46868
G1 X63.945 Y83.392 E17.52143
G1 X64.515 Y82.657 E17.5742
G1 X65.145 Y81.974 E17.62691
G1 X65.831 Y81.347 E17.67964
G1 X66.569 Y80.781 E17.7324
G1 X67.353 Y80.281 E17.78516
G1 X68.177 Y79.85 E17.83791
G1 X69.035 Y79.492 E17.89066
G1 X69.92 Y79.208 E17.94339
G1 X70.827 Y79.002 E17.99615
G1 X71.748 Y78.874 E18.04891
G1 X72.467 Y78.83 E18.08977
G1 X73.091 Y78.817 E18.12518
G1 X146.687 Y78.818 E22.30048
G1 X147.385 Y78.828 E22.34008
G1 X148.313 Y78.881 E22.39282
G1 X149.233 Y79.014 E22.44555
G1 X150.139 Y79.226 E22.49834
G1 X151.022 Y79.514 E22.55103
G1 X151.878 Y79.877 E22.60378
G1 X152.7 Y80.313 E22.65657
G1 X153.481 Y80.817 E22.7093
G1 X154.215 Y81.387 E22.76203
G1 X154.898 Y82.018 E22.81478
G1 X155.525 Y82.705 E22.86755
G1 X156.09 Y83.443 E22.92028
G1 X156.589 Y84.228 E22.97305
G1 X157.019 Y85.052 E23.02578
G1 X157.377 Y85.91 E23.07852
G1 X157.66 Y86.796 E23.13129
G1 X157.865 Y87.702 E23.18399
G1 X157.992 Y88.623 E23.23673
G1 X158.036 Y89.333 E23.27709
G1 X158.049 Y89.957 E23.3125
G1 X158.048 Y129.771 E25.57125
G1 X158.039 Y130.498 E25.6125
G1 X157.988 Y131.426 E25.66523
G1 X157.857 Y132.347 E25.71801
G1 X157.647 Y133.252 E25.77071
G1 X157.36 Y134.137 E25.8235
G1 X156.999 Y134.993 E25.8762
G1 X156.565 Y135.816 E25.92899
G1 X156.062 Y136.597 E25.98169
G1 X155.493 Y137.333 E26.03447
G1 X154.864 Y138.018 E26.08723
G1 X154.178 Y138.645 E26.13995
G1 X153.441 Y139.212 E26.19271
G1 X152.658 Y139.713 E26.24544
G1 X151.834 Y140.144 E26.2982
G1 X150.977 Y140.504 E26.35094
G1 X150.092 Y140.788 E26.40367
G1 X149.185 Y140.996 E26.45646
G1 X148.265 Y141.124 E26.50915
G1 X147.533 Y141.17 E26.55076
G1 X146.909 Y141.183 E26.58617
G1 X73.329 Y141.182 E30.76056
G1 X72.631 Y141.173 E30.80016
G1 X71.702 Y141.121 E30.85295
G1 X70.782 Y140.99 E30.90567
G1 X69.876 Y140.779 E30.95845
G1 X68.992 Y140.492 E31.01118
G1 X68.136 Y140.13 E31.0639
G1 X67.314 Y139.696 E31.11664
G1 X66.532 Y139.193 E31.16939
G1 X65.796 Y138.624 E31.22217
G1 X65.112 Y137.994 E31.27492
G1 X64.485 Y137.308 E31.32765
G1 X63.919 Y136.57 E31.38041
G1 X63.419 Y135.787 E31.43312
G1 X62.987 Y134.963 E31.4859
G1 X62.628 Y134.106 E31.53862
G1 X62.344 Y133.22 E31.5914
G1 X62.137 Y132.314 E31.64412
G1 X62.009 Y131.393 E31.69688
G1 X61.964 Y130.656 E31.73877
G1 X61.951 Y130.031 E31.77423
G1 X61.952 Y90.155 E34.0365
M205 X5 Y5
G0 F7500 X62.492 Y90.162
M205 X8 Y8
G1 F1500 X62.501 Y89.497 E34.07423
G1 X62.553 Y88.592 E34.12566
G1 X62.685 Y87.696 E34.17704
G1 X62.895 Y86.814 E34.22848
G1 X63.182 Y85.955 E34.27986
G1 X63.544 Y85.124 E34.33129
G1 X63.978 Y84.328 E34.38272
G1 X64.48 Y83.574 E34.43411
G1 X65.047 Y82.867 E34.48553
G1 X65.673 Y82.212 E34.53693
G1 X66.356 Y81.616 E34.58835
G1 X67.087 Y81.081 E34.63975
G1 X67.864 Y80.614 E34.69118
G1 X68.678 Y80.216 E34.74258
G1 X69.524 Y79.892 E34.79398
G1 X70.396 Y79.644 E34.84541
G1 X71.286 Y79.474 E34.89681
G1 X72.482 Y79.37 E34.96492
G1 X73.091 Y79.357 E34.99948
G1 X146.679 Y79.358 E39.17432
G1 X147.377 Y79.368 E39.21393
G1 X148.282 Y79.421 E39.26536
G1 X149.178 Y79.553 E39.31674
G1 X150.06 Y79.764 E39.36819
G1 X150.919 Y80.052 E39.41959
G1 X151.749 Y80.415 E39.47098
G1 X152.545 Y80.849 E39.52242
G1 X153.299 Y81.352 E39.57384
G1 X154.005 Y81.919 E39.62521
G1 X154.659 Y82.546 E39.67661
G1 X155.256 Y83.229 E39.72807
G1 X155.789 Y83.961 E39.77945
G1 X156.256 Y84.738 E39.83088
G1 X156.653 Y85.553 E39.88231
G1 X156.976 Y86.399 E39.93368
G1 X157.224 Y87.271 E39.98512
G1 X157.393 Y88.161 E40.03651
G1 X157.496 Y89.348 E40.1041
G1 X157.509 Y89.957 E40.13866
G1 X157.508 Y129.764 E42.39702
G1 X157.499 Y130.491 E42.43827
G1 X157.448 Y131.396 E42.48969
G1 X157.317 Y132.293 E42.54112
G1 X157.108 Y133.174 E42.59249
G1 X156.822 Y134.034 E42.64391
G1 X156.461 Y134.865 E42.69531
G1 X156.028 Y135.662 E42.74676
G1 X155.527 Y136.417 E42.79817
G1 X154.961 Y137.124 E42.84955
G1 X154.335 Y137.78 E42.90099
G1 X153.654 Y138.377 E42.95237
G1 X152.922 Y138.912 E43.00381
G1 X152.147 Y139.381 E43.0552
G1 X151.333 Y139.779 E43.10661
G1 X150.487 Y140.104 E43.15802
G1 X149.616 Y140.353 E43.20942
G1 X148.726 Y140.525 E43.26084
G1 X147.518 Y140.63 E43.32963
G1 X146.909 Y140.643 E43.36419
G1 X73.336 Y140.642 E47.53818
G1 X72.638 Y140.633 E47.57779
G1 X71.733 Y140.581 E47.62921
G1 X70.836 Y140.45 E47.68064
G1 X69.955 Y140.241 E47.73201
G1 X69.095 Y139.954 E47.78345
G1 X68.264 Y139.593 E47.83485
G1 X67.468 Y139.159 E47.88628
G1 X66.713 Y138.658 E47.93769
G1 X66.006 Y138.092 E47.98907
G1 X65.351 Y137.465 E48.04051
G1 X64.754 Y136.784 E48.09189
G1 X64.219 Y136.052 E48.14333
G1 X63.751 Y135.276 E48.19474
G1 X63.353 Y134.462 E48.24614
G1 X63.028 Y133.616 E48.29756
G1 X62.78 Y132.744 E48.34899
G1 X62.609 Y131.854 E48.40041
G1 X62.504 Y130.641 E48.46948
G1 X62.491 Y130.031 E48.50409
G1 X62.492 Y90.162 E50.76597
M205 X5 Y5
G1 F1500 E44.76597
;MESH:slat.stl
G0 F7500 X72.096 Y90.162
G0 X73.206 Y90.162
G0 X73.686 Y90.468
G1 F1500 E50.76597
G0 F7500 X73.602 Y90.468
M205 X8 Y8
;TYPE:WALL-INNER
G1 F1500 X73.602 Y129.532 E53.22842
G1 X146.399 Y129.533 E57.81727
G1 X146.399 Y90.467 E60.27984
G1 X73.602 Y90.468 E64.8687
M205 X5 Y5
G0 F7500 X73.032 Y89.898
M205 X8 Y8
;TYPE:WALL-OUTER
G1 F1500 X73.032 Y130.102 E67.14957
G1 X146.969 Y130.103 E71.34422
G1 X146.969 Y89.897 E73.62521
G1 X73.032 Y89.898 E77.81985
M205 X5 Y5
G0 F7500 X73.032 Y90.098
G1 F1500 E71.81985
G0 F7500 X73.656 Y90.522
G0 X99.62 Y90.072
G0 X100.853 Y102.332
G0 X99.62 Y104.511
G1 F1500 E77.81985
G0 F7500 X99.695 Y104.547
M205 X8 Y8
;TYPE:WALL-INNER
G1 F1500 X100.354 Y103.453 E77.90036
G1 X101.006 Y102.585 E77.96879
G1 X101.868 Y101.646 E78.04914
G1 X102.781 Y100.846 E78.12566
G1 X103.741 Y100.165 E78.19985
G1 X104.741 Y99.596 E78.27238
G1 X105.791 Y99.13 E78.34479
G1 X106.865 Y98.771 E78.41618
G1 X107.904 Y98.532 E78.48338
G1 X109.058 Y98.38 E78.55675
G1 X110.05 Y98.342 E78.61933
G1 X111.087 Y98.393 E78.68478
G1 X112.196 Y98.55 E78.75538
G1 X113.284 Y98.814 E78.82596
G1 X114.476 Y99.236 E78.90567
G1 X115.453 Y99.695 E78.97371
G1 X116.478 Y100.308 E79.049
G1 X117.479 Y101.059 E79.12788
G1 X118.354 Y101.869 E79.20304
G1 X119.154 Y102.781 E79.27951
G1 X119.833 Y103.738 E79.35348
G1 X120.404 Y104.741 E79.42624
G1 X120.877 Y105.807 E79.49975
G1 X121.226 Y106.849 E79.56902
G1 X121.47 Y107.913 E79.63783
G1 X121.617 Y109.017 E79.70804
G1 X121.659 Y109.996 E79.76981
G1 X121.604 Y111.126 E79.84112
G1 X121.442 Y112.238 E79.91196
G1 X121.18 Y113.305 E79.98122
G1 X120.797 Y114.396 E80.0541
G1 X120.305 Y115.453 E80.1276
G1 X119.646 Y116.546 E80.20805
G1 X118.994 Y117.415 E80.27653
G1 X118.132 Y118.354 E80.35688
G1 X117.219 Y119.154 E80.4334
G1 X116.259 Y119.835 E80.5076
G1 X115.259 Y120.404 E80.58012
G1 X114.193 Y120.877 E80.65364
G1 X113.186 Y121.215 E80.7206
G1 X112.08 Y121.471 E80.79216
G1 X110.943 Y121.62 E80.86444
G1 X109.963 Y121.658 E80.92626
G1 X108.914 Y121.607 E80.99247
G1 X107.803 Y121.449 E81.06321
G1 X106.636 Y121.162 E81.13896
G1 X105.524 Y120.764 E81.21341
G1 X104.545 Y120.304 E81.2816
G1 X103.522 Y119.692 E81.35674
G1 X102.584 Y118.993 E81.43048
G1 X101.706 Y118.193 E81.50536
G1 X100.846 Y117.219 E81.58726
G1 X100.165 Y116.259 E81.66146
G1 X99.595 Y115.257 E81.73412
G1 X99.128 Y114.205 E81.80668
G1 X98.774 Y113.151 E81.87677
G1 X98.529 Y112.081 E81.94596
G1 X98.38 Y110.943 E82.01831
G1 X98.342 Y110.04 E82.07528
G1 X98.396 Y108.873 E82.14892
G1 X98.558 Y107.762 E82.2197
G1 X98.82 Y106.695 E82.28895
G1 X99.203 Y105.604 E82.36184
G1 X99.695 Y104.547 E82.43533
M205 X5 Y5
G1 F1500 E76.43533
G0 F7500 X99.62 Y104.511
G0 X98.884 Y106.451
G0 X98.316 Y108.832
G1 F1500 E82.43533
G0 F7500 X98.965 Y108.916
M205 X8 Y8
;TYPE:WALL-OUTER
G1 F1500 X99.12 Y107.859 E82.49594
G1 X99.37 Y106.845 E82.55519
G1 X99.751 Y105.769 E82.61995
G1 X100.224 Y104.765 E82.68291
G1 X100.81 Y103.795 E82.74721
G1 X101.462 Y102.927 E82.8088
G1 X102.246 Y102.073 E82.87457
G1 X103.091 Y101.327 E82.93851
G1 X104.025 Y100.659 E83.00366
G1 X104.95 Y100.128 E83.06417
G1 X105.95 Y99.679 E83.12636
G1 X106.994 Y99.326 E83.18888
G1 X107.989 Y99.096 E83.24682
G1 X109.057 Y98.952 E83.30796
G1 X110.022 Y98.912 E83.36275
G1 X111.084 Y98.965 E83.42308
G1 X112.14 Y99.119 E83.48362
G1 X113.148 Y99.367 E83.54251
G1 X114.233 Y99.752 E83.60783
G1 X115.235 Y100.224 E83.67066
G1 X116.184 Y100.796 E83.73353
G1 X117.073 Y101.462 E83.79655
G1 X117.927 Y102.246 E83.86232
G1 X118.69 Y103.112 E83.9278
G1 X119.339 Y104.022 E83.99121
G1 X119.872 Y104.95 E84.05192
G1 X120.327 Y105.964 E84.11497
G1 X120.682 Y107.021 E84.17823
G1 X120.911 Y108.027 E84.23677
G1 X121.05 Y109.067 E84.29629
G1 X121.089 Y109.996 E84.34904
G1 X121.035 Y111.084 E84.41084
G1 X120.883 Y112.128 E84.4707
G1 X120.63 Y113.155 E84.5307
G1 X120.249 Y114.231 E84.59546
G1 X119.776 Y115.235 E84.65843
G1 X119.205 Y116.182 E84.72116
G1 X118.538 Y117.073 E84.78431
G1 X117.754 Y117.927 E84.85008
G1 X116.909 Y118.673 E84.91402
G1 X115.975 Y119.341 E84.97917
G1 X115.05 Y119.872 E85.03968
G1 X114.036 Y120.327 E85.10273
G1 X112.979 Y120.682 E85.16599
G1 X111.996 Y120.907 E85.2232
G1 X110.943 Y121.048 E85.28347
G1 X109.99 Y121.088 E85.33759
G1 X108.916 Y121.035 E85.39859
G1 X107.86 Y120.88 E85.45914
G1 X106.852 Y120.633 E85.51802
G1 X105.767 Y120.248 E85.58334
G1 X104.763 Y119.775 E85.6463
G1 X103.816 Y119.204 E85.70904
G1 X102.926 Y118.537 E85.77214
G1 X102.072 Y117.753 E85.83791
G1 X101.327 Y116.909 E85.90177
G1 X100.659 Y115.975 E85.96692
G1 X100.127 Y115.048 E86.02756
G1 X99.678 Y114.048 E86.08975
G1 X99.318 Y112.979 E86.15374
G1 X99.089 Y111.971 E86.21238
G1 X98.952 Y110.943 E86.27122
G1 X98.912 Y110.016 E86.32386
G1 X98.965 Y108.916 E86.38634
M205 X5 Y5
G0 F7500 X98.994 Y108.719
G0 X98.347 Y108.624
G0 X98.36 Y110.996
G0 X98.516 Y112.137
G0 X98.765 Y113.202
G0 X98.867 Y113.504
G0 X99.99 Y116.357
G0 X99.728 Y116.503
M205 X8 Y8
;TYPE:SKIN
G1 F1500 X99.199 Y115.58 E86.44669
G1 X98.657 Y114.372 E86.52181
G1 X98.304 Y113.32 E86.58476
G1 X98.046 Y112.212 E86.6493
G1 X97.89 Y111.09 E86.71357
G1 X97.843 Y110.065 E86.77178
G1 X97.897 Y108.866 E86.83987
G1 X98.068 Y107.666 E86.90864
G1 X98.331 Y106.588 E86.97159
G1 X98.785 Y105.31 E87.04853
G1 X99.28 Y104.259 E87.11444
G1 X99.955 Y103.151 E87.18805
G1 X100.69 Y102.185 E87.25691
G1 X101.434 Y101.373 E87.31939
G1 X102.401 Y100.51 E87.39292
G1 X103.493 Y99.731 E87.46902
G1 X104.417 Y99.201 E87.52946
G1 X105.624 Y98.658 E87.60454
G1 X106.71 Y98.292 E87.66956
G1 X107.805 Y98.042 E87.73328
G1 X108.911 Y97.892 E87.7966
G1 X109.977 Y97.843 E87.85714
G1 X111.254 Y97.908 E87.92968
G1 X112.265 Y98.055 E87.98764
G1 X113.425 Y98.334 E88.05533
G1 X114.692 Y98.786 E88.13165
G1 X115.738 Y99.279 E88.19725
G1 X116.851 Y99.957 E88.27119
G1 X117.815 Y100.69 E88.33989
G1 X118.627 Y101.434 E88.40237
G1 X119.489 Y102.4 E88.47582
G1 X120.238 Y103.44 E88.54853
G1 X120.811 Y104.44 E88.61392
G1 X121.301 Y105.523 E88.68136
G1 X121.692 Y106.666 E88.74989
G1 X121.953 Y107.773 E88.81442
G1 X122.117 Y109.01 E88.88521
G1 X122.158 Y110.006 E88.94176
G1 X122.103 Y111.133 E89.00578
G1 X121.941 Y112.28 E89.07149
G1 X121.669 Y113.412 E89.13754
G1 X121.215 Y114.69 E89.21449
G1 X120.721 Y115.738 E89.28022
G1 X120.045 Y116.848 E89.35395
G1 X119.31 Y117.815 E89.42286
G1 X118.566 Y118.627 E89.48534
G1 X117.599 Y119.49 E89.55887
G1 X116.507 Y120.269 E89.63497
G1 X115.583 Y120.799 E89.6954
G1 X114.449 Y121.312 E89.76601
G1 X113.267 Y121.715 E89.83686
G1 X112.141 Y121.969 E89.90235
G1 X111.094 Y122.108 E89.96227
G1 X110.032 Y122.157 E90.02258
G1 X108.756 Y122.093 E90.09506
G1 X107.735 Y121.946 E90.15358
G1 X106.571 Y121.665 E90.22152
G1 X105.308 Y121.214 E90.2976
G1 X104.26 Y120.72 E90.36333
G1 X103.147 Y120.042 E90.43727
G1 X102.18 Y119.306 E90.50621
G1 X101.371 Y118.565 E90.56845
G1 X100.527 Y117.62 E90.64033
G1 X99.728 Y116.503 E90.71825
M205 X5 Y5
G1 F1500 E84.71825
G0 F7500 X99.991 Y116.358
G0 X98.264 Y112.186
G0 X98.264 Y90.072
G0 X74.102 Y90.668
G1 F1500 E90.71825
G0 F7500 X74.102 Y90.968
M205 X8 Y8
G1 F1500 X74.102 Y129.032 E92.87772
G1 X145.9 Y129.033 E96.95101
G1 X145.9 Y90.966 E99.11065
G1 X74.102 Y90.968 E103.18394
M205 X5 Y5
G0 F7500 X74.706 Y91.507
M205 X8 Y8
G1 F1500 X75.47 Y91.507 E103.22729
G1 X97.961 Y113.998 E105.03179
G1 X97.787 Y113.479 E105.06284
G1 X97.659 Y112.933 E105.09466
G1 X76.233 Y91.507 E106.81371
G1 X76.997 Y91.507 E106.85705
G1 X97.469 Y111.979 E108.49956
G1 X97.348 Y111.096 E108.55013
