;FLAVOR:Marlin
;TIME:5353
;Filament used: 11.4103m
;Layer height: 0.28
;MINX:30.728
;MINY:61.091
;MINZ:0.28
;MAXX:190.504
;MAXY:158.746
;MAXZ:6.44
;Generated with Cura_SteamEngine main
M82 ;absolute extrusion mode
; Ender 3 Custom Start G-code
G92 E0 ; Reset Extruder
G28 ; Home all axes
M104 S175 ; Start heating up the nozzle most of the way
M190 S50.0 ; Start heating the bed, wait until target temperature reached
M109 S200 ; Finish heating the nozzle
G1 Z2.0 F3000 ; Move Z Axis up little to prevent scratching of Heat Bed
G1 X0.1 Y20 Z0.3 F5000.0 ; Move to start position
G1 X0.1 Y200.0 Z0.3 F1500.0 E15 ; Draw the first line
G1 X0.4 Y200.0 Z0.3 F5000.0 ; Move to side a little
G1 X0.4 Y20 Z0.3 F1500.0 E30 ; Draw the second line
G92 E0 ; Reset Extruder
G1 Z2.0 F3000 ; Move Z Axis up little to prevent scratching of Heat Bed
G1 X5 Y20 Z0.3 F5000.0 ; Move over to prevent blob squish
G92 E0
G92 E0
G1 F1500 E-6
;LAYER_COUNT:23
;LAYER:0
M107
M204 S500
M205 X5 Y5
G0 F7500 X36.656 Y62.926 Z0.28
G0 X31.13 Y72.998
M205 X8 Y8
;TYPE:SKIRT
G1 F1500 E0
G1 X31.144 Y72.397 E0.03411
G1 X31.206 Y71.446 E0.08817
G1 X31.348 Y70.504 E0.14222
G1 X31.568 Y69.577 E0.19627
G1 X31.865 Y68.672 E0.25031
G1 X32.237 Y67.795 E0.30435
G1 X32.681 Y66.952 E0.35841
G1 X33.195 Y66.149 E0.4125
G1 X33.773 Y65.393 E0.46649
G1 X34.414 Y64.687 E0.52059
G1 X35.111 Y64.038 E0.57462
G1 X35.86 Y63.449 E0.62867
G1 X36.656 Y62.926 E0.68271
G1 X37.493 Y62.471 E0.73676
G1 X38.365 Y62.088 E0.79079
G1 X39.266 Y61.779 E0.84483
G1 X40.19 Y61.547 E0.89887
G1 X41.13 Y61.393 E0.95291
G1 X42.207 Y61.315 E1.01418
G1 X42.873 Y61.303 E1.05197
G1 X82.963 Y61.52 E3.32641
G1 X85.59 Y61.497 E3.47545
G1 X88.069 Y61.405 E3.61619
G1 X89.351 Y61.323 E3.68907
G1 X90.384 Y61.276 E3.74774
G1 X91.043 Y61.267 E3.78513
G1 X128.091 Y61.548 E5.88702
G1 X130.68 Y61.532 E6.0339
G1 X133.157 Y61.445 E6.17451
G1 X135.711 Y61.284 E6.3197
G1 X136.358 Y61.225 E6.35656
G1 X137.522 Y61.133 E6.4228
G1 X138.176 Y61.101 E6.45995
G1 X138.833 Y61.091 E6.49722
G1 X178.518 Y61.392 E8.74872
G1 X179.401 Y61.411 E8.79883
G1 X180.352 Y61.472 E8.85289
G1 X181.294 Y61.613 E8.90693
G1 X182.221 Y61.832 E8.96097
G1 X183.126 Y62.128 E9.01499
G1 X184.004 Y62.5 E9.06909
G1 X184.847 Y62.943 E9.12311
G1 X185.65 Y63.456 E9.17717
G1 X186.407 Y64.034 E9.23121
G1 X187.113 Y64.673 E9.28523
G1 X187.763 Y65.37 E9.3393
G1 X188.352 Y66.119 E9.39336
G1 X188.877 Y66.914 E9.44741
G1 X189.333 Y67.75 E9.50143
G1 X189.717 Y68.622 E9.55549
G1 X190.026 Y69.523 E9.60953
G1 X190.259 Y70.447 E9.66359
G1 X190.414 Y71.387 E9.71764
G1 X190.494 Y72.518 E9.78196
G1 X190.504 Y73.175 E9.81924
G1 X189.944 Y146.698 E13.99051
G1 X189.928 Y147.453 E14.03336
G1 X189.868 Y148.404 E14.08742
G1 X189.729 Y149.347 E14.14149
G1 X189.51 Y150.274 E14.19553
G1 X189.215 Y151.18 E14.24959
G1 X188.845 Y152.058 E14.30364
G1 X188.403 Y152.901 E14.35764
G1 X187.891 Y153.705 E14.41172
G1 X187.314 Y154.463 E14.46576
G1 X186.675 Y155.17 E14.51983
G1 X185.979 Y155.82 E14.57386
G1 X185.231 Y156.411 E14.62794
G1 X184.437 Y156.936 E14.68194
G1 X183.601 Y157.393 E14.736
G1 X182.729 Y157.778 E14.79007
G1 X181.829 Y158.088 E14.84408
G1 X180.905 Y158.322 E14.89815
G1 X179.965 Y158.478 E14.95221
G1 X178.825 Y158.56 E15.01705
G1 X178.17 Y158.57 E15.05422
G1 X141.111 Y158.29 E17.15673
G1 X138.522 Y158.306 E17.30362
G1 X136.009 Y158.394 E17.44627
G1 X133.501 Y158.552 E17.58884
G1 X131.756 Y158.699 E17.68819
G1 X131.039 Y158.737 E17.72892
G1 X130.38 Y158.746 E17.76631
G1 X90.667 Y158.445 E20.0194
G1 X88.078 Y158.461 E20.16629
G1 X85.575 Y158.549 E20.30838
G1 X84.579 Y158.613 E20.365
G1 X83.412 Y158.674 E20.43129
G1 X82.414 Y158.697 E20.48793
G1 X42.674 Y158.482 E22.74252
G1 X41.842 Y158.465 E22.78973
G1 X40.891 Y158.405 E22.84379
G1 X39.949 Y158.265 E22.89782
G1 X39.021 Y158.046 E22.95191
G1 X38.116 Y157.751 E23.00591
G1 X37.238 Y157.38 E23.05999
G1 X36.395 Y156.937 E23.11402
G1 X35.591 Y156.425 E23.16809
G1 X34.834 Y155.848 E23.22209
G1 X34.127 Y155.209 E23.27616
G1 X33.477 Y154.513 E23.33019
G1 X32.887 Y153.765 E23.38423
G1 X32.362 Y152.97 E23.43828
G1 X31.905 Y152.133 E23.49239
G1 X31.52 Y151.262 E23.54641
G1 X31.21 Y150.361 E23.60047
G1 X30.977 Y149.438 E23.65448
G1 X30.821 Y148.498 E23.70853
G1 X30.741 Y147.418 E23.76997
G1 X30.728 Y146.716 E23.80981
G1 X31.13 Y72.998 E27.99209
M205 X5 Y5
G0 F7500 X31.67 Y73.01
M205 X8 Y8
G1 F1500 X31.684 Y72.409 E28.02619
G1 X31.746 Y71.482 E28.0789
G1 X31.887 Y70.563 E28.13165
G1 X32.106 Y69.659 E28.18442
G1 X32.403 Y68.778 E28.23716
G1 X32.773 Y67.925 E28.28991
G1 X33.216 Y67.108 E28.34264
G1 X33.728 Y66.332 E28.39538
G1 X34.304 Y65.602 E28.44814
G1 X34.941 Y64.925 E28.50087
G1 X35.634 Y64.304 E28.55366
G1 X36.377 Y63.746 E28.60638
G1 X37.166 Y63.254 E28.65913
G1 X37.994 Y62.831 E28.71188
G1 X38.855 Y62.481 E28.76461
G1 X39.743 Y62.206 E28.81735
G1 X40.652 Y62.009 E28.87012
G1 X41.574 Y61.89 E28.92286
G1 X42.221 Y61.854 E28.95962
G1 X42.87 Y61.843 E28.99644
G1 X82.964 Y62.06 E31.27112
G1 X85.58 Y62.037 E31.41954
G1 X88.124 Y61.943 E31.56396
G1 X89.377 Y61.862 E31.6352
G1 X90.08 Y61.827 E31.67513
G1 X90.734 Y61.809 E31.71225
G1 X128.09 Y62.088 E33.83161
G1 X130.703 Y62.072 E33.97985
G1 X133.174 Y61.985 E34.12013
G1 X135.726 Y61.824 E34.2652
G1 X137.564 Y61.672 E34.36983
G1 X138.187 Y61.64 E34.40522
G1 X138.829 Y61.631 E34.44164
G1 X178.514 Y61.932 E36.69314
G1 X179.389 Y61.951 E36.7428
G1 X180.317 Y62.011 E36.79556
G1 X181.236 Y62.152 E36.8483
G1 X182.139 Y62.37 E36.901
G1 X183.021 Y62.666 E36.95378
G1 X183.874 Y63.036 E37.00653
G1 X184.692 Y63.478 E37.05928
G1 X185.468 Y63.989 E37.112
G1 X186.199 Y64.565 E37.16479
G1 X186.877 Y65.201 E37.21753
G1 X187.497 Y65.893 E37.27025
G1 X188.056 Y66.636 E37.323
G1 X188.549 Y67.424 E37.37573
G1 X188.973 Y68.252 E37.4285
G1 X189.324 Y69.113 E37.48125
G1 X189.599 Y70.001 E37.53399
G1 X189.798 Y70.909 E37.58673
G1 X189.917 Y71.831 E37.63947
G1 X189.955 Y72.529 E37.67913
G1 X189.964 Y73.171 E37.71555
G1 X189.405 Y146.687 E41.88643
G1 X189.389 Y147.442 E41.92927
G1 X189.329 Y148.37 E41.98203
G1 X189.19 Y149.289 E42.03476
G1 X188.972 Y150.193 E42.08752
G1 X188.678 Y151.075 E42.14026
G1 X188.308 Y151.928 E42.19301
G1 X187.867 Y152.747 E42.24579
G1 X187.357 Y153.524 E42.29851
G1 X186.783 Y154.255 E42.35124
G1 X186.147 Y154.934 E42.40402
G1 X185.456 Y155.555 E42.45673
G1 X184.714 Y156.115 E42.50947
G1 X183.926 Y156.609 E42.56223
G1 X183.099 Y157.034 E42.61498
G1 X182.238 Y157.385 E42.66773
G1 X181.351 Y157.662 E42.72045
G1 X180.443 Y157.861 E42.77319
G1 X179.521 Y157.982 E42.82594
G1 X178.814 Y158.02 E42.86611
G1 X178.174 Y158.03 E42.90243
G1 X141.112 Y157.75 E45.00511
G1 X138.499 Y157.766 E45.15336
G1 X136.028 Y157.853 E45.29363
G1 X133.423 Y158.017 E45.44171
G1 X131.711 Y158.161 E45.53918
G1 X131.028 Y158.197 E45.57798
G1 X130.384 Y158.206 E45.61452
G1 X90.668 Y157.905 E47.86778
G1 X88.055 Y157.921 E48.01603
G1 X85.591 Y158.007 E48.1559
G1 X84.683 Y158.066 E48.20752
G1 X83.071 Y158.146 E48.29909
G1 X82.417 Y158.157 E48.3362
G1 X42.677 Y157.942 E50.59078
G1 X41.854 Y157.925 E50.63748
G1 X40.926 Y157.865 E50.69024
G1 X40.007 Y157.726 E50.74297
G1 X39.103 Y157.508 E50.79573
G1 X38.221 Y157.213 E50.84849
G1 X37.368 Y156.844 E50.90122
G1 X36.55 Y156.402 E50.95397
G1 X35.772 Y155.892 E51.00674
G1 X35.042 Y155.317 E51.05946
G1 X34.363 Y154.681 E51.11224
G1 X33.742 Y153.989 E51.16499
G1 X33.182 Y153.247 E51.21773
G1 X32.689 Y152.459 E51.27047
G1 X32.265 Y151.632 E51.32319
G1 X31.913 Y150.771 E51.37596
G1 X31.637 Y149.883 E51.42872
G1 X31.438 Y148.975 E51.48145
G1 X31.318 Y148.053 E51.5342
G1 X31.281 Y147.404 E51.57108
G1 X31.268 Y146.719 E51.60995
G1 X31.67 Y73.01 E55.79172
M205 X5 Y5
G0 F7500 X32.207 Y73.206
M205 X8 Y8
G1 F1500 X32.224 Y72.422 E55.83621
G1 X32.285 Y71.518 E55.88761
G1 X32.425 Y70.622 E55.93906
G1 X32.644 Y69.743 E55.99045
G1 X32.94 Y68.886 E56.04189
G1 X33.31 Y68.059 E56.09329
G1 X33.751 Y67.268 E56.14467
G1 X34.261 Y66.518 E56.19612
G1 X34.834 Y65.817 E56.24749
G1 X35.467 Y65.168 E56.29892
G1 X36.155 Y64.578 E56.35034
G1 X36.892 Y64.051 E56.40174
G1 X37.673 Y63.591 E56.45317
G1 X38.491 Y63.202 E56.50455
G1 X39.341 Y62.886 E56.556
G1 X40.215 Y62.646 E56.60742
G1 X41.106 Y62.485 E56.65879
G1 X42.234 Y62.394 E56.72299
G1 X42.867 Y62.383 E56.75891
G1 X82.966 Y62.601 E59.03386
G1 X85.605 Y62.577 E59.18359
G1 X88.145 Y62.483 E59.32779
G1 X89.404 Y62.402 E59.39936
G1 X90.406 Y62.356 E59.45627
G1 X91.035 Y62.347 E59.49195
G1 X128.09 Y62.629 E61.59424
G1 X130.69 Y62.612 E61.74175
G1 X133.227 Y62.523 E61.88577
G1 X135.773 Y62.363 E62.0305
G1 X136.443 Y62.302 E62.06867
G1 X137.607 Y62.21 E62.13491
G1 X138.199 Y62.18 E62.16854
G1 X138.825 Y62.171 E62.20405
G1 X178.51 Y62.472 E64.45555
G1 X179.377 Y62.491 E64.50475
G1 X180.281 Y62.551 E64.55615
G1 X181.176 Y62.69 E64.60754
G1 X182.056 Y62.909 E64.65898
G1 X182.913 Y63.203 E64.71039
G1 X183.74 Y63.572 E64.76176
G1 X184.532 Y64.013 E64.81319
G1 X185.282 Y64.522 E64.86461
G1 X185.984 Y65.095 E64.91602
G1 X186.633 Y65.727 E64.96742
G1 X187.224 Y66.415 E65.01887
G1 X187.752 Y67.151 E65.07026
G1 X188.212 Y67.932 E65.12168
G1 X188.602 Y68.75 E65.17309
G1 X188.919 Y69.599 E65.22451
G1 X189.159 Y70.472 E65.27587
G1 X189.322 Y71.364 E65.32732
G1 X189.415 Y72.541 E65.3943
G1 X189.424 Y73.167 E65.42982
G1 X188.865 Y146.676 E69.6003
G1 X188.849 Y147.431 E69.64314
G1 X188.79 Y148.335 E69.69454
G1 X188.651 Y149.23 E69.74592
G1 X188.434 Y150.11 E69.79734
G1 X188.14 Y150.967 E69.84874
G1 X187.772 Y151.796 E69.9002
G1 X187.332 Y152.588 E69.9516
G1 X186.824 Y153.338 E70.00299
G1 X186.252 Y154.041 E70.05441
G1 X185.62 Y154.691 E70.10584
G1 X184.934 Y155.282 E70.15721
G1 X184.198 Y155.811 E70.20863
G1 X183.418 Y156.273 E70.26007
G1 X182.601 Y156.664 E70.31145
G1 X181.752 Y156.981 E70.36286
G1 X180.878 Y157.223 E70.41431
G1 X179.987 Y157.386 E70.4657
G1 X178.802 Y157.481 E70.53315
G1 X178.178 Y157.49 E70.56855
G1 X141.112 Y157.209 E72.67146
G1 X138.512 Y157.226 E72.81897
G1 X135.977 Y157.315 E72.96288
G1 X133.39 Y157.478 E73.10994
G1 X131.666 Y157.623 E73.20809
G1 X131.017 Y157.657 E73.24496
G1 X130.388 Y157.666 E73.28065
G1 X90.668 Y157.364 E75.53413
G1 X88.068 Y157.381 E75.68164
G1 X85.537 Y157.47 E75.82532
G1 X84.523 Y157.534 E75.88296
G1 X83.356 Y157.595 E75.94926
G1 X82.419 Y157.617 E76.00243
G1 X42.513 Y157.4 E78.26644
G1 X41.865 Y157.386 E78.30321
G1 X40.961 Y157.326 E78.35461
G1 X40.065 Y157.187 E78.40605
G1 X39.186 Y156.97 E78.45741
G1 X38.329 Y156.676 E78.50882
G1 X37.501 Y156.307 E78.56024
G1 X36.709 Y155.867 E78.61164
G1 X35.958 Y155.359 E78.66308
G1 X35.256 Y154.786 E78.71449
G1 X34.606 Y154.154 E78.76593
G1 X34.015 Y153.468 E78.8173
G1 X33.487 Y152.731 E78.86873
G1 X33.025 Y151.951 E78.92016
G1 X32.635 Y151.134 E78.97152
G1 X32.317 Y150.285 E79.02296
G1 X32.076 Y149.411 E79.07439
G1 X31.913 Y148.52 E79.12578
G1 X31.821 Y147.39 E79.1901
G1 X31.808 Y146.722 E79.228
G1 X32.207 Y73.206 E83.39882
M205 X5 Y5
G1 F1500 E77.39882
;MESH:slat_closed.stl
G0 F7500 X41.812 Y73.261
G0 X42.92 Y73.266
G0 X43.004 Y146.292
G1 F1500 E83.39882
G0 F7500 X42.921 Y146.292
M205 X8 Y8
;TYPE:WALL-INNER
G1 F1500 X81.986 Y146.504 E85.86137
G1 X82.381 Y73.708 E90.45023
G1 X43.316 Y73.496 E92.91277
G1 X42.921 Y146.292 E97.50163
M205 X5 Y5
G0 F7500 X42.348 Y146.859
M205 X8 Y8
;TYPE:WALL-OUTER
G1 F1500 X82.553 Y147.077 E99.7826
G1 X82.954 Y73.141 E103.97725
G1 X42.749 Y72.923 E106.25821
G1 X42.348 Y146.859 E110.45286
M205 X5 Y5
G0 F7500 X42.548 Y146.86
G0 X42.976 Y146.237
G0 X43.125 Y145.794
G0 X43.424 Y145.796
M205 X8 Y8
;TYPE:SKIN
G1 F1500 X81.49 Y146.001 E112.61248
G1 X81.878 Y74.204 E116.68577
G1 X43.812 Y73.999 E118.84539
G1 X43.424 Y145.796 E122.91868
M205 X5 Y5
G0 F7500 X43.965 Y145.257
M205 X8 Y8
G1 F1500 X44.454 Y145.259 E122.94642
G1 X43.967 Y144.773 E122.98546
G1 X43.972 Y144.013 E123.02857
G1 X45.222 Y145.263 E123.12886
G1 X45.99 Y145.268 E123.17243
G1 X43.976 Y143.254 E123.33402
G1 X43.98 Y142.494 E123.37714
G1 X46.758 Y145.272 E123.60002
G1 X47.526 Y145.276 E123.6436
G1 X43.984 Y141.735 E123.92774
G1 X43.988 Y140.975 E123.97085
G1 X48.293 Y145.28 E124.31625
G1 X49.061 Y145.284 E124.35983
G1 X43.992 Y140.215 E124.76652
G1 X43.996 Y139.456 E124.80958
G1 X49.829 Y145.289 E125.27758
G1 X50.597 Y145.292 E125.32115
G1 X44.001 Y138.696 E125.85036
G1 X44.005 Y137.937 E125.89342
G1 X51.364 Y145.297 E126.48389
G1 X52.132 Y145.301 E126.52746
G1 X44.009 Y137.178 E127.17918
G1 X44.013 Y136.417 E127.22236
G1 X52.9 Y145.305 E127.93542
G1 X53.668 Y145.309 E127.97899
G1 X44.017 Y135.658 E128.75331
G1 X44.021 Y134.899 E128.79637
G1 X54.436 Y145.313 E129.63195
G1 X55.204 Y145.318 E129.67552
G1 X44.025 Y134.139 E130.57243
G1 X44.03 Y133.38 E130.6155
G1 X55.972 Y145.322 E131.57363
G1 X56.74 Y145.326 E131.6172
G1 X44.034 Y132.62 E132.63663
G1 X44.037 Y131.86 E132.67974
G1 X57.507 Y145.33 E133.76047
G1 X58.275 Y145.334 E133.80404
G1 X44.042 Y131.101 E134.94598
G1 X44.046 Y130.341 E134.9891
G1 X59.043 Y145.338 E136.19234
G1 X59.811 Y145.342 E136.23591
G1 X44.05 Y129.582 E137.50041
G1 X44.054 Y128.822 E137.54353
G1 X60.579 Y145.347 E138.86936
G1 X61.347 Y145.351 E138.91293
G1 X44.059 Y128.063 E140.29999
G1 X44.062 Y127.303 E140.3431
G1 X62.115 Y145.355 E141.79149
G1 X62.883 Y145.359 E141.83506
G1 X44.066 Y126.543 E143.34475
G1 X44.071 Y125.784 E143.38781
G1 X63.65 Y145.364 E144.95872
G1 X64.418 Y145.368 E145.00229
G1 X44.075 Y125.024 E146.63449
G1 X44.079 Y124.265 E146.67755
G1 X65.186 Y145.371 E148.37097
G1 X65.953 Y145.376 E148.41448
G1 X44.083 Y123.506 E150.16916
G1 X44.087 Y122.745 E150.21233
G1 X66.721 Y145.38 E152.02834
G1 X67.489 Y145.384 E152.07192
G1 X44.091 Y121.986 E153.94919
G1 X44.095 Y121.227 E153.99225
G1 X68.257 Y145.388 E155.93077
G1 X69.025 Y145.393 E155.97435
G1 X44.1 Y120.467 E157.97417
G1 X44.104 Y119.708 E158.01723
G1 X69.793 Y145.397 E160.07831
G1 X70.561 Y145.401 E160.12188
G1 X44.108 Y118.948 E162.24426
G1 X44.112 Y118.188 E162.28738
G1 X71.329 Y145.405 E164.47106
G1 X72.097 Y145.41 E164.51463
G1 X44.116 Y117.429 E166.7596
G1 X44.12 Y116.669 E166.80272
G1 X72.864 Y145.413 E169.10891
G1 X73.632 Y145.417 E169.15248
G1 X44.124 Y115.91 E171.51993
G1 X44.129 Y115.15 E171.56305
G1 X74.4 Y145.422 E173.99179
G1 X75.168 Y145.426 E174.03536
G1 X44.133 Y114.391 E176.52537
G1 X44.136 Y113.631 E176.56848
G1 X75.936 Y145.43 E179.11982
G1 X76.704 Y145.434 E179.16339
G1 X44.141 Y112.871 E181.77599
G1 X44.145 Y112.112 E181.81905
G1 X77.472 Y145.439 E184.49295
G1 X78.239 Y145.443 E184.53646
G1 X44.149 Y111.353 E187.27157
G1 X44.153 Y110.593 E187.31469
G1 X79.007 Y145.447 E190.1111
G1 X79.775 Y145.451 E190.15467
G1 X44.157 Y109.833 E193.01238
G1 X44.161 Y109.074 E193.05544
G1 X80.542 Y145.455 E195.97436
G1 X80.951 Y145.458 E195.99756
G1 X80.953 Y145.102 E196.01776
G1 X44.165 Y108.314 E198.96934
G1 X44.17 Y107.555 E199.0124
G1 X80.958 Y144.343 E201.96398
G1 X80.962 Y143.583 E202.00709
G1 X44.174 Y106.795 E204.95867
G1 X44.178 Y106.036 E205.00173
G1 X80.966 Y142.824 E207.95331
G1 X80.97 Y142.064 E207.99643
G1 X44.182 Y105.276 E210.94801
G1 X44.186 Y104.516 E210.99112
G1 X80.974 Y141.304 E213.9427
G1 X80.978 Y140.545 E213.98576
G1 X44.19 Y103.757 E216.93734
G1 X44.194 Y102.997 E216.98046
G1 X80.982 Y139.785 E219.93203
G1 X80.987 Y139.026 E219.97509
G1 X44.199 Y102.238 E222.92667
G1 X44.203 Y101.479 E222.96973
G1 X80.991 Y138.266 E225.92127
G1 X80.994 Y137.506 E225.96439
G1 X44.206 Y100.718 E228.91596
G1 X44.211 Y99.959 E228.95903
G1 X80.999 Y136.747 E231.9106
G1 X81.003 Y135.987 E231.95372
G1 X44.215 Y99.2 E234.90526
G1 X44.219 Y98.44 E234.94838
G1 X81.007 Y135.228 E237.89995
G1 X81.011 Y134.469 E237.94301
G1 X44.223 Y97.681 E240.89459
G1 X44.228 Y96.921 E240.93771
G1 X81.016 Y133.709 E243.88929
G1 X81.019 Y132.949 E243.9324
G1 X44.231 Y96.161 E246.88398
G1 X44.235 Y95.402 E246.92704
G1 X81.023 Y132.19 E249.87862
G1 X81.028 Y131.43 E249.92174
G1 X44.24 Y94.642 E252.87331
G1 X44.244 Y93.883 E252.91638
G1 X81.032 Y130.671 E255.86795
G1 X81.036 Y129.911 E255.91107
G1 X44.248 Y93.123 E258.86265
G1 X44.252 Y92.364 E258.90571
G1 X81.04 Y129.151 E261.85725
G1 X81.044 Y128.392 E261.90031
