;FLAVOR:Marlin
;TIME:3109
;Filament used: 3.83641m
;Layer height: 0.28
;MINX:91.5
;MINY:91.5
;MINZ:0.28
;MAXX:143.5
;MAXY:143.5
;MAXZ:29.96
;Generated with Cura_SteamEngine main
M82 ;absolute extrusion mode
; Ender 3 Custom Start G-code
G92 E0 ; Reset Extruder
G28 ; Home all axes
M104 S175 ; Start heating up the nozzle most of the way
M190 S60 ; Start heating the bed, wait until target temperature reached
M109 S200 ; Finish heating the nozzle
G1 Z2.0 F3000 ; Move Z Axis up little to prevent scratching of Heat Bed
G1 X0.1 Y20 Z0.3 F5000.0 ; Move to start position
G1 X0.1 Y200.0 Z0.3 F1500.0 E15 ; Draw the first line
G1 X0.4 Y200.0 Z0.3 F5000.0 ; Move to side a little
G1 X0.4 Y20 Z0.3 F1500.0 E30 ; Draw the second line
G92 E0 ; Reset Extruder
G1 Z2.0 F3000 ; Move Z Axis up little to prevent scratching of Heat Bed
G1 X5 Y20 Z0.3 F5000.0 ; Move over to prevent blob squish
G92 E0
G92 E0
G1 F1500 E-6.5
;LAYER_COUNT:107
;LAYER:0
M107
G0 F6000 X94.698 Y94.764 Z0.28
G0 X91.501 Y103.025
;TYPE:SKIRT
G1 F1500 E0
G1 F1200 X91.51 Y102.36 E0.03097
G1 X91.563 Y101.424 E0.07462
G1 X91.695 Y100.495 E0.11831
G1 X91.906 Y99.581 E0.16199
G1 X92.194 Y98.689 E0.20564
G1 X92.557 Y97.824 E0.24932
G1 X92.992 Y96.993 E0.293
G1 X93.496 Y96.203 E0.33663
G1 X94.066 Y95.458 E0.38031
G1 X94.698 Y94.764 E0.42402
G1 X95.386 Y94.127 E0.46768
G1 X96.126 Y93.551 E0.51134
G1 X96.912 Y93.039 E0.55502
G1 X97.739 Y92.597 E0.59869
G1 X98.601 Y92.227 E0.64237
G1 X99.491 Y91.931 E0.68604
G1 X100.403 Y91.713 E0.7297
G1 X101.33 Y91.572 E0.77336
G1 X102.201 Y91.513 E0.81401
G1 X102.83 Y91.5 E0.84331
G1 X131.951 Y91.501 E2.1993
G1 X132.649 Y91.511 E2.23181
G1 X133.585 Y91.565 E2.27547
G1 X134.513 Y91.697 E2.31911
G1 X135.427 Y91.909 E2.3628
G1 X136.319 Y92.198 E2.40646
G1 X137.184 Y92.561 E2.45014
G1 X138.014 Y92.997 E2.4938
G1 X138.805 Y93.502 E2.5375
G1 X139.549 Y94.073 E2.58117
G1 X140.242 Y94.705 E2.62484
G1 X140.879 Y95.393 E2.6685
G1 X141.454 Y96.134 E2.71218
G1 X141.965 Y96.92 E2.75583
G1 X142.407 Y97.748 E2.79953
G1 X142.776 Y98.61 E2.8432
G1 X143.071 Y99.5 E2.88685
G1 X143.289 Y100.412 E2.93052
G1 X143.429 Y101.34 E2.97422
G1 X143.487 Y102.201 E3.0144
G1 X143.5 Y102.83 E3.0437
G1 X143.499 Y131.9 E4.39732
G1 X143.49 Y132.627 E4.43117
G1 X143.439 Y133.564 E4.47487
G1 X143.307 Y134.492 E4.51851
G1 X143.098 Y135.406 E4.56217
G1 X142.811 Y136.299 E4.60585
G1 X142.449 Y137.165 E4.64955
G1 X142.015 Y137.996 E4.69321
G1 X141.511 Y138.787 E4.73688
G1 X140.942 Y139.532 E4.78053
G1 X140.311 Y140.227 E4.82424
G1 X139.624 Y140.865 E4.8679
G1 X138.885 Y141.442 E4.91156
G1 X138.099 Y141.954 E4.95524
G1 X137.273 Y142.397 E4.99888
G1 X136.411 Y142.769 E5.0426
G1 X135.522 Y143.065 E5.08623
G1 X134.61 Y143.285 E5.12991
G1 X133.683 Y143.426 E5.17357
G1 X132.799 Y143.487 E5.21483
G1 X132.17 Y143.5 E5.24413
G1 X103.065 Y143.499 E6.59938
G1 X102.367 Y143.49 E6.63189
G1 X101.431 Y143.438 E6.67554
G1 X100.502 Y143.306 E6.71923
G1 X99.588 Y143.096 E6.7629
G1 X98.695 Y142.809 E6.80657
G1 X97.83 Y142.446 E6.85026
G1 X96.999 Y142.012 E6.89391
G1 X96.208 Y141.508 E6.93758
G1 X95.463 Y140.938 E6.98126
G1 X94.769 Y140.307 E7.02494
G1 X94.132 Y139.62 E7.06856
G1 X93.555 Y138.88 E7.11226
G1 X93.043 Y138.094 E7.15594
G1 X92.6 Y137.267 E7.19962
G1 X92.229 Y136.406 E7.24328
G1 X91.933 Y135.516 E7.28695
G1 X91.714 Y134.604 E7.33063
G1 X91.573 Y133.677 E7.37429
G1 X91.513 Y132.788 E7.41578
G1 X91.5 Y132.158 E7.44512
G1 X91.501 Y103.025 E8.80167
G0 F6000 X91.901 Y103.031
G1 F1200 X91.91 Y102.366 E8.83264
G1 X91.962 Y101.446 E8.87555
G1 X92.094 Y100.535 E8.91841
G1 X92.305 Y99.639 E8.96127
G1 X92.592 Y98.764 E9.00415
G1 X92.955 Y97.918 E9.04702
G1 X93.389 Y97.106 E9.08989
G1 X93.892 Y96.335 E9.13276
G1 X94.461 Y95.611 E9.17564
G1 X95.089 Y94.939 E9.21846
G1 X95.774 Y94.323 E9.26136
G1 X96.51 Y93.77 E9.30423
G1 X97.291 Y93.282 E9.34711
G1 X98.111 Y92.864 E9.38997
G1 X98.965 Y92.519 E9.43285
G1 X99.845 Y92.249 E9.47572
G1 X100.745 Y92.057 E9.51857
G1 X101.659 Y91.943 E9.56146
G1 X102.212 Y91.913 E9.58724
G1 X102.83 Y91.9 E9.61603
G1 X131.793 Y91.9 E10.96467
G1 X132.643 Y91.911 E11.00425
G1 X133.562 Y91.964 E11.04711
G1 X134.473 Y92.097 E11.08998
G1 X135.369 Y92.308 E11.13285
G1 X136.243 Y92.596 E11.1757
G1 X137.09 Y92.959 E11.2186
G1 X137.901 Y93.394 E11.26146
G1 X138.671 Y93.898 E11.30431
G1 X139.395 Y94.467 E11.34719
G1 X140.067 Y95.097 E11.39008
G1 X140.682 Y95.782 E11.43294
G1 X141.235 Y96.518 E11.47581
G1 X141.722 Y97.299 E11.51867
G1 X142.139 Y98.12 E11.56155
G1 X142.484 Y98.974 E11.60444
G1 X142.753 Y99.854 E11.64728
G1 X142.945 Y100.755 E11.69018
G1 X143.058 Y101.668 E11.73302
G1 X143.087 Y102.212 E11.75838
G1 X143.1 Y102.83 E11.78717
G1 X143.099 Y131.895 E13.14056
G1 X143.09 Y132.622 E13.17441
G1 X143.039 Y133.541 E13.21727
G1 X142.908 Y134.453 E13.26017
G1 X142.698 Y135.349 E13.30302
G1 X142.412 Y136.224 E13.34589
G1 X142.051 Y137.071 E13.38876
G1 X141.617 Y137.883 E13.43163
G1 X141.115 Y138.655 E13.47451
G1 X140.547 Y139.38 E13.5174
G1 X139.919 Y140.053 E13.56026
G1 X139.235 Y140.669 E13.60312
G1 X138.5 Y141.223 E13.64598
G1 X137.72 Y141.712 E13.68885
G1 X136.9 Y142.131 E13.73173
G1 X136.047 Y142.477 E13.77459
G1 X135.167 Y142.748 E13.81746
G1 X134.267 Y142.941 E13.86032
G1 X133.353 Y143.056 E13.90322
G1 X132.788 Y143.087 E13.92957
G1 X132.17 Y143.1 E13.95835
G1 X103.07 Y143.099 E15.31337
G1 X102.372 Y143.09 E15.34587
G1 X101.453 Y143.038 E15.38873
G1 X100.542 Y142.907 E15.43159
G1 X99.646 Y142.697 E15.47444
G1 X98.771 Y142.41 E15.51732
G1 X97.924 Y142.048 E15.56021
G1 X97.112 Y141.614 E15.60308
G1 X96.341 Y141.112 E15.64592
G1 X95.616 Y140.544 E15.68881
G1 X94.943 Y139.915 E15.7317
G1 X94.328 Y139.231 E15.77454
G1 X93.774 Y138.496 E15.81739
G1 X93.286 Y137.715 E15.86028
G1 X92.867 Y136.895 E15.90315
G1 X92.521 Y136.042 E15.94602
G1 X92.251 Y135.162 E15.98888
G1 X92.058 Y134.261 E16.03178
G1 X91.944 Y133.348 E16.07463
G1 X91.913 Y132.777 E16.10125
G1 X91.9 Y132.158 E16.13008
G1 X91.901 Y103.031 E17.48636
G0 F6000 X92.301 Y103.036
G1 F1200 X92.31 Y102.371 E17.51733
G1 X92.362 Y101.469 E17.5594
G1 X92.494 Y100.576 E17.60143
G1 X92.704 Y99.698 E17.64347
G1 X92.991 Y98.841 E17.68555
G1 X93.353 Y98.014 E17.72759
G1 X93.786 Y97.222 E17.76962
G1 X94.288 Y96.471 E17.81168
G1 X94.855 Y95.767 E17.85377
G1 X95.481 Y95.117 E17.89579
G1 X96.162 Y94.524 E17.93784
G1 X96.894 Y93.994 E17.97992
G1 X97.669 Y93.531 E18.02196
G1 X98.482 Y93.138 E18.06401
G1 X99.327 Y92.818 E18.10608
G1 X100.196 Y92.575 E18.1481
G1 X101.084 Y92.409 E18.19016
G1 X102.223 Y92.313 E18.24339
G1 X102.83 Y92.3 E18.27166
G1 X131.793 Y92.3 E19.6203
G1 X132.637 Y92.311 E19.6596
G1 X133.539 Y92.364 E19.70167
G1 X134.432 Y92.496 E19.74371
G1 X135.31 Y92.707 E19.78575
G1 X136.166 Y92.995 E19.82781
G1 X136.993 Y93.357 E19.86985
G1 X137.785 Y93.792 E19.91192
G1 X138.536 Y94.294 E19.95398
G1 X139.239 Y94.861 E19.99604
G1 X139.889 Y95.488 E20.03809
G1 X140.481 Y96.17 E20.08014
G1 X141.011 Y96.901 E20.12219
G1 X141.473 Y97.677 E20.16424
G1 X141.866 Y98.49 E20.20629
G1 X142.184 Y99.335 E20.24833
G1 X142.427 Y100.205 E20.29039
G1 X142.592 Y101.093 E20.33245
G1 X142.687 Y102.223 E20.38525
G1 X142.7 Y102.83 E20.41352
G1 X142.699 Y131.89 E21.76668
G1 X142.69 Y132.617 E21.80053
G1 X142.639 Y133.519 E21.8426
G1 X142.508 Y134.413 E21.88467
G1 X142.299 Y135.291 E21.9267
G1 X142.013 Y136.148 E21.96877
G1 X141.652 Y136.976 E22.01083
G1 X141.22 Y137.768 E22.05283
G1 X140.719 Y138.52 E22.09491
G1 X140.153 Y139.224 E22.13697
G1 X139.528 Y139.875 E22.17899
G1 X138.847 Y140.469 E22.22107
G1 X138.116 Y141 E22.26314
G1 X137.342 Y141.464 E22.30516
G1 X136.529 Y141.858 E22.34723
G1 X135.685 Y142.178 E22.38926
G1 X134.815 Y142.423 E22.43135
G1 X133.928 Y142.589 E22.47337
G1 X132.777 Y142.687 E22.52716
G1 X132.17 Y142.7 E22.55543
G1 X103.075 Y142.699 E23.91021
G1 X102.377 Y142.69 E23.94272
G1 X101.476 Y142.639 E23.98474
G1 X100.582 Y142.507 E24.02682
G1 X99.704 Y142.298 E24.06885
G1 X98.847 Y142.011 E24.11093
G1 X98.02 Y141.65 E24.15295
G1 X97.227 Y141.217 E24.19502
G1 X96.476 Y140.716 E24.23706
G1 X95.772 Y140.15 E24.27912
G1 X95.121 Y139.524 E24.32117
G1 X94.528 Y138.843 E24.36322
G1 X93.998 Y138.112 E24.40526
G1 X93.534 Y137.337 E24.44732
G1 X93.14 Y136.524 E24.48939
G1 X92.82 Y135.68 E24.53142
G1 X92.576 Y134.81 E24.5735
G1 X92.41 Y133.922 E24.61556
G1 X92.313 Y132.767 E24.66953
G1 X92.3 Y132.158 E24.6979
G1 X92.301 Y103.036 E26.05394
G1 F1500 E19.55394
;MESH:3cmcube.stl
G0 F6000 X101.835 Y103.036
G0 X103.1 Y131.9
;TYPE:WALL-INNER
G1 F1500 E26.05394
G1 F1200 X131.9 Y131.9 E27.39499
G1 X131.9 Y103.1 E28.73604
G1 X103.1 Y103.1 E30.07708
G1 X103.1 Y131.9 E31.41813
G0 F6000 X102.7 Y132.3
;TYPE:WALL-OUTER
G1 F1200 X132.3 Y132.3 E32.79643
G1 X132.3 Y102.7 E34.17473
G1 X102.7 Y102.7 E35.55303
G1 X102.7 Y132.3 E36.93133
G0 F6000 X102.97 Y132.03
G0 X103.2 Y131.54
G0 X103.46 Y131.54
;TYPE:SKIN
G1 F1200 X131.54 Y131.54 E38.23885
G1 X131.54 Y103.46 E39.54638
G1 X103.46 Y103.46 E40.8539
G1 X103.46 Y131.54 E42.16142
G0 F6000 X104.186 Y131.339
G1 F1200 X103.659 Y130.812 E42.19613
G0 F6000 X103.659 Y130.246
G1 F1200 X104.752 Y131.339 E42.2681
G0 F6000 X105.317 Y131.339
G1 F1200 X103.659 Y129.681 E42.37728
G0 F6000 X103.659 Y129.115
G1 F1200 X105.883 Y131.339 E42.52374
G0 F6000 X106.449 Y131.339
G1 F1200 X103.659 Y128.549 E42.70746
G0 F6000 X103.659 Y127.984
G1 F1200 X107.014 Y131.339 E42.9284
G0 F6000 X107.58 Y131.339
G1 F1200 X103.659 Y127.418 E43.1866
G0 F6000 X103.659 Y126.852
G1 F1200 X108.146 Y131.339 E43.48208
G0 F6000 X108.712 Y131.339
G1 F1200 X103.659 Y126.287 E43.81479
G0 F6000 X103.659 Y125.721
G1 F1200 X109.277 Y131.339 E44.18475
G0 F6000 X109.843 Y131.339
G1 F1200 X103.659 Y125.155 E44.59198
G0 F6000 X103.659 Y124.59
G1 F1200 X110.409 Y131.339 E45.03644
G0 F6000 X110.974 Y131.339
G1 F1200 X103.659 Y124.024 E45.51815
G0 F6000 X103.659 Y123.458
G1 F1200 X111.54 Y131.339 E46.03712
G0 F6000 X112.106 Y131.339
G1 F1200 X103.659 Y122.893 E46.59334
G0 F6000 X103.659 Y122.327
G1 F1200 X112.671 Y131.339 E47.1868
G0 F6000 X113.237 Y131.339
G1 F1200 X103.659 Y121.761 E47.81752
G0 F6000 X103.659 Y121.195
G1 F1200 X113.803 Y131.339 E48.48552
G0 F6000 X114.368 Y131.339
G1 F1200 X103.659 Y120.63 E49.19073
G0 F6000 X103.659 Y120.064
G1 F1200 X114.934 Y131.339 E49.93321
G0 F6000 X115.5 Y131.339
G1 F1200 X103.659 Y119.498 E50.71296
G0 F6000 X103.659 Y118.933
G1 F1200 X116.065 Y131.339 E51.52991
G0 F6000 X116.631 Y131.339
G1 F1200 X103.659 Y118.367 E52.38414
G0 F6000 X103.659 Y117.801
G1 F1200 X117.197 Y131.339 E53.27564
G0 F6000 X117.762 Y131.339
G1 F1200 X103.659 Y117.236 E54.20435
G0 F6000 X103.659 Y116.67
G1 F1200 X118.328 Y131.339 E55.17033
G0 F6000 X118.894 Y131.339
G1 F1200 X103.659 Y116.104 E56.17358
G0 F6000 X103.659 Y115.539
G1 F1200 X119.46 Y131.339 E57.21407
G0 F6000 X120.025 Y131.339
G1 F1200 X103.659 Y114.973 E58.2918
G0 F6000 X103.659 Y114.407
G1 F1200 X120.591 Y131.339 E59.4068
G0 F6000 X121.157 Y131.339
G1 F1200 X103.659 Y113.842 E60.55904
G0 F6000 X103.659 Y113.276
G1 F1200 X121.722 Y131.339 E61.74852
G0 F6000 X122.288 Y131.339
G1 F1200 X103.659 Y112.71 E62.97527
G0 F6000 X103.659 Y112.145
G1 F1200 X122.854 Y131.339 E64.23926
G0 F6000 X123.419 Y131.339
G1 F1200 X103.659 Y111.579 E65.54049
G0 F6000 X103.659 Y111.013
G1 F1200 X123.985 Y131.339 E66.87899
G0 F6000 X124.551 Y131.339
G1 F1200 X103.659 Y110.447 E68.25477
G0 F6000 X103.659 Y109.882
G1 F1200 X125.116 Y131.339 E69.66775
G0 F6000 X125.682 Y131.339
G1 F1200 X103.659 Y109.316 E71.118
G0 F6000 X103.659 Y108.75
G1 F1200 X126.248 Y131.339 E72.60552
G0 F6000 X126.813 Y131.339
G1 F1200 X103.659 Y108.185 E74.13025
G0 F6000 X103.659 Y107.619
G1 F1200 X127.379 Y131.339 E75.69226
G0 F6000 X127.945 Y131.339
G1 F1200 X103.659 Y107.053 E77.29153
G0 F6000 X103.659 Y106.488
G1 F1200 X128.511 Y131.339 E78.92804
G0 F6000 X129.076 Y131.339
G1 F1200 X103.659 Y105.922 E80.6018
G0 F6000 X103.659 Y105.356
G1 F1200 X129.642 Y131.339 E82.31282
G0 F6000 X130.208 Y131.339
G1 F1200 X103.659 Y104.791 E84.06109
G0 F6000 X103.659 Y104.225
G1 F1200 X130.773 Y131.339 E85.84659
G0 F6000 X131.339 Y131.339
G1 F1200 X103.659 Y103.659 E87.66936
G0 F6000 X104.226 Y103.66
G1 F1200 X131.339 Y130.773 E89.4548
G0 F6000 X131.339 Y130.208
G1 F1200 X104.791 Y103.66 E91.20303
G0 F6000 X105.357 Y103.66
G1 F1200 X131.339 Y129.642 E92.91399
G0 F6000 X131.339 Y129.076
G1 F1200 X105.923 Y103.66 E94.58768
G0 F6000 X106.488 Y103.66
G1 F1200 X131.339 Y128.511 E96.22416
G0 F6000 X131.339 Y127.945
G1 F1200 X107.054 Y103.66 E97.82337
G0 F6000 X107.62 Y103.66
G1 F1200 X131.339 Y127.379 E99.3853
G0 F6000 X131.339 Y126.813
G1 F1200 X108.185 Y103.66 E100.91
G0 F6000 X108.751 Y103.66
G1 F1200 X131.339 Y126.248 E102.39746
G0 F6000 X131.339 Y125.682
G1 F1200 X109.317 Y103.66 E103.84765
G0 F6000 X109.882 Y103.66
G1 F1200 X131.339 Y125.116 E105.26059
G0 F6000 X131.339 Y124.551
G1 F1200 X110.448 Y103.66 E106.6363
G0 F6000 X111.014 Y103.66
G1 F1200 X131.339 Y123.985 E107.97474
G0 F6000 X131.339 Y123.419
G1 F1200 X111.58 Y103.66 E109.2759
G0 F6000 X112.145 Y103.66
G1 F1200 X131.339 Y122.854 E110.53986
G0 F6000 X131.339 Y122.288
G1 F1200 X112.711 Y103.66 E111.76655
G0 F6000 X113.277 Y103.66
G1 F1200 X131.339 Y121.722 E112.95596
G0 F6000 X131.339 Y121.157
G1 F1200 X113.842 Y103.66 E114.10817
G0 F6000 X114.408 Y103.66
G1 F1200 X131.339 Y120.591 E115.2231
G0 F6000 X131.339 Y120.025
G1 F1200 X114.974 Y103.66 E116.30076
G0 F6000 X115.539 Y103.66
G1 F1200 X131.339 Y119.46 E117.34122
G0 F6000 X131.339 Y118.894
G1 F1200 X116.105 Y103.66 E118.34441
G0 F6000 X116.671 Y103.66
G1 F1200 X131.339 Y118.328 E119.31032
G0 F6000 X131.339 Y117.762
G1 F1200 X117.236 Y103.66 E120.23899
G0 F6000 X117.802 Y103.66
G1 F1200 X131.339 Y117.197 E121.13043
G0 F6000 X131.339 Y116.631
G1 F1200 X118.368 Y103.66 E121.98459
G0 F6000 X118.933 Y103.66
G1 F1200 X131.339 Y116.065 E122.80151
G0 F6000 X131.339 Y115.5
G1 F1200 X119.499 Y103.66 E123.5812
G0 F6000 X120.065 Y103.66
G1 F1200 X131.339 Y114.934 E124.32361
G0 F6000 X131.339 Y114.368
G1 F1200 X120.631 Y103.66 E125.02875
G0 F6000 X121.196 Y103.66
G1 F1200 X131.339 Y113.803 E125.69668
G0 F6000 X131.339 Y113.237
G1 F1200 X121.762 Y103.66 E126.32735
G0 F6000 X122.328 Y103.66
G1 F1200 X131.339 Y112.671 E126.92074
G0 F6000 X131.339 Y112.106
G1 F1200 X122.893 Y103.66 E127.47692
G0 F6000 X123.459 Y103.66
G1 F1200 X131.339 Y111.54 E127.99583
G0 F6000 X131.339 Y110.974
G1 F1200 X124.025 Y103.66 E128.47747
G0 F6000 X124.59 Y103.66
G1 F1200 X131.339 Y110.409 E128.9219
G0 F6000 X131.339 Y109.843
G1 F1200 X125.156 Y103.66 E129.32906
G0 F6000 X125.722 Y103.66
G1 F1200 X131.339 Y109.277 E129.69895
G0 F6000 X131.339 Y108.712
G1 F1200 X126.287 Y103.66 E130.03164
G0 F6000 X126.853 Y103.66
G1 F1200 X131.339 Y108.146 E130.32705
G0 F6000 X131.339 Y107.58
G1 F1200 X127.419 Y103.66 E130.58519
G0 F6000 X127.984 Y103.66
G1 F1200 X131.339 Y107.014 E130.80609
G0 F6000 X131.339 Y106.449
G1 F1200 X128.55 Y103.66 E130.98975
G0 F6000 X129.116 Y103.66
G1 F1200 X131.339 Y105.883 E131.13613
G0 F6000 X131.339 Y105.317
G1 F1200 X129.681 Y103.66 E131.24528
G0 F6000 X130.247 Y103.66
G1 F1200 X131.339 Y104.752 E131.31719
G0 F6000 X131.339 Y104.186
M104 S200
G1 F1200 X130.813 Y103.66 E131.35183
G1 F1500 E124.85183
;MESH:NONMESH
G0 F300 X130.813 Y103.66 Z0.56
G0 F6000 X130.813 Y103.2
G0 X103.272 Y103.272
G0 X103.1 Y131.9
;TIME_ELAPSED:155.749421
;LAYER:1
M106 S85
;TYPE:WALL-INNER
;MESH:3cmcube.stl
G1 F1500 E131.35183
G1 F1350 X131.9 Y131.9 E132.69288
G1 X131.9 Y103.1 E134.03393
G1 X103.1 Y103.1 E135.37498
G1 X103.1 Y131.9 E136.71603
G0 F7500 X102.7 Y132.3
;TYPE:WALL-OUTER
G1 F1350 X132.3 Y132.3 E138.09433
G1 X132.3 Y102.7 E139.47263
G1 X102.7 Y102.7 E140.85093
G1 X102.7 Y132.3 E142.22923
G0 F7500 X102.97 Y132.03
G0 X103.2 Y131.54
G0 X103.46 Y131.54
;TYPE:SKIN
G1 F1350 X131.54 Y131.54 E143.53675
G1 X131.54 Y103.46 E144.84427
G1 X103.46 Y103.46 E146.15179
G1 X103.46 Y131.54 E147.45932
G0 F7500 X103.2 Y131.54
G0 X103.272 Y103.272
G0 X103.946 Y103.2
G0 X103.946 Y103.659
G1 F1350 X103.66 Y103.946 E147.47818
G0 F7500 X103.66 Y104.511
G1 F1350 X104.512 Y103.659 E147.53429
