;FLAVOR:Marlin
;TIME:4080
;Filament used: 3.66104m
;Layer height: 0.2
;MINX:91.5
;MINY:91.5
;MINZ:0.2
;MAXX:143.5
;MAXY:143.5
;MAXZ:30
;Generated with Cura_SteamEngine main
M82 ;absolute extrusion mode
; Ender 3 Custom Start G-code
G92 E0 ; Reset Extruder
G28 ; Home all axes
M104 S175 ; Start heating up the nozzle most of the way
M190 S60 ; Start heating the bed, wait until target temperature reached
M109 S200 ; Finish heating the nozzle
G1 Z2.0 F3000 ; Move Z Axis up little to prevent scratching of Heat Bed
G1 X0.1 Y20 Z0.3 F5000.0 ; Move to start position
G1 X0.1 Y200.0 Z0.3 F1500.0 E15 ; Draw the first line
G1 X0.4 Y200.0 Z0.3 F5000.0 ; Move to side a little
G1 X0.4 Y20 Z0.3 F1500.0 E30 ; Draw the second line
G92 E0 ; Reset Extruder
G1 Z2.0 F3000 ; Move Z Axis up little to prevent scratching of Heat Bed
G1 X5 Y20 Z0.3 F5000.0 ; Move over to prevent blob squish
G92 E0
G92 E0
G1 F1500 E-6.5
;LAYER_COUNT:150
;LAYER:0
M107
G0 F6000 X94.698 Y94.764 Z0.2
G0 X91.501 Y103.025
;TYPE:SKIRT
G1 F1500 E0
G1 F1200 X91.51 Y102.36 E0.02212
G1 X91.563 Y101.424 E0.0533
G1 X91.695 Y100.495 E0.08451
G1 X91.906 Y99.581 E0.11571
G1 X92.194 Y98.689 E0.14689
G1 X92.557 Y97.824 E0.17809
G1 X92.992 Y96.993 E0.20928
G1 X93.496 Y96.203 E0.24045
G1 X94.066 Y95.458 E0.27165
G1 X94.698 Y94.764 E0.30287
G1 X95.386 Y94.127 E0.33405
G1 X96.126 Y93.551 E0.36524
G1 X96.912 Y93.039 E0.39644
G1 X97.739 Y92.597 E0.42763
G1 X98.601 Y92.227 E0.45883
G1 X99.491 Y91.931 E0.49003
G1 X100.403 Y91.713 E0.52122
G1 X101.33 Y91.572 E0.5524
G1 X102.201 Y91.513 E0.58144
G1 X102.83 Y91.5 E0.60236
G1 X131.951 Y91.501 E1.57093
G1 X132.649 Y91.511 E1.59415
G1 X133.585 Y91.565 E1.62533
G1 X134.513 Y91.697 E1.65651
G1 X135.427 Y91.909 E1.68772
G1 X136.319 Y92.198 E1.7189
G1 X137.184 Y92.561 E1.7501
G1 X138.014 Y92.997 E1.78129
G1 X138.805 Y93.502 E1.8125
G1 X139.549 Y94.073 E1.84369
G1 X140.242 Y94.705 E1.87489
G1 X140.879 Y95.393 E1.90607
G1 X141.454 Y96.134 E1.93727
G1 X141.965 Y96.92 E1.96845
G1 X142.407 Y97.748 E1.99967
G1 X142.776 Y98.61 E2.03085
G1 X143.071 Y99.5 E2.06204
G1 X143.289 Y100.412 E2.09323
G1 X143.429 Y101.34 E2.12444
G1 X143.487 Y102.201 E2.15314
G1 X143.5 Y102.83 E2.17407
G1 X143.499 Y131.9 E3.14094
G1 X143.49 Y132.627 E3.16512
G1 X143.439 Y133.564 E3.19633
G1 X143.307 Y134.492 E3.22751
G1 X143.098 Y135.406 E3.25869
G1 X142.811 Y136.299 E3.28989
G1 X142.449 Y137.165 E3.32111
G1 X142.015 Y137.996 E3.35229
G1 X141.511 Y138.787 E3.38349
G1 X140.942 Y139.532 E3.41467
G1 X140.311 Y140.227 E3.44589
G1 X139.624 Y140.865 E3.47707
G1 X138.885 Y141.442 E3.50826
G1 X138.099 Y141.954 E3.53946
G1 X137.273 Y142.397 E3.57063
G1 X136.411 Y142.769 E3.60186
G1 X135.522 Y143.065 E3.63302
G1 X134.61 Y143.285 E3.66422
G1 X133.683 Y143.426 E3.69541
G1 X132.799 Y143.487 E3.72488
G1 X132.17 Y143.5 E3.74581
G1 X103.065 Y143.499 E4.71384
G1 X102.367 Y143.49 E4.73706
G1 X101.431 Y143.438 E4.76824
G1 X100.502 Y143.306 E4.79945
G1 X99.588 Y143.096 E4.83064
G1 X98.695 Y142.809 E4.86184
G1 X97.83 Y142.446 E4.89304
G1 X96.999 Y142.012 E4.92422
G1 X96.208 Y141.508 E4.95542
G1 X95.463 Y140.938 E4.98662
G1 X94.769 Y140.307 E5.01781
G1 X94.132 Y139.62 E5.04897
G1 X93.555 Y138.88 E5.08018
G1 X93.043 Y138.094 E5.11138
G1 X92.6 Y137.267 E5.14259
G1 X92.229 Y136.406 E5.17377
G1 X91.933 Y135.516 E5.20497
G1 X91.714 Y134.604 E5.23616
G1 X91.573 Y133.677 E5.26735
G1 X91.513 Y132.788 E5.29698
G1 X91.5 Y132.158 E5.31794
G1 X91.501 Y103.025 E6.28691
G0 F6000 X91.901 Y103.031
G1 F1200 X91.91 Y102.366 E6.30903
G1 X91.962 Y101.446 E6.33968
G1 X92.094 Y100.535 E6.37029
G1 X92.305 Y99.639 E6.40091
G1 X92.592 Y98.764 E6.43154
G1 X92.955 Y97.918 E6.46216
G1 X93.389 Y97.106 E6.49278
G1 X93.892 Y96.335 E6.5234
G1 X94.461 Y95.611 E6.55403
G1 X95.089 Y94.939 E6.58462
G1 X95.774 Y94.323 E6.61526
G1 X96.51 Y93.77 E6.64588
G1 X97.291 Y93.282 E6.67651
G1 X98.111 Y92.864 E6.70712
G1 X98.965 Y92.519 E6.73775
G1 X99.845 Y92.249 E6.76837
G1 X100.745 Y92.057 E6.79898
G1 X101.659 Y91.943 E6.82961
G1 X102.212 Y91.913 E6.84803
G1 X102.83 Y91.9 E6.86859
G1 X131.793 Y91.9 E7.8319
G1 X132.643 Y91.911 E7.86018
G1 X133.562 Y91.964 E7.89079
G1 X134.473 Y92.097 E7.92142
G1 X135.369 Y92.308 E7.95203
G1 X136.243 Y92.596 E7.98264
G1 X137.09 Y92.959 E8.01329
G1 X137.901 Y93.394 E8.0439
G1 X138.671 Y93.898 E8.07451
G1 X139.395 Y94.467 E8.10513
G1 X140.067 Y95.097 E8.13577
G1 X140.682 Y95.782 E8.16639
G1 X141.235 Y96.518 E8.19701
G1 X141.722 Y97.299 E8.22762
G1 X142.139 Y98.12 E8.25825
G1 X142.484 Y98.974 E8.28888
G1 X142.753 Y99.854 E8.31949
G1 X142.945 Y100.755 E8.35013
G1 X143.058 Y101.668 E8.38073
G1 X143.087 Y102.212 E8.39885
G1 X143.1 Y102.83 E8.4194
G1 X143.099 Y131.895 E9.38611
G1 X143.09 Y132.622 E9.41029
G1 X143.039 Y133.541 E9.44091
G1 X142.908 Y134.453 E9.47155
G1 X142.698 Y135.349 E9.50216
G1 X142.412 Y136.224 E9.53278
G1 X142.051 Y137.071 E9.5634
G1 X141.617 Y137.883 E9.59402
G1 X141.115 Y138.655 E9.62465
G1 X140.547 Y139.38 E9.65528
G1 X139.919 Y140.053 E9.6859
G1 X139.235 Y140.669 E9.71652
G1 X138.5 Y141.223 E9.74713
G1 X137.72 Y141.712 E9.77775
G1 X136.9 Y142.131 E9.80838
G1 X136.047 Y142.477 E9.83899
G1 X135.167 Y142.748 E9.86962
G1 X134.267 Y142.941 E9.90023
G1 X133.353 Y143.056 E9.93087
G1 X132.788 Y143.087 E9.94969
G1 X132.17 Y143.1 E9.97025
G1 X103.07 Y143.099 E10.93812
G1 X102.372 Y143.09 E10.96134
G1 X101.453 Y143.038 E10.99195
G1 X100.542 Y142.907 E11.02256
G1 X99.646 Y142.697 E11.05317
G1 X98.771 Y142.41 E11.0838
G1 X97.924 Y142.048 E11.11444
G1 X97.112 Y141.614 E11.14506
G1 X96.341 Y141.112 E11.17566
G1 X95.616 Y140.544 E11.20629
G1 X94.943 Y139.915 E11.23693
G1 X94.328 Y139.231 E11.26753
G1 X93.774 Y138.496 E11.29814
G1 X93.286 Y137.715 E11.32877
G1 X92.867 Y136.895 E11.3594
G1 X92.521 Y136.042 E11.39001
G1 X92.251 Y135.162 E11.42063
G1 X92.058 Y134.261 E11.45127
G1 X91.944 Y133.348 E11.48188
G1 X91.913 Y132.777 E11.5009
G1 X91.9 Y132.158 E11.52149
G1 X91.901 Y103.031 E12.49026
G0 F6000 X92.301 Y103.036
G1 F1200 X92.31 Y102.371 E12.51238
G1 X92.362 Y101.469 E12.54243
G1 X92.494 Y100.576 E12.57245
G1 X92.704 Y99.698 E12.60248
G1 X92.991 Y98.841 E12.63254
G1 X93.353 Y98.014 E12.66256
G1 X93.786 Y97.222 E12.69258
G1 X94.288 Y96.471 E12.72263
G1 X94.855 Y95.767 E12.75269
G1 X95.481 Y95.117 E12.78271
G1 X96.162 Y94.524 E12.81274
G1 X96.894 Y93.994 E12.8428
G1 X97.669 Y93.531 E12.87283
G1 X98.482 Y93.138 E12.90286
G1 X99.327 Y92.818 E12.93291
G1 X100.196 Y92.575 E12.96293
G1 X101.084 Y92.409 E12.99297
G1 X102.223 Y92.313 E13.03099
G1 X102.83 Y92.3 E13.05118
G1 X131.793 Y92.3 E14.0145
G1 X132.637 Y92.311 E14.04257
G1 X133.539 Y92.364 E14.07262
G1 X134.432 Y92.496 E14.10265
G1 X135.31 Y92.707 E14.13268
G1 X136.166 Y92.995 E14.16272
G1 X136.993 Y93.357 E14.19275
G1 X137.785 Y93.792 E14.2228
G1 X138.536 Y94.294 E14.25285
G1 X139.239 Y94.861 E14.28288
G1 X139.889 Y95.488 E14.31292
G1 X140.481 Y96.17 E14.34296
G1 X141.011 Y96.901 E14.37299
G1 X141.473 Y97.677 E14.40303
G1 X141.866 Y98.49 E14.43306
G1 X142.184 Y99.335 E14.46309
G1 X142.427 Y100.205 E14.49314
G1 X142.592 Y101.093 E14.52318
G1 X142.687 Y102.223 E14.56089
G1 X142.7 Y102.83 E14.58109
G1 X142.699 Y131.89 E15.54763
G1 X142.69 Y132.617 E15.57181
G1 X142.639 Y133.519 E15.60186
G1 X142.508 Y134.413 E15.63191
G1 X142.299 Y135.291 E15.66193
G1 X142.013 Y136.148 E15.69198
G1 X141.652 Y136.976 E15.72202
G1 X141.22 Y137.768 E15.75202
G1 X140.719 Y138.52 E15.78208
G1 X140.153 Y139.224 E15.81212
G1 X139.528 Y139.875 E15.84214
G1 X138.847 Y140.469 E15.87219
G1 X138.116 Y141 E15.90225
G1 X137.342 Y141.464 E15.93226
G1 X136.529 Y141.858 E15.96231
G1 X135.685 Y142.178 E15.99233
G1 X134.815 Y142.423 E16.02239
G1 X133.928 Y142.589 E16.05241
G1 X132.777 Y142.687 E16.09083
G1 X132.17 Y142.7 E16.11102
G1 X103.075 Y142.699 E17.07872
G1 X102.377 Y142.69 E17.10194
G1 X101.476 Y142.639 E17.13196
G1 X100.582 Y142.507 E17.16201
G1 X99.704 Y142.298 E17.19203
G1 X98.847 Y142.011 E17.22209
G1 X98.02 Y141.65 E17.2521
G1 X97.227 Y141.217 E17.28216
G1 X96.476 Y140.716 E17.31218
G1 X95.772 Y140.15 E17.34223
G1 X95.121 Y139.524 E17.37227
G1 X94.528 Y138.843 E17.4023
G1 X93.998 Y138.112 E17.43233
G1 X93.534 Y137.337 E17.46237
G1 X93.14 Y136.524 E17.49242
G1 X92.82 Y135.68 E17.52244
G1 X92.576 Y134.81 E17.5525
G1 X92.41 Y133.922 E17.58254
G1 X92.313 Y132.767 E17.62109
G1 X92.3 Y132.158 E17.64135
G1 X92.301 Y103.036 E18.60996
G1 F1500 E12.10996
;MESH:3cmcube.stl
G0 F6000 X101.835 Y103.036
G0 X103.1 Y131.9
;TYPE:WALL-INNER
G1 F1500 E18.60996
G1 F1200 X131.9 Y131.9 E19.56785
G1 X131.9 Y103.1 E20.52574
G1 X103.1 Y103.1 E21.48363
G1 X103.1 Y131.9 E22.44152
G0 F6000 X102.7 Y132.3
;TYPE:WALL-OUTER
G1 F1200 X132.3 Y132.3 E23.42602
G1 X132.3 Y102.7 E24.41052
G1 X102.7 Y102.7 E25.39502
G1 X102.7 Y132.3 E26.37952
G0 F6000 X102.97 Y132.03
G0 X103.2 Y131.54
G0 X103.46 Y131.54
;TYPE:SKIN
G1 F1200 X131.54 Y131.54 E27.31347
G1 X131.54 Y103.46 E28.24741
G1 X103.46 Y103.46 E29.18136
G1 X103.46 Y131.54 E30.1153
G0 F6000 X104.186 Y131.339
G1 F1200 X103.659 Y130.812 E30.14009
G0 F6000 X103.659 Y130.246
G1 F1200 X104.752 Y131.339 E30.1915
G0 F6000 X105.317 Y131.339
G1 F1200 X103.659 Y129.681 E30.26949
G0 F6000 X103.659 Y129.115
G1 F1200 X105.883 Y131.339 E30.3741
G0 F6000 X106.449 Y131.339
G1 F1200 X103.659 Y128.549 E30.50533
G0 F6000 X103.659 Y127.984
G1 F1200 X107.014 Y131.339 E30.66314
G0 F6000 X107.58 Y131.339
G1 F1200 X103.659 Y127.418 E30.84757
G0 F6000 X103.659 Y126.852
G1 F1200 X108.146 Y131.339 E31.05863
G0 F6000 X108.712 Y131.339
G1 F1200 X103.659 Y126.287 E31.29628
G0 F6000 X103.659 Y125.721
G1 F1200 X109.277 Y131.339 E31.56053
G0 F6000 X109.843 Y131.339
G1 F1200 X103.659 Y125.155 E31.85141
G0 F6000 X103.659 Y124.59
G1 F1200 X110.409 Y131.339 E32.16889
G0 F6000 X110.974 Y131.339
G1 F1200 X103.659 Y124.024 E32.51296
G0 F6000 X103.659 Y123.458
G1 F1200 X111.54 Y131.339 E32.88366
G0 F6000 X112.106 Y131.339
G1 F1200 X103.659 Y122.893 E33.28096
G0 F6000 X103.659 Y122.327
G1 F1200 X112.671 Y131.339 E33.70485
G0 F6000 X113.237 Y131.339
G1 F1200 X103.659 Y121.761 E34.15537
G0 F6000 X103.659 Y121.195
G1 F1200 X113.803 Y131.339 E34.63252
G0 F6000 X114.368 Y131.339
G1 F1200 X103.659 Y120.63 E35.13624
G0 F6000 X103.659 Y120.064
G1 F1200 X114.934 Y131.339 E35.66658
G0 F6000 X115.5 Y131.339
G1 F1200 X103.659 Y119.498 E36.22354
G0 F6000 X103.659 Y118.933
G1 F1200 X116.065 Y131.339 E36.80708
G0 F6000 X116.631 Y131.339
G1 F1200 X103.659 Y118.367 E37.41724
G0 F6000 X103.659 Y117.801
G1 F1200 X117.197 Y131.339 E38.05403
G0 F6000 X117.762 Y131.339
G1 F1200 X103.659 Y117.236 E38.71739
G0 F6000 X103.659 Y116.67
G1 F1200 X118.328 Y131.339 E39.40738
G0 F6000 X118.894 Y131.339
G1 F1200 X103.659 Y116.104 E40.12398
G0 F6000 X103.659 Y115.539
G1 F1200 X119.46 Y131.339 E40.86719
G0 F6000 X120.025 Y131.339
G1 F1200 X103.659 Y114.973 E41.637
G0 F6000 X103.659 Y114.407
G1 F1200 X120.591 Y131.339 E42.43343
G0 F6000 X121.157 Y131.339
G1 F1200 X103.659 Y113.842 E43.25646
G0 F6000 X103.659 Y113.276
G1 F1200 X121.722 Y131.339 E44.10608
G0 F6000 X122.288 Y131.339
G1 F1200 X103.659 Y112.71 E44.98234
G0 F6000 X103.659 Y112.145
G1 F1200 X122.854 Y131.339 E45.88519
G0 F6000 X123.419 Y131.339
G1 F1200 X103.659 Y111.579 E46.81464
G0 F6000 X103.659 Y111.013
G1 F1200 X123.985 Y131.339 E47.77071
G0 F6000 X124.551 Y131.339
G1 F1200 X103.659 Y110.447 E48.7534
G0 F6000 X103.659 Y109.882
G1 F1200 X125.116 Y131.339 E49.76268
G0 F6000 X125.682 Y131.339
G1 F1200 X103.659 Y109.316 E50.79857
G0 F6000 X103.659 Y108.75
G1 F1200 X126.248 Y131.339 E51.86109
G0 F6000 X126.813 Y131.339
G1 F1200 X103.659 Y108.185 E52.95018
G0 F6000 X103.659 Y107.619
G1 F1200 X127.379 Y131.339 E54.0659
G0 F6000 X127.945 Y131.339
G1 F1200 X103.659 Y107.053 E55.20824
G0 F6000 X103.659 Y106.488
G1 F1200 X128.511 Y131.339 E56.37717
G0 F6000 X129.076 Y131.339
G1 F1200 X103.659 Y105.922 E57.57271
G0 F6000 X103.659 Y105.356
G1 F1200 X129.642 Y131.339 E58.79487
G0 F6000 X130.208 Y131.339
G1 F1200 X103.659 Y104.791 E60.04363
G0 F6000 X103.659 Y104.225
G1 F1200 X130.773 Y131.339 E61.31899
G0 F6000 X131.339 Y131.339
G1 F1200 X103.659 Y103.659 E62.62097
G0 F6000 X104.226 Y103.66
G1 F1200 X131.339 Y130.773 E63.89629
G0 F6000 X131.339 Y130.208
G1 F1200 X104.791 Y103.66 E65.14502
G0 F6000 X105.357 Y103.66
G1 F1200 X131.339 Y129.642 E66.36714
G0 F6000 X131.339 Y129.076
G1 F1200 X105.923 Y103.66 E67.56263
G0 F6000 X106.488 Y103.66
G1 F1200 X131.339 Y128.511 E68.73154
G0 F6000 X131.339 Y127.945
G1 F1200 X107.054 Y103.66 E69.87383
G0 F6000 X107.62 Y103.66
G1 F1200 X131.339 Y127.379 E70.9895
G0 F6000 X131.339 Y126.813
G1 F1200 X108.185 Y103.66 E72.07857
G0 F6000 X108.751 Y103.66
G1 F1200 X131.339 Y126.248 E73.14104
G0 F6000 X131.339 Y125.682
G1 F1200 X109.317 Y103.66 E74.17689
G0 F6000 X109.882 Y103.66
G1 F1200 X131.339 Y125.116 E75.18614
G0 F6000 X131.339 Y124.551
G1 F1200 X110.448 Y103.66 E76.16879
G0 F6000 X111.014 Y103.66
G1 F1200 X131.339 Y123.985 E77.12481
G0 F6000 X131.339 Y123.419
G1 F1200 X111.58 Y103.66 E78.05422
G0 F6000 X112.145 Y103.66
G1 F1200 X131.339 Y122.854 E78.95704
G0 F6000 X131.339 Y122.288
G1 F1200 X112.711 Y103.66 E79.83325
G0 F6000 X113.277 Y103.66
G1 F1200 X131.339 Y121.722 E80.68283
G0 F6000 X131.339 Y121.157
G1 F1200 X113.842 Y103.66 E81.50583
G0 F6000 X114.408 Y103.66
G1 F1200 X131.339 Y120.591 E82.30222
G0 F6000 X131.339 Y120.025
G1 F1200 X114.974 Y103.66 E83.07197
G0 F6000 X115.539 Y103.66
G1 F1200 X131.339 Y119.46 E83.81516
G0 F6000 X131.339 Y118.894
G1 F1200 X116.105 Y103.66 E84.53172
G0 F6000 X116.671 Y103.66
G1 F1200 X131.339 Y118.328 E85.22166
G0 F6000 X131.339 Y117.762
G1 F1200 X117.236 Y103.66 E85.885
G0 F6000 X117.802 Y103.66
G1 F1200 X131.339 Y117.197 E86.52173
G0 F6000 X131.339 Y116.631
G1 F1200 X118.368 Y103.66 E87.13185
G0 F6000 X118.933 Y103.66
G1 F1200 X131.339 Y116.065 E87.71537
G0 F6000 X131.339 Y115.5
G1 F1200 X119.499 Y103.66 E88.27228
G0 F6000 X120.065 Y103.66
G1 F1200 X131.339 Y114.934 E88.80258
G0 F6000 X131.339 Y114.368
G1 F1200 X120.631 Y103.66 E89.30625
G0 F6000 X121.196 Y103.66
G1 F1200 X131.339 Y113.803 E89.78335
G0 F6000 X131.339 Y113.237
G1 F1200 X121.762 Y103.66 E90.23382
G0 F6000 X122.328 Y103.66
G1 F1200 X131.339 Y112.671 E90.65767
G0 F6000 X131.339 Y112.106
G1 F1200 X122.893 Y103.66 E91.05494
G0 F6000 X123.459 Y103.66
G1 F1200 X131.339 Y111.54 E91.42559
G0 F6000 X131.339 Y110.974
G1 F1200 X124.025 Y103.66 E91.76962
G0 F6000 X124.59 Y103.66
G1 F1200 X131.339 Y110.409 E92.08707
G0 F6000 X131.339 Y109.843
G1 F1200 X125.156 Y103.66 E92.3779
G0 F6000 X125.722 Y103.66
G1 F1200 X131.339 Y109.277 E92.64211
G0 F6000 X131.339 Y108.712
G1 F1200 X126.287 Y103.66 E92.87974
G0 F6000 X126.853 Y103.66
G1 F1200 X131.339 Y108.146 E93.09075
G0 F6000 X131.339 Y107.58
G1 F1200 X127.419 Y103.66 E93.27513
G0 F6000 X127.984 Y103.66
G1 F1200 X131.339 Y107.014 E93.43292
G0 F6000 X131.339 Y106.449
G1 F1200 X128.55 Y103.66 E93.5641
G0 F6000 X129.116 Y103.66
G1 F1200 X131.339 Y105.883 E93.66867
G0 F6000 X131.339 Y105.317
G1 F1200 X129.681 Y103.66 E93.74663
G0 F6000 X130.247 Y103.66
G1 F1200 X131.339 Y104.752 E93.798
G0 F6000 X131.339 Y104.186
M104 S200
G1 F1200 X130.813 Y103.66 E93.82274
G1 F1500 E87.32274
;MESH:NONMESH
G0 F300 X130.813 Y103.66 Z0.4
G0 F6000 X130.813 Y103.2
G0 X103.272 Y103.272
G0 X103.1 Y131.9
;TIME_ELAPSED:155.740920
;LAYER:1
M106 S85
;TYPE:WALL-INNER
;MESH:3cmcube.stl
G1 F1500 E93.82274
G1 F1350 X131.9 Y131.9 E94.78063
G1 X131.9 Y103.1 E95.73852
G1 X103.1 Y103.1 E96.69641
G1 X103.1 Y131.9 E97.6543
G0 F7500 X102.7 Y132.3
;TYPE:WALL-OUTER
G1 F1350 X132.3 Y132.3 E98.6388
G1 X132.3 Y102.7 E99.6233
G1 X102.7 Y102.7 E100.6078
G1 X102.7 Y132.3 E101.5923
G0 F7500 X102.97 Y132.03
G0 X103.2 Y131.54
G0 X103.46 Y131.54
;TYPE:SKIN
G1 F1350 X131.54 Y131.54 E102.52625
G1 X131.54 Y103.46 E103.46019
G1 X103.46 Y103.46 E104.39414
G1 X103.46 Y131.54 E105.32808
G0 F7500 X103.2 Y131.54
G0 X103.272 Y103.272
G0 X103.946 Y103.2
G0 X103.946 Y103.659
G1 F1350 X103.66 Y103.946 E105.34156
G0 F7500 X103.66 Y104.511
G1 F1350 X104.512 Y103.659 E105.38163
G0 F7500 X105.078 Y103.659
G1 F1350 X103.66 Y105.077 E105.44833
G0 F7500 X103.66 Y105.643
