;FLAVOR:Marlin
;TIME:7651
;Filament used: 4.09569m
;Layer height: 0.12
;MINX:91.5
;MINY:91.5
;MINZ:0.12
;MAXX:143.5
;MAXY:143.5
;MAXZ:30
;Generated with Cura_SteamEngine main
M82 ;absolute extrusion mode
; Ender 3 Custom Start G-code
G92 E0 ; Reset Extruder
G28 ; Home all axes
M104 S175 ; Start heating up the nozzle most of the way
M190 S60 ; Start heating the bed, wait until target temperature reached
M109 S200 ; Finish heating the nozzle
G1 Z2.0 F3000 ; Move Z Axis up little to prevent scratching of Heat Bed
G1 X0.1 Y20 Z0.3 F5000.0 ; Move to start position
G1 X0.1 Y200.0 Z0.3 F1500.0 E15 ; Draw the first line
G1 X0.4 Y200.0 Z0.3 F5000.0 ; Move to side a little
G1 X0.4 Y20 Z0.3 F1500.0 E30 ; Draw the second line
G92 E0 ; Reset Extruder
G1 Z2.0 F3000 ; Move Z Axis up little to prevent scratching of Heat Bed
G1 X5 Y20 Z0.3 F5000.0 ; Move over to prevent blob squish
G92 E0
G92 E0
G1 F1500 E-6.5
;LAYER_COUNT:250
;LAYER:0
M107
G0 F6000 X94.698 Y94.764 Z0.12
G0 X91.501 Y103.025
;TYPE:SKIRT
G1 F1500 E0
G1 F1200 X91.51 Y102.36 E0.01327
G1 X91.563 Y101.424 E0.03198
G1 X91.695 Y100.495 E0.05071
G1 X91.906 Y99.581 E0.06943
G1 X92.194 Y98.689 E0.08813
G1 X92.557 Y97.824 E0.10685
G1 X92.992 Y96.993 E0.12557
G1 X93.496 Y96.203 E0.14427
G1 X94.066 Y95.458 E0.16299
G1 X94.698 Y94.764 E0.18172
G1 X95.386 Y94.127 E0.20043
G1 X96.126 Y93.551 E0.21915
G1 X96.912 Y93.039 E0.23787
G1 X97.739 Y92.597 E0.25658
G1 X98.601 Y92.227 E0.2753
G1 X99.491 Y91.931 E0.29402
G1 X100.403 Y91.713 E0.31273
G1 X101.33 Y91.572 E0.33144
G1 X102.201 Y91.513 E0.34886
G1 X102.83 Y91.5 E0.36142
G1 X131.951 Y91.501 E0.94256
G1 X132.649 Y91.511 E0.95649
G1 X133.585 Y91.565 E0.9752
G1 X134.513 Y91.697 E0.99391
G1 X135.427 Y91.909 E1.01263
G1 X136.319 Y92.198 E1.03134
G1 X137.184 Y92.561 E1.05006
G1 X138.014 Y92.997 E1.06877
G1 X138.805 Y93.502 E1.0875
G1 X139.549 Y94.073 E1.10622
G1 X140.242 Y94.705 E1.12493
G1 X140.879 Y95.393 E1.14364
G1 X141.454 Y96.134 E1.16236
G1 X141.965 Y96.92 E1.18107
G1 X142.407 Y97.748 E1.1998
G1 X142.776 Y98.61 E1.21851
G1 X143.071 Y99.5 E1.23722
G1 X143.289 Y100.412 E1.25594
G1 X143.429 Y101.34 E1.27467
G1 X143.487 Y102.201 E1.29189
G1 X143.5 Y102.83 E1.30444
G1 X143.499 Y131.9 E1.88456
G1 X143.49 Y132.627 E1.89907
G1 X143.439 Y133.564 E1.9178
G1 X143.307 Y134.492 E1.93651
G1 X143.098 Y135.406 E1.95522
G1 X142.811 Y136.299 E1.97394
G1 X142.449 Y137.165 E1.99267
G1 X142.015 Y137.996 E2.01138
G1 X141.511 Y138.787 E2.03009
G1 X140.942 Y139.532 E2.0488
G1 X140.311 Y140.227 E2.06753
G1 X139.624 Y140.865 E2.08624
G1 X138.885 Y141.442 E2.10495
G1 X138.099 Y141.954 E2.12367
G1 X137.273 Y142.397 E2.14238
G1 X136.411 Y142.769 E2.16111
G1 X135.522 Y143.065 E2.17981
G1 X134.61 Y143.285 E2.19853
G1 X133.683 Y143.426 E2.21725
G1 X132.799 Y143.487 E2.23493
G1 X132.17 Y143.5 E2.24748
G1 X103.065 Y143.499 E2.82831
G1 X102.367 Y143.49 E2.84224
G1 X101.431 Y143.438 E2.86094
G1 X100.502 Y143.306 E2.87967
G1 X99.588 Y143.096 E2.89838
G1 X98.695 Y142.809 E2.9171
G1 X97.83 Y142.446 E2.93582
G1 X96.999 Y142.012 E2.95453
G1 X96.208 Y141.508 E2.97325
G1 X95.463 Y140.938 E2.99197
G1 X94.769 Y140.307 E3.01069
G1 X94.132 Y139.62 E3.02938
G1 X93.555 Y138.88 E3.04811
G1 X93.043 Y138.094 E3.06683
G1 X92.6 Y137.267 E3.08555
G1 X92.229 Y136.406 E3.10426
G1 X91.933 Y135.516 E3.12298
G1 X91.714 Y134.604 E3.1417
G1 X91.573 Y133.677 E3.16041
G1 X91.513 Y132.788 E3.17819
G1 X91.5 Y132.158 E3.19076
G1 X91.501 Y103.025 E3.77215
G0 F6000 X91.901 Y103.031
G1 F1200 X91.91 Y102.366 E3.78542
G1 X91.962 Y101.446 E3.80381
G1 X92.094 Y100.535 E3.82218
G1 X92.305 Y99.639 E3.84055
G1 X92.592 Y98.764 E3.85892
G1 X92.955 Y97.918 E3.87729
G1 X93.389 Y97.106 E3.89567
G1 X93.892 Y96.335 E3.91404
G1 X94.461 Y95.611 E3.93242
G1 X95.089 Y94.939 E3.95077
G1 X95.774 Y94.323 E3.96915
G1 X96.51 Y93.77 E3.98753
G1 X97.291 Y93.282 E4.0059
G1 X98.111 Y92.864 E4.02427
G1 X98.965 Y92.519 E4.04265
G1 X99.845 Y92.249 E4.06102
G1 X100.745 Y92.057 E4.07939
G1 X101.659 Y91.943 E4.09777
G1 X102.212 Y91.913 E4.10882
G1 X102.83 Y91.9 E4.12115
G1 X131.793 Y91.9 E4.69914
G1 X132.643 Y91.911 E4.71611
G1 X133.562 Y91.964 E4.73448
G1 X134.473 Y92.097 E4.75285
G1 X135.369 Y92.308 E4.77122
G1 X136.243 Y92.596 E4.78958
G1 X137.09 Y92.959 E4.80797
G1 X137.901 Y93.394 E4.82634
G1 X138.671 Y93.898 E4.8447
G1 X139.395 Y94.467 E4.86308
G1 X140.067 Y95.097 E4.88146
G1 X140.682 Y95.782 E4.89983
G1 X141.235 Y96.518 E4.9182
G1 X141.722 Y97.299 E4.93657
G1 X142.139 Y98.12 E4.95495
G1 X142.484 Y98.974 E4.97333
G1 X142.753 Y99.854 E4.99169
G1 X142.945 Y100.755 E5.01008
G1 X143.058 Y101.668 E5.02844
G1 X143.087 Y102.212 E5.03931
G1 X143.1 Y102.83 E5.05164
G1 X143.099 Y131.895 E5.63167
G1 X143.09 Y132.622 E5.64618
G1 X143.039 Y133.541 E5.66454
G1 X142.908 Y134.453 E5.68293
G1 X142.698 Y135.349 E5.7013
G1 X142.412 Y136.224 E5.71967
G1 X142.051 Y137.071 E5.73804
G1 X141.617 Y137.883 E5.75641
G1 X141.115 Y138.655 E5.77479
G1 X140.547 Y139.38 E5.79317
G1 X139.919 Y140.053 E5.81154
G1 X139.235 Y140.669 E5.82991
G1 X138.5 Y141.223 E5.84828
G1 X137.72 Y141.712 E5.86665
G1 X136.9 Y142.131 E5.88503
G1 X136.047 Y142.477 E5.90339
G1 X135.167 Y142.748 E5.92177
G1 X134.267 Y142.941 E5.94014
G1 X133.353 Y143.056 E5.95852
G1 X132.788 Y143.087 E5.96981
G1 X132.17 Y143.1 E5.98215
G1 X103.07 Y143.099 E6.56287
G1 X102.372 Y143.09 E6.5768
G1 X101.453 Y143.038 E6.59517
G1 X100.542 Y142.907 E6.61354
G1 X99.646 Y142.697 E6.6319
G1 X98.771 Y142.41 E6.65028
G1 X97.924 Y142.048 E6.66866
G1 X97.112 Y141.614 E6.68704
G1 X96.341 Y141.112 E6.7054
G1 X95.616 Y140.544 E6.72378
G1 X94.943 Y139.915 E6.74216
G1 X94.328 Y139.231 E6.76052
G1 X93.774 Y138.496 E6.77888
G1 X93.286 Y137.715 E6.79726
G1 X92.867 Y136.895 E6.81564
G1 X92.521 Y136.042 E6.83401
G1 X92.251 Y135.162 E6.85238
G1 X92.058 Y134.261 E6.87076
G1 X91.944 Y133.348 E6.88913
G1 X91.913 Y132.777 E6.90054
G1 X91.9 Y132.158 E6.91289
G1 X91.901 Y103.031 E7.49415
G0 F6000 X92.301 Y103.036
G1 F1200 X92.31 Y102.371 E7.50743
G1 X92.362 Y101.469 E7.52546
G1 X92.494 Y100.576 E7.54347
G1 X92.704 Y99.698 E7.56149
G1 X92.991 Y98.841 E7.57952
G1 X93.353 Y98.014 E7.59754
G1 X93.786 Y97.222 E7.61555
G1 X94.288 Y96.471 E7.63358
G1 X94.855 Y95.767 E7.65162
G1 X95.481 Y95.117 E7.66963
G1 X96.162 Y94.524 E7.68765
G1 X96.894 Y93.994 E7.70568
G1 X97.669 Y93.531 E7.7237
G1 X98.482 Y93.138 E7.74172
G1 X99.327 Y92.818 E7.75975
G1 X100.196 Y92.575 E7.77776
G1 X101.084 Y92.409 E7.79578
G1 X102.223 Y92.313 E7.81859
G1 X102.83 Y92.3 E7.83071
G1 X131.793 Y92.3 E8.4087
G1 X132.637 Y92.311 E8.42554
G1 X133.539 Y92.364 E8.44357
G1 X134.432 Y92.496 E8.46159
G1 X135.31 Y92.707 E8.47961
G1 X136.166 Y92.995 E8.49763
G1 X136.993 Y93.357 E8.51565
G1 X137.785 Y93.792 E8.53368
G1 X138.536 Y94.294 E8.55171
G1 X139.239 Y94.861 E8.56973
G1 X139.889 Y95.488 E8.58775
G1 X140.481 Y96.17 E8.60578
G1 X141.011 Y96.901 E8.62379
G1 X141.473 Y97.677 E8.64182
G1 X141.866 Y98.49 E8.65984
G1 X142.184 Y99.335 E8.67786
G1 X142.427 Y100.205 E8.69588
G1 X142.592 Y101.093 E8.71391
G1 X142.687 Y102.223 E8.73654
G1 X142.7 Y102.83 E8.74865
G1 X142.699 Y131.89 E9.32858
G1 X142.69 Y132.617 E9.34308
G1 X142.639 Y133.519 E9.36111
G1 X142.508 Y134.413 E9.37914
G1 X142.299 Y135.291 E9.39716
G1 X142.013 Y136.148 E9.41519
G1 X141.652 Y136.976 E9.43321
G1 X141.22 Y137.768 E9.45121
G1 X140.719 Y138.52 E9.46925
G1 X140.153 Y139.224 E9.48727
G1 X139.528 Y139.875 E9.50528
G1 X138.847 Y140.469 E9.52332
G1 X138.116 Y141 E9.54135
G1 X137.342 Y141.464 E9.55936
G1 X136.529 Y141.858 E9.57739
G1 X135.685 Y142.178 E9.5954
G1 X134.815 Y142.423 E9.61344
G1 X133.928 Y142.589 E9.63144
G1 X132.777 Y142.687 E9.6545
G1 X132.17 Y142.7 E9.66661
G1 X103.075 Y142.699 E10.24723
G1 X102.377 Y142.69 E10.26117
G1 X101.476 Y142.639 E10.27917
G1 X100.582 Y142.507 E10.29721
G1 X99.704 Y142.298 E10.31522
G1 X98.847 Y142.011 E10.33326
G1 X98.02 Y141.65 E10.35126
G1 X97.227 Y141.217 E10.36929
G1 X96.476 Y140.716 E10.38731
G1 X95.772 Y140.15 E10.40534
G1 X95.121 Y139.524 E10.42336
G1 X94.528 Y138.843 E10.44138
G1 X93.998 Y138.112 E10.4594
G1 X93.534 Y137.337 E10.47742
G1 X93.14 Y136.524 E10.49545
G1 X92.82 Y135.68 E10.51347
G1 X92.576 Y134.81 E10.5315
G1 X92.41 Y133.922 E10.54953
G1 X92.313 Y132.767 E10.57266
G1 X92.3 Y132.158 E10.58481
G1 X92.301 Y103.036 E11.16597
G1 F1500 E4.66597
;MESH:3cmcube.stl
G0 F6000 X101.835 Y103.036
G0 X102.92 Y103.036
G0 X103.5 Y131.5
;TYPE:WALL-INNER
G1 F1500 E11.16597
G1 F1200 X131.5 Y131.5 E11.72474
G1 X131.5 Y103.5 E12.28351
G1 X103.5 Y103.5 E12.84228
G1 X103.5 Y131.5 E13.40105
G0 F6000 X103.1 Y131.9
G1 F1200 X131.9 Y131.9 E13.97579
G1 X131.9 Y103.1 E14.55052
G1 X103.1 Y103.1 E15.12526
G1 X103.1 Y131.9 E15.69999
G0 F6000 X102.7 Y132.3
;TYPE:WALL-OUTER
G1 F1200 X132.3 Y132.3 E16.29069
G1 X132.3 Y102.7 E16.88139
G1 X102.7 Y102.7 E17.47209
G1 X102.7 Y132.3 E18.06279
G0 F6000 X102.97 Y132.03
G0 X103.6 Y131.14
G0 X103.86 Y131.14
;TYPE:SKIN
G1 F1200 X131.14 Y131.14 E18.6072
G1 X131.14 Y103.86 E19.1516
G1 X103.86 Y103.86 E19.696
G1 X103.86 Y131.14 E20.2404
G0 F6000 X104.059 Y130.647
G1 F1200 X104.352 Y130.939 E20.24866
G0 F6000 X104.918 Y130.939
G1 F1200 X104.059 Y130.081 E20.27289
G0 F6000 X104.059 Y129.515
G1 F1200 X105.484 Y130.939 E20.31309
G0 F6000 X106.049 Y130.939
G1 F1200 X104.059 Y128.95 E20.36924
G0 F6000 X104.059 Y128.384
G1 F1200 X106.615 Y130.939 E20.44136
G0 F6000 X107.181 Y130.939
G1 F1200 X104.059 Y127.818 E20.52945
G0 F6000 X104.059 Y127.253
G1 F1200 X107.746 Y130.939 E20.63349
G0 F6000 X108.312 Y130.939
G1 F1200 X104.059 Y126.687 E20.75351
G0 F6000 X104.059 Y126.121
G1 F1200 X108.878 Y130.939 E20.8895
G0 F6000 X109.443 Y130.939
G1 F1200 X104.059 Y125.556 E21.04143
G0 F6000 X104.059 Y124.99
G1 F1200 X110.009 Y130.939 E21.20934
G0 F6000 X110.575 Y130.939
G1 F1200 X104.059 Y124.424 E21.39322
G0 F6000 X104.059 Y123.858
G1 F1200 X111.14 Y130.939 E21.59306
G0 F6000 X111.706 Y130.939
G1 F1200 X104.059 Y123.293 E21.80886
G0 F6000 X104.059 Y122.727
G1 F1200 X112.272 Y130.939 E22.04064
G0 F6000 X112.837 Y130.939
G1 F1200 X104.059 Y122.161 E22.28837
G0 F6000 X104.059 Y121.596
G1 F1200 X113.403 Y130.939 E22.55207
G0 F6000 X113.969 Y130.939
G1 F1200 X104.059 Y121.03 E22.83173
G0 F6000 X104.059 Y120.464
G1 F1200 X114.535 Y130.939 E23.12737
G0 F6000 X115.1 Y130.939
G1 F1200 X104.059 Y119.899 E23.43896
G0 F6000 X104.059 Y119.333
G1 F1200 X115.666 Y130.939 E23.76652
G0 F6000 X116.232 Y130.939
G1 F1200 X104.059 Y118.767 E24.11006
G0 F6000 X104.059 Y118.202
G1 F1200 X116.797 Y130.939 E24.46954
G0 F6000 X117.363 Y130.939
G1 F1200 X104.059 Y117.636 E24.84499
G0 F6000 X104.059 Y117.07
G1 F1200 X117.929 Y130.939 E25.23642
G0 F6000 X118.494 Y130.939
G1 F1200 X104.059 Y116.505 E25.64379
G0 F6000 X104.059 Y115.939
G1 F1200 X119.06 Y130.939 E26.06714
G0 F6000 X119.626 Y130.939
G1 F1200 X104.059 Y115.373 E26.50646
G0 F6000 X104.059 Y114.807
G1 F1200 X120.191 Y130.939 E26.96174
G0 F6000 X120.757 Y130.939
G1 F1200 X104.059 Y114.242 E27.43298
G0 F6000 X104.059 Y113.676
G1 F1200 X121.323 Y130.939 E27.92019
G0 F6000 X121.888 Y130.939
G1 F1200 X104.059 Y113.11 E28.42336
G0 F6000 X104.059 Y112.545
G1 F1200 X122.454 Y130.939 E28.94249
G0 F6000 X123.02 Y130.939
G1 F1200 X104.059 Y111.979 E29.4776
G0 F6000 X104.059 Y111.413
G1 F1200 X123.586 Y130.939 E30.02868
G0 F6000 X124.151 Y130.939
G1 F1200 X104.059 Y110.848 E30.59571
G0 F6000 X104.059 Y110.282
G1 F1200 X124.717 Y130.939 E31.17871
G0 F6000 X125.283 Y130.939
G1 F1200 X104.059 Y109.716 E31.77768
G0 F6000 X104.059 Y109.151
G1 F1200 X125.848 Y130.939 E32.3926
G0 F6000 X126.414 Y130.939
G1 F1200 X104.059 Y108.585 E33.02349
G0 F6000 X104.059 Y108.019
G1 F1200 X126.98 Y130.939 E33.67036
G0 F6000 X127.545 Y130.939
G1 F1200 X104.059 Y107.454 E34.33317
G0 F6000 X104.059 Y106.888
G1 F1200 X128.111 Y130.939 E35.01195
G0 F6000 X128.677 Y130.939
G1 F1200 X104.059 Y106.322 E35.70671
G0 F6000 X104.059 Y105.757
G1 F1200 X129.242 Y130.939 E36.41742
G0 F6000 X129.808 Y130.939
G1 F1200 X104.059 Y105.191 E37.14409
G0 F6000 X104.059 Y104.625
G1 F1200 X130.374 Y130.939 E37.88675
G0 F6000 X130.939 Y130.939
G1 F1200 X104.059 Y104.059 E38.64536
G0 F6000 X104.625 Y104.059
G1 F1200 X130.939 Y130.374 E39.38801
G0 F6000 X130.939 Y129.808
G1 F1200 X105.191 Y104.059 E40.11469
G0 F6000 X105.757 Y104.059
G1 F1200 X130.939 Y129.242 E40.82539
G0 F6000 X130.939 Y128.677
G1 F1200 X106.322 Y104.059 E41.52015
G0 F6000 X106.888 Y104.059
G1 F1200 X130.939 Y128.111 E42.19894
G0 F6000 X130.939 Y127.545
G1 F1200 X107.454 Y104.059 E42.86175
G0 F6000 X108.019 Y104.059
G1 F1200 X130.939 Y126.98 E43.50861
G0 F6000 X130.939 Y126.414
G1 F1200 X108.585 Y104.059 E44.13951
G0 F6000 X109.151 Y104.059
G1 F1200 X130.939 Y125.848 E44.75443
G0 F6000 X130.939 Y125.283
G1 F1200 X109.716 Y104.059 E45.3534
G0 F6000 X110.282 Y104.059
G1 F1200 X130.939 Y124.717 E45.9364
G0 F6000 X130.939 Y124.151
G1 F1200 X110.848 Y104.059 E46.50342
G0 F6000 X111.413 Y104.059
G1 F1200 X130.939 Y123.586 E47.0545
G0 F6000 X130.939 Y123.02
G1 F1200 X111.979 Y104.059 E47.58961
G0 F6000 X112.545 Y104.059
G1 F1200 X130.939 Y122.454 E48.10874
G0 F6000 X130.939 Y121.888
G1 F1200 X113.11 Y104.059 E48.61191
G0 F6000 X113.676 Y104.059
G1 F1200 X130.939 Y121.323 E49.09913
G0 F6000 X130.939 Y120.757
G1 F1200 X114.242 Y104.059 E49.57037
G0 F6000 X114.807 Y104.059
G1 F1200 X130.939 Y120.191 E50.02565
G0 F6000 X130.939 Y119.626
G1 F1200 X115.373 Y104.059 E50.46497
G0 F6000 X115.939 Y104.059
G1 F1200 X130.939 Y119.06 E50.88831
G0 F6000 X130.939 Y118.494
G1 F1200 X116.505 Y104.059 E51.29569
G0 F6000 X117.07 Y104.059
G1 F1200 X130.939 Y117.929 E51.68711
G0 F6000 X130.939 Y117.363
G1 F1200 X117.636 Y104.059 E52.06257
G0 F6000 X118.202 Y104.059
G1 F1200 X130.939 Y116.797 E52.42205
G0 F6000 X130.939 Y116.232
G1 F1200 X118.767 Y104.059 E52.76558
G0 F6000 X119.333 Y104.059
G1 F1200 X130.939 Y115.666 E53.09314
G0 F6000 X130.939 Y115.1
G1 F1200 X119.899 Y104.059 E53.40473
G0 F6000 X120.464 Y104.059
G1 F1200 X130.939 Y114.535 E53.70037
G0 F6000 X130.939 Y113.969
G1 F1200 X121.03 Y104.059 E53.98004
G0 F6000 X121.596 Y104.059
G1 F1200 X130.939 Y113.403 E54.24373
G0 F6000 X130.939 Y112.837
G1 F1200 X122.161 Y104.059 E54.49147
G0 F6000 X122.727 Y104.059
G1 F1200 X130.939 Y112.272 E54.72324
G0 F6000 X130.939 Y111.706
G1 F1200 X123.293 Y104.059 E54.93904
G0 F6000 X123.858 Y104.059
G1 F1200 X130.939 Y111.14 E55.13888
G0 F6000 X130.939 Y110.575
G1 F1200 X124.424 Y104.059 E55.32276
G0 F6000 X124.99 Y104.059
G1 F1200 X130.939 Y110.009 E55.49067
G0 F6000 X130.939 Y109.443
G1 F1200 X125.556 Y104.059 E55.64261
G0 F6000 X126.121 Y104.059
G1 F1200 X130.939 Y108.878 E55.77859
G0 F6000 X130.939 Y108.312
G1 F1200 X126.687 Y104.059 E55.89861
G0 F6000 X127.253 Y104.059
G1 F1200 X130.939 Y107.746 E56.00265
G0 F6000 X130.939 Y107.181
G1 F1200 X127.818 Y104.059 E56.09074
G0 F6000 X128.384 Y104.059
G1 F1200 X130.939 Y106.615 E56.16287
G0 F6000 X130.939 Y106.049
G1 F1200 X128.95 Y104.059 E56.21901
G0 F6000 X129.515 Y104.059
G1 F1200 X130.939 Y105.484 E56.25922
G0 F6000 X130.939 Y104.918
G1 F1200 X130.081 Y104.059 E56.28345
G0 F6000 X130.647 Y104.059
M104 S200
G1 F1200 X130.939 Y104.352 E56.2917
G1 F1500 E49.7917
;MESH:NONMESH
G0 F300 X130.939 Y104.352 Z0.24
G0 F6000 X131.4 Y104.352
G0 X131.328 Y131.328
G0 X103.5 Y131.5
;TIME_ELAPSED:155.708234
;LAYER:1
M106 S85
;TYPE:WALL-INNER
;MESH:3cmcube.stl
G1 F1500 E56.2917
G1 F1350 X131.5 Y131.5 E56.85047
G1 X131.5 Y103.5 E57.40924
G1 X103.5 Y103.5 E57.96801
G1 X103.5 Y131.5 E58.52678
G0 F7500 X103.1 Y131.9
G1 F1350 X131.9 Y131.9 E59.10152
G1 X131.9 Y103.1 E59.67625
G1 X103.1 Y103.1 E60.25099
G1 X103.1 Y131.9 E60.82572
G0 F7500 X102.7 Y132.3
;TYPE:WALL-OUTER
G1 F1350 X132.3 Y132.3 E61.41642
G1 X132.3 Y102.7 E62.00712
G1 X102.7 Y102.7 E62.59782
G1 X102.7 Y132.3 E63.18852
G0 F7500 X102.97 Y132.03
G0 X103.6 Y131.14
G0 X103.86 Y131.14
;TYPE:SKIN
G1 F1350 X131.14 Y131.14 E63.73292
G1 X131.14 Y103.86 E64.27733
G1 X103.86 Y103.86 E64.82173
G1 X103.86 Y131.14 E65.36613
G0 F7500 X103.6 Y131.14
G0 X103.6 Y104.677
G0 X104.059 Y104.677
G1 F1350 X104.677 Y104.059 E65.38357
G0 F7500 X105.243 Y104.059
