;FLAVOR:Marlin
;TIME:9722
;Filament used: 5.62609m
;Layer height: 0.28
;MINX:91.505
;MINY:91.498
;MINZ:0.28
;MAXX:143.5
;MAXY:143.493
;MAXZ:29.96
;Generated with Cura_SteamEngine main
M82 ;absolute extrusion mode
; Ender 3 Custom Start G-code
G92 E0 ; Reset Extruder
G28 ; Home all axes
M104 S175 ; Start heating up the nozzle most of the way
M190 S60 ; Start heating the bed, wait until target temperature reached
M109 S200 ; Finish heating the nozzle
G1 Z2.0 F3000 ; Move Z Axis up little to prevent scratching of Heat Bed
G1 X0.1 Y20 Z0.3 F5000.0 ; Move to start position
G1 X0.1 Y200.0 Z0.3 F1500.0 E15 ; Draw the first line
G1 X0.4 Y200.0 Z0.3 F5000.0 ; Move to side a little
G1 X0.4 Y20 Z0.3 F1500.0 E30 ; Draw the second line
G92 E0 ; Reset Extruder
G1 Z2.0 F3000 ; Move Z Axis up little to prevent scratching of Heat Bed
G1 X5 Y20 Z0.3 F5000.0 ; Move over to prevent blob squish
G92 E0
G92 E0
G1 F1500 E-6.5
;LAYER_COUNT:107
;LAYER:0
M107
G0 F6000 X94.703 Y94.762 Z0.28
G0 X91.506 Y103.023
;TYPE:SKIRT
G1 F1500 E0
G1 F1200 X91.515 Y102.358 E0.03097
G1 X91.568 Y101.422 E0.07462
G1 X91.7 Y100.493 E0.11831
G1 X91.911 Y99.579 E0.16199
G1 X92.199 Y98.687 E0.20564
G1 X92.562 Y97.822 E0.24932
G1 X92.997 Y96.991 E0.293
G1 X93.501 Y96.201 E0.33663
G1 X94.071 Y95.456 E0.38031
G1 X94.703 Y94.762 E0.42402
G1 X95.391 Y94.125 E0.46768
G1 X96.131 Y93.549 E0.51134
G1 X96.917 Y93.037 E0.55502
G1 X97.744 Y92.595 E0.59869
G1 X98.606 Y92.225 E0.64237
G1 X99.496 Y91.929 E0.68604
G1 X100.408 Y91.711 E0.7297
G1 X101.335 Y91.57 E0.77336
G1 X102.206 Y91.511 E0.81401
G1 X102.835 Y91.498 E0.84331
G1 X131.951 Y91.499 E2.19907
G1 X132.649 Y91.509 E2.23158
G1 X133.585 Y91.563 E2.27523
G1 X134.513 Y91.695 E2.31888
G1 X135.427 Y91.907 E2.36257
G1 X136.319 Y92.196 E2.40623
G1 X137.184 Y92.559 E2.44991
G1 X138.014 Y92.995 E2.49357
G1 X138.805 Y93.5 E2.53727
G1 X139.549 Y94.071 E2.58094
G1 X140.242 Y94.703 E2.62461
G1 X140.879 Y95.391 E2.66827
G1 X141.454 Y96.132 E2.71194
G1 X141.965 Y96.918 E2.7556
G1 X142.407 Y97.746 E2.7993
G1 X142.776 Y98.608 E2.84296
G1 X143.071 Y99.498 E2.88662
G1 X143.289 Y100.41 E2.93029
G1 X143.429 Y101.338 E2.97399
G1 X143.487 Y102.199 E3.01417
G1 X143.5 Y102.828 E3.04346
G1 X143.499 Y131.893 E4.39685
G1 X143.49 Y132.62 E4.43071
G1 X143.439 Y133.557 E4.4744
G1 X143.307 Y134.485 E4.51805
G1 X143.098 Y135.399 E4.56171
G1 X142.811 Y136.292 E4.60538
G1 X142.449 Y137.158 E4.64909
G1 X142.015 Y137.989 E4.69274
G1 X141.511 Y138.78 E4.73642
G1 X140.942 Y139.525 E4.78007
G1 X140.311 Y140.22 E4.82378
G1 X139.624 Y140.858 E4.86743
G1 X138.885 Y141.435 E4.91109
G1 X138.099 Y141.947 E4.95477
G1 X137.273 Y142.39 E4.99842
G1 X136.411 Y142.762 E5.04213
G1 X135.522 Y143.058 E5.08576
G1 X134.61 Y143.278 E5.12945
G1 X133.683 Y143.419 E5.17311
G1 X132.799 Y143.48 E5.21437
G1 X132.17 Y143.493 E5.24366
G1 X103.07 Y143.492 E6.59868
G1 X102.372 Y143.483 E6.63119
G1 X101.436 Y143.431 E6.67484
G1 X100.507 Y143.299 E6.71853
G1 X99.593 Y143.089 E6.7622
G1 X98.7 Y142.802 E6.80588
G1 X97.835 Y142.439 E6.84956
G1 X97.004 Y142.005 E6.89321
G1 X96.213 Y141.501 E6.93688
G1 X95.468 Y140.931 E6.98056
G1 X94.774 Y140.3 E7.02424
G1 X94.137 Y139.613 E7.06786
G1 X93.56 Y138.873 E7.11156
G1 X93.048 Y138.087 E7.15524
G1 X92.605 Y137.26 E7.19892
G1 X92.234 Y136.399 E7.24258
G1 X91.938 Y135.509 E7.28625
G1 X91.719 Y134.597 E7.32993
G1 X91.578 Y133.67 E7.37359
G1 X91.518 Y132.781 E7.41508
G1 X91.505 Y132.151 E7.44442
G1 X91.506 Y103.023 E8.80074
G0 F6000 X91.906 Y103.029
G1 F1200 X91.915 Y102.364 E8.83171
G1 X91.967 Y101.444 E8.87462
G1 X92.099 Y100.533 E8.91748
G1 X92.31 Y99.637 E8.96034
G1 X92.597 Y98.762 E9.00322
G1 X92.96 Y97.916 E9.04609
G1 X93.394 Y97.104 E9.08896
G1 X93.897 Y96.333 E9.13183
G1 X94.466 Y95.609 E9.1747
G1 X95.094 Y94.937 E9.21753
G1 X95.779 Y94.321 E9.26043
G1 X96.515 Y93.768 E9.3033
G1 X97.296 Y93.28 E9.34618
G1 X98.116 Y92.862 E9.38904
G1 X98.97 Y92.517 E9.43192
G1 X99.85 Y92.247 E9.47479
G1 X100.75 Y92.055 E9.51764
G1 X101.664 Y91.941 E9.56053
G1 X102.217 Y91.911 E9.58631
G1 X102.835 Y91.898 E9.6151
G1 X131.793 Y91.898 E10.9635
G1 X132.643 Y91.909 E11.00309
G1 X133.562 Y91.962 E11.04595
G1 X134.473 Y92.095 E11.08882
G1 X135.369 Y92.306 E11.13168
G1 X136.243 Y92.594 E11.17453
G1 X137.09 Y92.957 E11.21744
G1 X137.901 Y93.392 E11.26029
G1 X138.671 Y93.896 E11.30315
G1 X139.395 Y94.465 E11.34602
G1 X140.067 Y95.095 E11.38891
G1 X140.682 Y95.78 E11.43178
G1 X141.235 Y96.516 E11.47465
G1 X141.722 Y97.297 E11.51751
G1 X142.139 Y98.118 E11.56038
G1 X142.484 Y98.972 E11.60327
G1 X142.753 Y99.852 E11.64612
G1 X142.945 Y100.753 E11.68902
G1 X143.058 Y101.666 E11.73185
G1 X143.087 Y102.21 E11.75722
G1 X143.1 Y102.828 E11.786
G1 X143.099 Y131.888 E13.13916
G1 X143.09 Y132.615 E13.17301
G1 X143.039 Y133.534 E13.21587
G1 X142.908 Y134.446 E13.25877
G1 X142.698 Y135.342 E13.30163
G1 X142.412 Y136.217 E13.34449
G1 X142.051 Y137.064 E13.38736
G1 X141.617 Y137.876 E13.43024
G1 X141.115 Y138.648 E13.47311
G1 X140.547 Y139.373 E13.516
G1 X139.919 Y140.046 E13.55886
G1 X139.235 Y140.662 E13.60172
G1 X138.5 Y141.216 E13.64458
G1 X137.72 Y141.705 E13.68745
G1 X136.9 Y142.124 E13.73033
G1 X136.047 Y142.47 E13.77319
G1 X135.167 Y142.741 E13.81607
G1 X134.267 Y142.934 E13.85893
G1 X133.353 Y143.049 E13.90182
G1 X132.788 Y143.08 E13.92817
G1 X132.17 Y143.093 E13.95695
G1 X103.075 Y143.092 E15.31174
G1 X102.377 Y143.083 E15.34424
G1 X101.458 Y143.031 E15.3871
G1 X100.547 Y142.9 E15.42996
G1 X99.651 Y142.69 E15.47281
G1 X98.776 Y142.403 E15.51569
G1 X97.929 Y142.041 E15.55858
G1 X97.117 Y141.607 E15.60145
G1 X96.346 Y141.105 E15.64429
G1 X95.621 Y140.537 E15.68718
G1 X94.948 Y139.908 E15.73007
G1 X94.333 Y139.224 E15.77291
G1 X93.779 Y138.489 E15.81576
G1 X93.291 Y137.708 E15.85865
G1 X92.872 Y136.888 E15.90152
G1 X92.526 Y136.035 E15.94439
G1 X92.256 Y135.155 E15.98725
G1 X92.063 Y134.254 E16.03015
G1 X91.949 Y133.341 E16.073
G1 X91.918 Y132.77 E16.09963
G1 X91.905 Y132.151 E16.12845
G1 X91.906 Y103.029 E17.4845
G0 F6000 X92.306 Y103.034
G1 F1200 X92.315 Y102.369 E17.51546
G1 X92.367 Y101.467 E17.55754
G1 X92.499 Y100.574 E17.59957
G1 X92.709 Y99.696 E17.64161
G1 X92.996 Y98.839 E17.68369
G1 X93.358 Y98.012 E17.72573
G1 X93.791 Y97.22 E17.76776
G1 X94.293 Y96.469 E17.80982
G1 X94.86 Y95.765 E17.85191
G1 X95.486 Y95.115 E17.89393
G1 X96.167 Y94.522 E17.93598
G1 X96.899 Y93.992 E17.97806
G1 X97.674 Y93.529 E18.0201
G1 X98.487 Y93.136 E18.06214
G1 X99.332 Y92.816 E18.10422
G1 X100.201 Y92.573 E18.14623
G1 X101.089 Y92.407 E18.1883
G1 X102.228 Y92.311 E18.24152
G1 X102.835 Y92.298 E18.2698
G1 X131.793 Y92.298 E19.6182
G1 X132.637 Y92.309 E19.6575
G1 X133.539 Y92.362 E19.69958
G1 X134.432 Y92.494 E19.74161
G1 X135.31 Y92.705 E19.78366
G1 X136.166 Y92.993 E19.82571
G1 X136.993 Y93.355 E19.86775
G1 X137.785 Y93.79 E19.90983
G1 X138.536 Y94.292 E19.95189
G1 X139.239 Y94.859 E19.99394
G1 X139.889 Y95.486 E20.036
G1 X140.481 Y96.168 E20.07805
G1 X141.011 Y96.899 E20.12009
G1 X141.473 Y97.675 E20.16214
G1 X141.866 Y98.488 E20.20419
G1 X142.184 Y99.333 E20.24623
G1 X142.427 Y100.203 E20.28829
G1 X142.592 Y101.091 E20.33035
G1 X142.687 Y102.221 E20.38315
G1 X142.7 Y102.828 E20.41143
G1 X142.699 Y131.883 E21.76435
G1 X142.69 Y132.61 E21.7982
G1 X142.639 Y133.512 E21.84027
G1 X142.508 Y134.406 E21.88234
G1 X142.299 Y135.284 E21.92437
G1 X142.013 Y136.141 E21.96644
G1 X141.652 Y136.969 E22.0085
G1 X141.22 Y137.761 E22.05051
G1 X140.719 Y138.513 E22.09258
G1 X140.153 Y139.217 E22.13464
G1 X139.528 Y139.868 E22.17667
G1 X138.847 Y140.462 E22.21874
G1 X138.116 Y140.993 E22.26082
G1 X137.342 Y141.457 E22.30284
G1 X136.529 Y141.851 E22.3449
G1 X135.685 Y142.171 E22.38693
G1 X134.815 Y142.416 E22.42902
G1 X133.928 Y142.582 E22.47104
G1 X132.777 Y142.68 E22.52483
G1 X132.17 Y142.693 E22.5531
G1 X103.08 Y142.692 E23.90765
G1 X102.382 Y142.683 E23.94016
G1 X101.481 Y142.632 E23.98218
G1 X100.587 Y142.5 E24.02426
G1 X99.709 Y142.291 E24.06628
G1 X98.852 Y142.004 E24.10837
G1 X98.025 Y141.643 E24.15039
G1 X97.232 Y141.21 E24.19246
G1 X96.481 Y140.709 E24.23449
G1 X95.777 Y140.143 E24.27656
G1 X95.126 Y139.517 E24.31861
G1 X94.533 Y138.836 E24.36066
G1 X94.003 Y138.105 E24.4027
G1 X93.539 Y137.33 E24.44476
G1 X93.145 Y136.517 E24.48683
G1 X92.825 Y135.673 E24.52886
G1 X92.581 Y134.803 E24.57093
G1 X92.415 Y133.915 E24.613
G1 X92.318 Y132.76 E24.66697
G1 X92.305 Y132.151 E24.69533
G1 X92.306 Y103.034 E26.05114
G1 F1500 E19.55114
G0 F6000 X109.247 Y117.259
G1 F1500 E26.05114
G1 F1200 X117.266 Y109.24 E26.57921
G1 X117.739 Y109.24 E26.60123
G1 X125.757 Y117.259 E27.12927
G1 X125.757 Y117.732 E27.15129
G1 X117.739 Y125.75 E27.67929
G1 X117.266 Y125.75 E27.70131
G1 X109.247 Y117.732 E28.22935
G1 X109.247 Y117.259 E28.25137
G0 F6000 X108.847 Y117.093
G1 F1200 X117.1 Y108.84 E28.79485
G1 X117.905 Y108.84 E28.83233
G1 X126.157 Y117.093 E29.37577
G1 X126.157 Y117.898 E29.41325
G1 X117.905 Y126.15 E29.95666
G1 X117.1 Y126.15 E29.99415
G1 X108.847 Y117.898 E30.53759
G1 X108.847 Y117.093 E30.57507
G0 F6000 X108.447 Y116.927
G1 F1200 X116.934 Y108.44 E31.13396
G1 X118.071 Y108.44 E31.1869
G1 X126.557 Y116.927 E31.74575
G1 X126.557 Y118.064 E31.79869
G1 X118.071 Y126.55 E32.35751
G1 X116.934 Y126.55 E32.41045
G1 X108.447 Y118.064 E32.96931
G1 X108.447 Y116.927 E33.02225
G0 F6000 X108.047 Y116.761
G1 F1200 X116.768 Y108.04 E33.59654
G1 X118.236 Y108.04 E33.6649
G1 X126.957 Y116.762 E34.23922
G1 X126.957 Y118.23 E34.30758
G1 X118.237 Y126.95 E34.88181
G1 X116.769 Y126.95 E34.95016
G1 X108.047 Y118.229 E35.52449
G1 X108.047 Y116.761 E35.59284
G0 F6000 X107.647 Y116.597
G1 F1200 X116.604 Y107.64 E36.18268
G1 X118.401 Y107.64 E36.26635
G1 X127.357 Y116.597 E36.85615
G1 X127.357 Y118.394 E36.93983
G1 X118.401 Y127.35 E37.5296
G1 X116.604 Y127.35 E37.61327
G1 X107.647 Y118.394 E38.20308
G1 X107.647 Y116.597 E38.28675
G0 F6000 X107.247 Y116.431
G1 F1200 X116.438 Y107.24 E38.89199
G1 X118.567 Y107.24 E38.99113
G1 X127.757 Y116.431 E39.59634
G1 X127.757 Y118.56 E39.69547
G1 X118.567 Y127.75 E40.30065
G1 X116.438 Y127.75 E40.39979
G1 X107.247 Y118.56 E41.005
G1 X107.247 Y116.431 E41.10413
G0 F6000 X106.847 Y116.265
G1 F1200 X116.272 Y106.84 E41.72478
G1 X118.733 Y106.84 E41.83938
G1 X128.157 Y116.265 E42.46
G1 X128.157 Y118.726 E42.57459
G1 X118.733 Y128.15 E43.19518
G1 X116.272 Y128.15 E43.30977
G1 X106.847 Y118.726 E43.93039
G1 X106.847 Y116.265 E44.04499
G0 F6000 X106.447 Y116.099
G1 F1200 X116.106 Y106.44 E44.68105
G1 X118.899 Y106.44 E44.8111
G1 X128.557 Y116.099 E45.44713
G1 X128.557 Y118.892 E45.57719
G1 X118.899 Y128.55 E46.21318
G1 X116.106 Y128.55 E46.34324
G1 X106.447 Y118.892 E46.97926
G1 X106.447 Y116.099 E47.10932
G0 F6000 X106.047 Y115.933
G1 F1200 X115.94 Y106.04 E47.76079
G1 X119.065 Y106.04 E47.9063
G1 X128.957 Y115.933 E48.55774
G1 X128.957 Y119.058 E48.70325
G1 X119.065 Y128.95 E49.35466
G1 X115.94 Y128.95 E49.50017
G1 X106.047 Y119.058 E50.15161
G1 X106.047 Y115.933 E50.29712
G0 F6000 X105.647 Y115.767
G1 F1200 X115.774 Y105.64 E50.964
G1 X119.231 Y105.64 E51.12497
G1 X129.357 Y115.767 E51.79182
G1 X129.357 Y119.224 E51.95279
G1 X119.231 Y129.35 E52.61961
G1 X115.774 Y129.35 E52.78058
G1 X105.647 Y119.224 E53.44743
G1 X105.647 Y115.767 E53.6084
G1 F1500 E47.1084
G0 F6000 X105.647 Y110.796
G1 F1500 E53.6084
G1 F1200 X105.647 Y105.64 E53.84849
G1 X110.803 Y105.64 E54.08857
G1 X105.647 Y110.796 E54.4281
G1 F1500 E47.9281
G0 F6000 X106.847 Y106.84
G1 F1500 E54.4281
G1 F1200 X107.905 Y106.84 E54.47737
G1 X106.847 Y107.898 E54.54704
G1 X106.847 Y106.84 E54.5963
G0 F6000 X106.447 Y106.44
G1 F1200 X108.871 Y106.44 E54.70918
G1 X106.447 Y108.864 E54.8688
G1 X106.447 Y106.44 E54.98167
G0 F6000 X106.047 Y106.04
G1 F1200 X109.837 Y106.04 E55.15815
G1 X106.047 Y109.83 E55.40773
G1 X106.047 Y106.04 E55.58421
G1 F1500 E49.08421
G0 F6000 X105.647 Y124.194
G1 F1500 E55.58421
G1 F1200 X110.803 Y129.35 E55.92374
G1 X105.647 Y129.35 E56.16382
G1 X105.647 Y124.194 E56.40391
G0 F6000 X106.047 Y125.16
G1 F1200 X109.837 Y128.95 E56.65348
G1 X106.047 Y128.95 E56.82996
G1 X106.047 Y125.16 E57.00644
G0 F6000 X106.447 Y126.126
G1 F1200 X108.871 Y128.55 E57.16607
G1 X106.447 Y128.55 E57.27894
G1 X106.447 Y126.126 E57.39181
G0 F6000 X106.847 Y127.092
G1 F1200 X107.905 Y128.15 E57.46148
G1 X106.847 Y128.15 E57.51075
G1 X106.847 Y127.092 E57.56001
G1 F1500 E51.06001
G0 F6000 X124.201 Y129.35
G1 F1500 E57.56001
G1 F1200 X129.357 Y124.194 E57.89954
G1 X129.357 Y129.35 E58.13963
G1 X124.201 Y129.35 E58.37971
G0 F6000 X125.167 Y128.95
G1 F1200 X128.957 Y125.16 E58.62929
G1 X128.957 Y128.95 E58.80577
G1 X125.167 Y128.95 E58.98225
G0 F6000 X126.133 Y128.55
G1 F1200 X128.557 Y126.126 E59.14187
G1 X128.557 Y128.55 E59.25474
G1 X126.133 Y128.55 E59.36761
G0 F6000 X127.099 Y128.15
G1 F1200 X128.157 Y127.092 E59.43728
G1 X128.157 Y128.15 E59.48655
G1 X127.099 Y128.15 E59.53581
G1 F1500 E53.03581
G0 F6000 X129.357 Y110.796
G1 F1500 E59.53581
G1 F1200 X124.201 Y105.64 E59.87535
G1 X129.357 Y105.64 E60.11543
G1 X129.357 Y110.796 E60.35552
G1 F1500 E53.85552
G0 F6000 X127.099 Y106.84
G1 F1500 E60.35552
G1 F1200 X128.157 Y106.84 E60.40478
G1 X128.157 Y107.898 E60.45405
G1 X127.099 Y106.84 E60.52372
G0 F6000 X126.133 Y106.44
G1 F1200 X128.557 Y106.44 E60.63659
G1 X128.557 Y108.864 E60.74946
G1 X126.133 Y106.44 E60.90908
G0 F6000 X125.167 Y106.04
G1 F1200 X128.957 Y106.04 E61.08556
G1 X128.957 Y109.83 E61.26204
G1 X125.167 Y106.04 E61.51162
G1 F1500 E55.01162
G0 F6000 X117.382 Y109.52
;TYPE:SUPPORT
G1 F1500 E61.51162
G1 F1200 X109.527 Y117.375 E62.02888
G1 X109.527 Y117.615 E62.04006
G1 X117.383 Y125.47 E62.55736
G1 X117.623 Y125.47 E62.56853
G1 X125.477 Y117.616 E63.08573
G1 X125.477 Y117.376 E63.09691
G1 X117.622 Y109.52 E63.61421
G1 X117.382 Y109.52 E63.62538
G0 F6000 X117.014 Y110
G1 F1200 X117.99 Y110 E63.67083
G1 X118 Y110.011
G1 X118 Y124.981 E64.36789
G0 F6000 X118.979 Y124
G1 F1200 X116.023 Y124 E64.50554
G1 X116 Y123.975
G1 X116 Y111.014 E65.10906
G0 F6000 X115.014 Y112
G1 F1200 X119.99 Y112 E65.34076
G1 X120 Y112.011
G1 X120 Y122.981 E65.85157
G0 F6000 X120.979 Y122
G1 F1200 X114.023 Y122 E66.17547
G1 X114 Y121.975
G1 X114 Y113.014 E66.59273
G0 F6000 X113.014 Y114
G1 F1200 X121.99 Y114 E67.01069
G1 X122 Y114.011
G1 X122 Y120.981 E67.33524
G0 F6000 X122.979 Y120
G1 F1200 X112.023 Y120 E67.8454
G1 X112 Y119.975
G1 X112 Y115.014 E68.07641
G0 F6000 X111.014 Y116
G1 F1200 X123.99 Y116 E68.68062
G1 X124 Y116.011
G1 X124 Y118.981 E68.81892
G0 F6000 X124.98 Y118
G1 F1200 X110.024 Y118 E69.51533
G1 X110 Y117.975
G1 X110 Y117.014 E69.56008
G1 F1500 E63.06008
;MESH:meshedobj.stl
G0 F6000 X109.417 Y116.431
G0 X106.963 Y113.977
G0 X104.284 Y113.689
;TYPE:WALL-INNER
G1 F1500 E69.56008
G1 F1200 X104.047 Y113.301 E69.58125
G1 X104.047 Y104.64 E69.98454
G1 X104.222 Y104.215 E70.00595
G1 X104.558 Y104.04 E70.02359
G1 X113.217 Y104.04 E70.42679
G1 X113.696 Y104.277 E70.45167
G1 X113.817 Y104.618 E70.46852
G1 F1259.8 X113.69 Y104.987 E70.48583
G1 F1329.6 X111.514 Y107.162 E70.61512
G1 X109.337 Y109.337 E70.74444
G1 F1333.3 X107.161 Y111.512 E70.87338
G1 X104.984 Y113.688 E71.00237
G1 F1263.2 X104.625 Y113.812 E71.01917
G1 F1200 X104.284 Y113.689 E71.03605
G0 F6000 X104.526 Y113.37
;TYPE:WALL-OUTER
G1 F1200 X104.449 Y113.245 E71.04289
G1 X104.447 Y104.64 E71.44357
G1 X104.505 Y104.498 E71.45071
G1 X104.612 Y104.442 E71.45634
G1 X113.217 Y104.44 E71.85702
G1 X113.377 Y104.519 E71.86533
G1 X113.417 Y104.632 E71.87091
G1 X113.381 Y104.756 E71.87693
G1 X104.764 Y113.375 E72.44444
G1 X104.639 Y113.411 E72.45049
G1 X104.526 Y113.37 E72.45609
G1 F1500 E65.95609
G0 F6000 X104.409 Y113.652
G0 X105.122 Y113.816
G0 X104.211 Y115.172
G0 X104.245 Y120.312
G0 X105.216 Y121.265
G0 X104.163 Y121.181
G0 X103.866 Y130.35
G0 X103.305 Y130.35
G0 X103.105 Y131.893
;TYPE:WALL-INNER
G1 F1500 E72.45609
G1 F1200 X131.9 Y131.893 E73.79691
G1 X131.9 Y103.098 E75.13772
G1 X103.106 Y103.099 E76.47849
G1 X103.105 Y131.893 E77.81926
G0 F6000 X102.705 Y132.293
;TYPE:WALL-OUTER
G1 F1200 X132.3 Y132.293 E79.19733
G1 X132.3 Y102.698 E80.57539
G1 X102.706 Y102.699 E81.95342
