;FLAVOR:Marlin
;TIME:8487
;Filament used: 9.32941m
;Layer height: 0.28
;MINX:68.771
;MINY:89.287
;MINZ:0.28
;MAXX:159.858
;MAXY:175.242
;MAXZ:29.96
;Generated with Cura_SteamEngine main
M82 ;absolute extrusion mode
; Ender 3 Custom Start G-code
G92 E0 ; Reset Extruder
G28 ; Home all axes
M104 S175 ; Start heating up the nozzle most of the way
M190 S60 ; Start heating the bed, wait until target temperature reached
M109 S200 ; Finish heating the nozzle
G1 Z2.0 F3000 ; Move Z Axis up little to prevent scratching of Heat Bed
G1 X0.1 Y20 Z0.3 F5000.0 ; Move to start position
G1 X0.1 Y200.0 Z0.3 F1500.0 E15 ; Draw the first line
G1 X0.4 Y200.0 Z0.3 F5000.0 ; Move to side a little
G1 X0.4 Y20 Z0.3 F1500.0 E30 ; Draw the second line
G92 E0 ; Reset Extruder
G1 Z2.0 F3000 ; Move Z Axis up little to prevent scratching of Heat Bed
G1 X5 Y20 Z0.3 F5000.0 ; Move over to prevent blob squish
G92 E0
G92 E0
G1 F1500 E-6.5
;LAYER_COUNT:107
;LAYER:0
M107
G0 F6000 X90.168 Y92.673 Z0.28
G0 X87.254 Y98.449
;TYPE:SKIRT
G1 F1500 E0
G1 F1200 X87.451 Y97.532 E0.04367
G1 X87.725 Y96.635 E0.08735
G1 X88.074 Y95.765 E0.131
G1 X88.497 Y94.928 E0.17466
G1 X88.989 Y94.129 E0.21836
G1 X89.547 Y93.376 E0.262
G1 X90.168 Y92.673 E0.30567
G1 X90.846 Y92.025 E0.34935
G1 X91.577 Y91.437 E0.39303
G1 X92.355 Y90.914 E0.43668
G1 X93.176 Y90.459 E0.48039
G1 X94.031 Y90.075 E0.52403
G1 X94.917 Y89.766 E0.56772
G1 X95.825 Y89.533 E0.61138
G1 X96.75 Y89.379 E0.65504
G1 X97.789 Y89.3 E0.70356
G1 X98.418 Y89.287 E0.73285
G1 X127.539 Y89.288 E2.08885
G1 X128.237 Y89.298 E2.12136
G1 X129.173 Y89.352 E2.16501
G1 X130.101 Y89.484 E2.20866
G1 X131.015 Y89.696 E2.25235
G1 X131.907 Y89.985 E2.29601
G1 X132.772 Y90.348 E2.33969
G1 X133.602 Y90.784 E2.38335
G1 X134.393 Y91.289 E2.42704
G1 X135.137 Y91.86 E2.47072
G1 X135.83 Y92.492 E2.51439
G1 X136.467 Y93.18 E2.55805
G1 X137.042 Y93.921 E2.60172
G1 X137.553 Y94.707 E2.64538
G1 X137.995 Y95.535 E2.68908
G1 X138.364 Y96.397 E2.73274
G1 X138.659 Y97.287 E2.7764
G1 X138.831 Y97.976 E2.80947
G1 X139.401 Y100.616 E2.93523
G1 X139.994 Y103.029 E3.05093
G1 X140.672 Y105.482 E3.16944
G1 X141.412 Y107.895 E3.28696
G1 X142.226 Y110.303 E3.40532
G1 X143.089 Y112.638 E3.52124
G1 X144.033 Y114.982 E3.6389
G1 X145.025 Y117.259 E3.75455
G1 X146.115 Y119.581 E3.874
G1 X147.246 Y121.819 E3.99076
G1 X148.43 Y124.011 E4.10677
G1 X149.684 Y126.18 E4.22343
G1 X151.025 Y128.358 E4.34253
G1 X152.393 Y130.445 E4.45872
G1 X153.843 Y132.523 E4.57671
G1 X154.201 Y133.007 E4.60474
G1 X154.306 Y133.162 E4.61346
G1 X154.738 Y133.754 E4.64759
G1 X155.433 Y134.756 E4.70437
G1 X155.886 Y135.451 E4.743
G1 X156.094 Y135.789 E4.76148
G1 X156.511 Y136.505 E4.80006
G1 X156.808 Y137.047 E4.82884
G1 X157.181 Y137.772 E4.8668
G1 X157.358 Y138.14 E4.88582
G1 X157.733 Y138.973 E4.92835
G1 X158.07 Y139.795 E4.96972
G1 X158.419 Y140.729 E5.01615
G1 X158.566 Y141.159 E5.03731
G1 X158.71 Y141.612 E5.05944
G1 X158.898 Y142.251 E5.09046
G1 X159.036 Y142.767 E5.11533
G1 X159.182 Y143.37 E5.14422
G1 X159.291 Y143.87 E5.16805
G1 X159.438 Y144.63 E5.20409
G1 X159.577 Y145.473 E5.24388
G1 X159.63 Y145.856 E5.26188
G1 X159.726 Y146.701 E5.30148
G1 X159.813 Y147.76 E5.35096
G1 X159.836 Y148.184 E5.37073
G1 X159.852 Y148.684 E5.39403
G1 X159.858 Y149.371 E5.42602
G1 X159.851 Y149.872 E5.44935
G1 X159.829 Y150.469 E5.47717
G1 X159.795 Y151.011 E5.50245
G1 X159.728 Y151.786 E5.53867
G1 X159.632 Y152.633 E5.57837
G1 X159.51 Y153.457 E5.61715
G1 X159.306 Y154.559 E5.66934
G1 X159.165 Y155.213 E5.70049
G1 X159.029 Y155.755 E5.72651
G1 X158.734 Y156.793 E5.77676
G1 X158.527 Y157.449 E5.80879
G1 X158.286 Y158.153 E5.84344
G1 X158.121 Y158.595 E5.86541
G1 X157.894 Y159.164 E5.89393
G1 X157.667 Y159.692 E5.9207
G1 X157.197 Y160.696 E5.97232
G1 X156.935 Y161.215 E5.99939
G1 X156.545 Y161.94 E6.03772
G1 X156.356 Y162.27 E6.05543
G1 X155.913 Y163.005 E6.09539
G1 X155.601 Y163.494 E6.1224
G1 X155.029 Y164.333 E6.16968
G1 X154.579 Y164.952 E6.20532
G1 X154.28 Y165.34 E6.22813
G1 X153.896 Y165.816 E6.2566
G1 X153.514 Y166.265 E6.28405
G1 X152.788 Y167.063 E6.33429
G1 X152.33 Y167.539 E6.36505
G1 X151.785 Y168.079 E6.40077
G1 X151.421 Y168.418 E6.42393
G1 X150.891 Y168.891 E6.45701
G1 X150.521 Y169.207 E6.47967
G1 X150.005 Y169.628 E6.51068
G1 X149.567 Y169.967 E6.53647
G1 X149.076 Y170.328 E6.56485
G1 X148.648 Y170.628 E6.58918
G1 X148.019 Y171.046 E6.62435
G1 X147.677 Y171.264 E6.64323
G1 X147.001 Y171.672 E6.68
G1 X146.081 Y172.188 E6.72912
G1 X145.343 Y172.569 E6.76779
G1 X144.916 Y172.777 E6.78991
G1 X144.436 Y172.997 E6.81449
G1 X143.879 Y173.236 E6.84272
G1 X143.38 Y173.436 E6.86775
G1 X142.671 Y173.7 E6.90298
G1 X141.72 Y174.023 E6.94975
G1 X141.039 Y174.232 E6.98292
G1 X140.513 Y174.375 E7.0083
G1 X139.544 Y174.608 E7.0547
G1 X138.824 Y174.761 E7.08898
G1 X138.098 Y174.895 E7.12336
G1 X137.602 Y174.97 E7.14671
G1 X136.589 Y175.093 E7.19423
G1 X135.809 Y175.165 E7.2307
G1 X135.1 Y175.214 E7.2638
G1 X134.592 Y175.233 E7.28747
G1 X133.962 Y175.242 E7.31681
G1 X133.423 Y175.236 E7.34191
G1 X132.33 Y175.192 E7.39284
G1 X131.72 Y175.15 E7.42131
G1 X130.914 Y175.075 E7.45901
G1 X130.391 Y175.01 E7.48355
G1 X129.703 Y174.908 E7.51593
G1 X128.601 Y174.722 E7.56797
G1 X127.522 Y174.524 E7.61905
G1 X125.036 Y174.14 E7.73619
G1 X122.553 Y173.827 E7.85272
G1 X120.017 Y173.581 E7.97136
G1 X117.521 Y173.41 E8.08786
G1 X115.009 Y173.309 E8.20492
G1 X112.483 Y173.279 E8.32255
G1 X109.99 Y173.32 E8.43865
G1 X107.469 Y173.433 E8.55616
G1 X104.958 Y173.616 E8.67339
G1 X102.472 Y173.869 E8.78975
G1 X100.72 Y174.104 E8.87206
G1 X98.825 Y174.344 E8.961
G1 X96.477 Y174.608 E9.07102
G1 X95.817 Y174.672 E9.1019
G1 X94.88 Y174.722 E9.14559
G1 X93.684 Y174.671 E9.20133
G1 X92.889 Y174.592 E9.23853
G1 X90.911 Y174.369 E9.33122
G1 X90.051 Y174.261 E9.37158
G1 X89.126 Y174.104 E9.41527
G1 X87.977 Y173.791 E9.47072
G1 X87.145 Y173.514 E9.51155
G1 X85.149 Y172.814 E9.61005
G1 X84.463 Y172.562 E9.64408
G1 X83.597 Y172.202 E9.68775
G1 X82.548 Y171.64 E9.74316
G1 X81.809 Y171.19 E9.78345
G1 X80.011 Y170.059 E9.88236
G1 X79.434 Y169.685 E9.91438
G1 X78.669 Y169.141 E9.95809
G1 X77.77 Y168.361 E10.01351
G1 X77.156 Y167.765 E10.05335
G1 X75.738 Y166.348 E10.1467
G1 X75.152 Y165.746 E10.18582
G1 X74.527 Y165.046 E10.22951
G1 X73.825 Y164.085 E10.28493
G1 X73.353 Y163.358 E10.32529
G1 X72.309 Y161.696 E10.41668
G1 X71.851 Y160.943 E10.45772
G1 X71.398 Y160.121 E10.50142
G1 X70.925 Y159.019 E10.55726
G1 X70.646 Y158.254 E10.59518
G1 X69.946 Y156.252 E10.69394
G1 X69.713 Y155.556 E10.72811
G1 X69.453 Y154.655 E10.77178
G1 X69.231 Y153.442 E10.8292
G1 X69.127 Y152.61 E10.86824
G1 X68.892 Y150.524 E10.96599
G1 X68.822 Y149.808 E10.99949
G1 X68.771 Y148.872 E11.04314
G1 X68.821 Y147.684 E11.0985
G1 X68.903 Y146.841 E11.13794
G1 X69.127 Y144.854 E11.23105
G1 X69.233 Y144.015 E11.27043
G1 X69.39 Y143.091 E11.31407
G1 X69.704 Y141.938 E11.36972
G1 X69.966 Y141.153 E11.40825
G1 X70.634 Y139.242 E11.50251
G1 X70.921 Y138.455 E11.54152
G1 X71.28 Y137.588 E11.58522
G1 X71.854 Y136.516 E11.64184
G1 X72.304 Y135.778 E11.68209
G1 X73.321 Y134.158 E11.77115
G1 X73.943 Y133.198 E11.82442
G1 X75.359 Y130.943 E11.94841
G1 X76.629 Y128.788 E12.06488
G1 X77.829 Y126.612 E12.18059
G1 X79.01 Y124.323 E12.30053
G1 X80.079 Y122.097 E12.41551
G1 X81.114 Y119.775 E12.53389
G1 X82.069 Y117.459 E12.65054
G1 X82.969 Y115.088 E12.76863
G1 X83.789 Y112.726 E12.88505
G1 X84.554 Y110.313 E13.00292
G1 X85.234 Y107.925 E13.11854
G1 X85.868 Y105.435 E13.23818
G1 X86.416 Y103.004 E13.35422
G1 X86.898 Y100.539 E13.47118
G1 X87.254 Y98.449 E13.5699
G1 F1500 E7.0699
G0 F6000 X86.805 Y103.095
G1 F1500 E13.5699
G1 F1200 X87.292 Y100.604 E13.68808
G1 X87.648 Y98.516 E13.78671
G1 X87.842 Y97.616 E13.82958
G1 X88.113 Y96.737 E13.87241
G1 X88.46 Y95.884 E13.91529
G1 X88.879 Y95.064 E13.95817
G1 X89.368 Y94.284 E14.00104
G1 X89.923 Y93.549 E14.04393
G1 X90.539 Y92.865 E14.08679
G1 X91.212 Y92.237 E14.12965
G1 X91.937 Y91.67 E14.17251
G1 X92.709 Y91.168 E14.21539
G1 X93.522 Y90.735 E14.25828
G1 X94.368 Y90.374 E14.30111
G1 X95.244 Y90.088 E14.34402
G1 X96.14 Y89.878 E14.38687
G1 X97.051 Y89.748 E14.42972
G1 X97.8 Y89.7 E14.46467
G1 X98.418 Y89.687 E14.49345
G1 X127.381 Y89.687 E15.84209
G1 X128.231 Y89.698 E15.88167
G1 X129.15 Y89.751 E15.92454
G1 X130.061 Y89.884 E15.9674
G1 X130.957 Y90.095 E16.01027
G1 X131.831 Y90.383 E16.05312
G1 X132.678 Y90.746 E16.09603
G1 X133.489 Y91.181 E16.13888
G1 X134.259 Y91.685 E16.18173
G1 X134.983 Y92.254 E16.22461
G1 X135.655 Y92.884 E16.2675
G1 X136.27 Y93.569 E16.31037
G1 X136.823 Y94.305 E16.35323
G1 X137.31 Y95.086 E16.39609
G1 X137.727 Y95.907 E16.43897
G1 X138.072 Y96.761 E16.48186
G1 X138.44 Y98.06 E16.54472
G1 X139.008 Y100.69 E16.67001
G1 X139.614 Y103.158 E16.78835
G1 X140.289 Y105.6 E16.90632
G1 X141.026 Y108.003 E17.02336
G1 X141.847 Y110.433 E17.14279
G1 X142.714 Y112.778 E17.25921
G1 X143.66 Y115.125 E17.37704
G1 X144.669 Y117.44 E17.49463
G1 X145.761 Y119.767 E17.61432
G1 X146.873 Y121.969 E17.72919
G1 X148.105 Y124.249 E17.84986
G1 X149.339 Y126.385 E17.96473
G1 X150.677 Y128.556 E18.08348
G1 X152.064 Y130.672 E18.20129
G1 X153.526 Y132.768 E18.32028
G1 X153.879 Y133.245 E18.34791
G1 X153.976 Y133.389 E18.356
G1 X154.415 Y133.99 E18.39065
G1 X155.104 Y134.983 E18.44693
G1 X155.549 Y135.666 E18.48489
G1 X155.75 Y135.992 E18.50272
G1 X156.16 Y136.697 E18.5407
G1 X156.457 Y137.239 E18.56948
G1 X156.824 Y137.953 E18.60686
G1 X156.995 Y138.307 E18.62517
G1 X157.364 Y139.127 E18.66704
G1 X157.696 Y139.937 E18.7078
G1 X157.917 Y140.518 E18.73674
G1 X158.187 Y141.288 E18.77474
G1 X158.326 Y141.725 E18.79609
G1 X158.514 Y142.364 E18.82711
G1 X158.647 Y142.862 E18.85111
G1 X158.793 Y143.465 E18.88
G1 X158.898 Y143.946 E18.90292
G1 X159.045 Y144.706 E18.93897
G1 X159.182 Y145.535 E18.97809
G1 X159.233 Y145.904 E18.99544
G1 X159.328 Y146.735 E19.03439
G1 X159.389 Y147.434 E19.06706
G1 X159.436 Y148.206 E19.10307
G1 X159.452 Y148.687 E19.12548
G1 X159.458 Y149.374 E19.15747
G1 X159.451 Y149.857 E19.17997
G1 X159.429 Y150.454 E19.20778
G1 X159.397 Y150.977 E19.23218
G1 X159.33 Y151.752 E19.2684
G1 X159.235 Y152.585 E19.30744
G1 X159.115 Y153.396 E19.34562
G1 X158.913 Y154.484 E19.39715
G1 X158.775 Y155.126 E19.42772
G1 X158.644 Y155.648 E19.45278
G1 X158.353 Y156.673 E19.5024
G1 X158.146 Y157.329 E19.53443
G1 X157.909 Y158.021 E19.56849
G1 X157.749 Y158.447 E19.58968
G1 X157.522 Y159.016 E19.6182
G1 X157.304 Y159.524 E19.64394
G1 X156.84 Y160.516 E19.69494
G1 X156.578 Y161.035 E19.72201
G1 X156.194 Y161.748 E19.75972
G1 X156.012 Y162.066 E19.77678
G1 X155.576 Y162.79 E19.81613
G1 X155.039 Y163.616 E19.86201
G1 X154.527 Y164.348 E19.9036
G1 X154.257 Y164.715 E19.92482
G1 X153.969 Y165.089 E19.9468
G1 X153.585 Y165.565 E19.97528
G1 X153.216 Y165.998 E20.00177
G1 X152.742 Y166.525 E20.03477
G1 X152.041 Y167.262 E20.08214
G1 X151.505 Y167.793 E20.11727
G1 X151.155 Y168.12 E20.13957
G1 X150.625 Y168.593 E20.17265
G1 X150.268 Y168.897 E20.19448
G1 X149.752 Y169.318 E20.22549
G1 X149.33 Y169.645 E20.25035
G1 X148.839 Y170.006 E20.27873
G1 X148.427 Y170.294 E20.30214
G1 X147.468 Y170.923 E20.35554
G1 X146.803 Y171.324 E20.3917
G1 X145.895 Y171.834 E20.44019
G1 X145.168 Y172.21 E20.4783
G1 X144.741 Y172.418 E20.50042
G1 X144.279 Y172.629 E20.52407
G1 X143.722 Y172.868 E20.55229
G1 X143.241 Y173.061 E20.57643
G1 X142.532 Y173.325 E20.61165
G1 X141.594 Y173.644 E20.65779
G1 X140.924 Y173.849 E20.69041
G1 X140.418 Y173.987 E20.71484
G1 X139.787 Y174.142 E20.74509
G1 X138.741 Y174.369 E20.79493
G1 X138.029 Y174.501 E20.82865
G1 X137.551 Y174.574 E20.85117
G1 X136.928 Y174.654 E20.88041
G1 X135.772 Y174.767 E20.9345
G1 X135.076 Y174.815 E20.96698
G1 X134.586 Y174.833 E20.98982
G1 X133.956 Y174.842 E21.01915
G1 X133.437 Y174.837 E21.04332
G1 X132.718 Y174.812 E21.07682
G1 X131.748 Y174.751 E21.12208
G1 X130.954 Y174.677 E21.15921
G1 X130.449 Y174.614 E21.18291
G1 X129.534 Y174.476 E21.226
G1 X128.673 Y174.328 E21.26668
G1 X127.618 Y174.134 E21.31663
G1 X125.076 Y173.741 E21.4364
G1 X122.605 Y173.43 E21.55237
G1 X120.049 Y173.183 E21.67194
G1 X117.563 Y173.012 E21.78797
G1 X114.994 Y172.909 E21.90769
G1 X112.516 Y172.879 E22.02308
G1 X109.929 Y172.922 E22.14356
G1 X107.458 Y173.032 E22.25874
G1 X104.921 Y173.218 E22.37719
G1 X102.409 Y173.473 E22.49476
G1 X100.67 Y173.707 E22.57646
G1 X98.627 Y173.965 E22.67235
G1 X96.438 Y174.21 E22.77491
G1 X95.778 Y174.274 E22.80579
G1 X94.859 Y174.322 E22.84864
G1 X93.723 Y174.273 E22.90159
G1 X93.089 Y174.211 E22.93125
G1 X90.812 Y173.954 E23.03795
G1 X90.101 Y173.864 E23.07132
G1 X89.193 Y173.709 E23.11421
G1 X88.103 Y173.412 E23.16682
G1 X87.277 Y173.137 E23.20736
G1 X85.44 Y172.494 E23.29798
G1 X84.601 Y172.187 E23.33958
G1 X83.751 Y171.832 E23.38248
G1 X82.755 Y171.298 E23.4351
G1 X82.022 Y170.852 E23.47505
G1 X80.353 Y169.803 E23.56684
G1 X79.652 Y169.349 E23.60573
G1 X78.901 Y168.815 E23.64864
G1 X78.048 Y168.074 E23.70125
G1 X77.438 Y167.482 E23.74084
G1 X75.908 Y165.952 E23.84159
G1 X75.438 Y165.468 E23.873
G1 X74.826 Y164.78 E23.91588
G1 X74.16 Y163.866 E23.96854
G1 X73.692 Y163.145 E24.00857
G1 X72.563 Y161.347 E24.10743
G1 X72.192 Y160.736 E24.14071
G1 X71.749 Y159.929 E24.18358
G1 X71.3 Y158.881 E24.23667
G1 X71.023 Y158.122 E24.27429
G1 X70.325 Y156.125 E24.37279
G1 X70.092 Y155.429 E24.40697
G1 X69.838 Y154.544 E24.44984
G1 X69.628 Y153.392 E24.50437
G1 X69.524 Y152.565 E24.54318
G1 X69.29 Y150.485 E24.64065
G1 X69.22 Y149.769 E24.67414
G1 X69.171 Y148.85 E24.717
G1 X69.219 Y147.723 E24.76952
G1 X69.301 Y146.886 E24.80868
G1 X69.542 Y144.75 E24.90878
G1 X69.629 Y144.065 E24.94093
G1 X69.785 Y143.158 E24.98378
G1 X70.084 Y142.064 E25.03659
G1 X70.344 Y141.285 E25.07483
G1 X71.012 Y139.374 E25.1691
G1 X71.297 Y138.592 E25.20785
G1 X71.65 Y137.742 E25.25071
G1 X72.196 Y136.723 E25.30454
G1 X72.642 Y135.991 E25.34445
G1 X73.659 Y134.371 E25.43352
G1 X74.305 Y133.374 E25.48884
G1 X75.699 Y131.153 E25.61094
G1 X76.975 Y128.99 E25.72788
G1 X78.192 Y126.783 E25.84523
G1 X79.347 Y124.543 E25.96259
G1 X80.461 Y122.225 E26.08234
G1 X81.479 Y119.941 E26.19878
G1 X82.437 Y117.617 E26.31583
G1 X83.345 Y115.224 E26.43501
G1 X84.177 Y112.829 E26.55307
G1 X84.921 Y110.479 E26.66785
G1 X85.632 Y107.987 E26.78851
G1 X86.252 Y105.55 E26.90561
G1 X86.805 Y103.095 E27.02279
G1 F1500 E20.52279
G0 F6000 X86.007 Y108.131
G1 F1500 E27.02279
G1 F1200 X86.646 Y105.623 E27.1433
G1 X87.201 Y103.156 E27.26104
G1 X87.689 Y100.661 E27.37942
G1 X88.043 Y98.584 E27.47753
G1 X88.234 Y97.701 E27.5196
G1 X88.502 Y96.839 E27.56163
G1 X88.845 Y96.003 E27.60371
G1 X89.261 Y95.202 E27.64574
G1 X89.747 Y94.44 E27.68782
G1 X90.297 Y93.724 E27.72986
G1 X90.909 Y93.06 E27.77191
G1 X91.577 Y92.452 E27.81397
G1 X92.297 Y91.906 E27.85605
G1 X93.061 Y91.426 E27.89806
G1 X93.866 Y91.015 E27.94015
G1 X94.703 Y90.677 E27.98218
G1 X95.567 Y90.415 E28.02422
G1 X96.451 Y90.23 E28.06627
G1 X97.348 Y90.124 E28.10833
G1 X97.811 Y90.1 E28.12992
G1 X98.418 Y90.087 E28.15819
G1 X127.381 Y90.087 E29.50683
G1 X128.225 Y90.098 E29.54613
G1 X129.127 Y90.151 E29.58821
G1 X130.02 Y90.283 E29.63024
G1 X130.898 Y90.494 E29.67229
G1 X131.754 Y90.782 E29.71434
G1 X132.581 Y91.144 E29.75638
G1 X133.373 Y91.579 E29.79845
G1 X134.124 Y92.081 E29.84052
G1 X134.827 Y92.648 E29.88257
G1 X135.477 Y93.275 E29.92463
G1 X136.069 Y93.957 E29.96668
G1 X136.599 Y94.688 E30.00872
G1 X137.061 Y95.464 E30.05077
G1 X137.454 Y96.277 E30.09282
G1 X137.772 Y97.122 E30.13486
G1 X138.049 Y98.145 E30.18421
G1 X138.619 Y100.786 E30.31002
G1 X139.217 Y103.222 E30.42682
G1 X139.905 Y105.709 E30.54697
G1 X140.651 Y108.143 E30.66551
G1 X141.465 Y110.551 E30.78387
G1 X142.349 Y112.941 E30.90253
G1 X143.293 Y115.286 E31.02024
G1 X144.298 Y117.591 E31.13733
G1 X145.399 Y119.938 E31.25804
G1 X146.522 Y122.16 E31.37397
G1 X147.75 Y124.433 E31.49427
G1 X148.995 Y126.589 E31.6102
G1 X150.351 Y128.789 E31.73054
G1 X151.728 Y130.89 E31.84751
G1 X153.197 Y132.994 E31.96699
G1 X153.557 Y133.482 E31.99523
G1 X153.652 Y133.624 E32.00319
G1 X154.092 Y134.226 E32.03791
