;FLAVOR:Marlin
;TIME:1313
;Filament used: 0.800026m
;Layer height: 0.28
;MINX:91.511
;MINY:91.511
;MINZ:0.28
;MAXX:143.489
;MAXY:143.489
;MAXZ:30.108
;Generated with Cura_SteamEngine main
M82 ;absolute extrusion mode
; Ender 3 Custom Start G-code
G92 E0 ; Reset Extruder
G28 ; Home all axes
M104 S175 ; Start heating up the nozzle most of the way
M190 S60 ; Start heating the bed, wait until target temperature reached
M109 S200 ; Finish heating the nozzle
G1 Z2.0 F3000 ; Move Z Axis up little to prevent scratching of Heat Bed
G1 X0.1 Y20 Z0.3 F5000.0 ; Move to start position
G1 X0.1 Y200.0 Z0.3 F1500.0 E15 ; Draw the first line
G1 X0.4 Y200.0 Z0.3 F5000.0 ; Move to side a little
G1 X0.4 Y20 Z0.3 F1500.0 E30 ; Draw the second line
G92 E0 ; Reset Extruder
G1 Z2.0 F3000 ; Move Z Axis up little to prevent scratching of Heat Bed
G1 X5 Y20 Z0.3 F5000.0 ; Move over to prevent blob squish
G92 E0
G92 E0
G1 F1500 E-6.5
;LAYER_COUNT:107
;LAYER:0
M107
G0 F6000 X98.443 Y99.921 Z0.28
G0 X93.431 Y107.851
;TYPE:SKIRT
G1 F1500 E0
G1 F1200 X93.674 Y107.191 E0.03275
G1 X94.036 Y106.326 E0.07641
G1 X94.604 Y105.267 E0.13237
G1 X95.055 Y104.529 E0.17264
G1 X96.158 Y102.777 E0.26904
G1 X96.554 Y102.166 E0.30295
G1 X97.097 Y101.402 E0.34659
G1 X97.884 Y100.496 E0.40247
G1 X98.443 Y99.921 E0.43981
G1 X99.996 Y98.37 E0.54202
G1 X100.478 Y97.901 E0.57333
G1 X101.177 Y97.276 E0.61699
G1 X102.154 Y96.562 E0.67334
G1 X102.737 Y96.183 E0.70572
G1 X104.672 Y94.965 E0.81219
G1 X105.261 Y94.606 E0.8443
G1 X106.082 Y94.153 E0.88797
G1 X107.184 Y93.677 E0.94386
G1 X107.841 Y93.435 E0.97647
G1 X109.986 Y92.684 E1.08229
G1 X110.683 Y92.451 E1.11651
G1 X111.584 Y92.192 E1.16016
G1 X112.772 Y91.973 E1.21641
G1 X113.373 Y91.896 E1.24463
G1 X115.782 Y91.625 E1.35751
G1 X116.442 Y91.561 E1.38839
G1 X117.379 Y91.511 E1.43208
G1 X118.574 Y91.562 E1.48777
G1 X119.39 Y91.643 E1.52596
G1 X121.405 Y91.87 E1.62038
G1 X122.235 Y91.975 E1.65933
G1 X123.159 Y92.134 E1.70299
G1 X124.331 Y92.455 E1.75957
G1 X124.988 Y92.675 E1.79184
G1 X127.129 Y93.424 E1.89745
G1 X127.782 Y93.663 E1.92983
G1 X128.648 Y94.023 E1.9735
G1 X129.723 Y94.599 E2.03029
G1 X130.469 Y95.054 E2.07098
G1 X132.219 Y96.155 E2.16725
G1 X132.826 Y96.548 E2.20093
G1 X133.591 Y97.091 E2.24461
G1 X134.502 Y97.882 E2.30079
G1 X135.079 Y98.443 E2.33826
G1 X136.622 Y99.988 E2.43994
G1 X137.091 Y100.469 E2.47122
G1 X137.716 Y101.167 E2.51484
G1 X138.442 Y102.16 E2.57212
G1 X138.905 Y102.875 E2.61179
G1 X140.042 Y104.685 E2.71132
G1 X140.4 Y105.274 E2.74341
G1 X140.852 Y106.095 E2.78705
G1 X141.315 Y107.166 E2.84138
G1 X141.558 Y107.822 E2.87396
G1 X142.314 Y109.981 E2.98048
G1 X142.548 Y110.68 E3.0148
G1 X142.808 Y111.581 E3.05847
G1 X143.031 Y112.801 E3.11621
G1 X143.123 Y113.536 E3.15071
G1 X143.357 Y115.611 E3.24794
G1 X143.438 Y116.429 E3.28622
G1 X143.489 Y117.366 E3.32991
G1 X143.439 Y118.561 E3.3856
G1 X143.357 Y119.391 E3.42444
G1 X143.13 Y121.405 E3.51881
G1 X143.025 Y122.233 E3.55768
G1 X142.867 Y123.157 E3.60133
G1 X142.543 Y124.335 E3.65822
G1 X142.275 Y125.131 E3.69733
G1 X141.574 Y127.135 E3.79619
G1 X141.335 Y127.787 E3.82852
G1 X140.975 Y128.653 E3.87219
G1 X140.401 Y129.723 E3.92873
G1 X139.946 Y130.469 E3.96942
G1 X138.924 Y132.095 E4.05885
G1 X138.438 Y132.845 E4.10046
G1 X137.894 Y133.609 E4.14413
G1 X137.106 Y134.514 E4.20001
G1 X136.559 Y135.076 E4.23653
G1 X135.004 Y136.63 E4.33889
G1 X134.522 Y137.099 E4.37021
G1 X133.823 Y137.724 E4.41387
G1 X132.846 Y138.438 E4.47022
G1 X132.263 Y138.817 E4.5026
G1 X130.328 Y140.035 E4.60906
G1 X129.739 Y140.394 E4.64118
G1 X128.918 Y140.847 E4.68484
G1 X127.816 Y141.323 E4.74074
G1 X127.159 Y141.565 E4.77334
G1 X125.014 Y142.316 E4.87917
G1 X124.317 Y142.549 E4.91339
G1 X123.416 Y142.808 E4.95704
G1 X122.228 Y143.027 E5.01329
G1 X121.627 Y143.104 E5.04151
G1 X119.208 Y143.376 E5.15485
G1 X118.542 Y143.44 E5.18601
G1 X117.606 Y143.489 E5.22965
G1 X116.41 Y143.437 E5.2854
G1 X115.61 Y143.357 E5.32283
G1 X113.595 Y143.13 E5.41725
G1 X112.765 Y143.025 E5.45621
G1 X111.841 Y142.866 E5.49987
G1 X110.665 Y142.543 E5.55665
G1 X109.867 Y142.275 E5.59585
G1 X108.022 Y141.63 E5.68686
G1 X107.213 Y141.334 E5.72697
G1 X106.346 Y140.975 E5.77067
G1 X105.272 Y140.399 E5.82742
G1 X104.531 Y139.946 E5.86786
G1 X102.781 Y138.845 E5.96413
G1 X102.174 Y138.452 E5.9978
G1 X101.409 Y137.909 E6.04149
G1 X100.497 Y137.118 E6.0977
G1 X100.046 Y136.681 E6.12694
G1 X98.37 Y135.004 E6.23734
G1 X97.901 Y134.522 E6.26866
G1 X97.276 Y133.823 E6.31232
G1 X96.562 Y132.846 E6.36867
G1 X96.183 Y132.263 E6.40105
G1 X94.957 Y130.315 E6.50822
G1 X94.596 Y129.721 E6.54059
G1 X94.143 Y128.899 E6.58429
G1 X93.67 Y127.799 E6.64005
G1 X93.431 Y127.148 E6.67234
G1 X92.686 Y125.019 E6.77737
G1 X92.452 Y124.32 E6.81169
G1 X92.192 Y123.419 E6.85536
G1 X91.97 Y122.213 E6.91246
G1 X91.894 Y121.614 E6.94057
G1 X91.626 Y119.226 E7.05247
G1 X91.562 Y118.571 E7.08311
G1 X91.511 Y117.634 E7.12681
G1 X91.561 Y116.439 E7.1825
G1 X91.643 Y115.607 E7.22143
G1 X91.877 Y113.535 E7.31852
G1 X91.973 Y112.775 E7.35419
G1 X92.131 Y111.851 E7.39784
G1 X92.457 Y110.662 E7.45525
G1 X92.725 Y109.867 E7.49432
G1 X93.431 Y107.851 E7.59378
G1 F1500 E1.09378
G0 F6000 X92.672 Y113.624
G1 F1500 E7.59378
G1 F1200 X92.767 Y112.876 E7.62889
G1 X92.92 Y111.986 E7.67094
G1 X93.216 Y110.917 E7.72259
G1 X93.48 Y110.131 E7.7612
G1 X94.125 Y108.286 E7.85221
G1 X94.425 Y107.468 E7.89278
G1 X94.774 Y106.635 E7.93483
G1 X95.288 Y105.683 E7.98521
G1 X95.733 Y104.955 E8.02494
G1 X96.83 Y103.212 E8.12084
G1 X97.226 Y102.601 E8.15474
G1 X97.75 Y101.866 E8.19677
G1 X98.459 Y101.052 E8.24704
G1 X99.008 Y100.487 E8.28372
G1 X100.457 Y99.039 E8.37911
G1 X101.036 Y98.475 E8.41675
G1 X101.71 Y97.874 E8.4588
G1 X102.59 Y97.233 E8.50949
G1 X103.173 Y96.854 E8.54187
G1 X105.088 Y95.648 E8.64725
G1 X105.677 Y95.289 E8.67937
G1 X106.469 Y94.854 E8.72144
G1 X107.46 Y94.428 E8.77167
G1 X108.276 Y94.129 E8.81214
G1 X110.239 Y93.443 E8.90896
G1 X110.936 Y93.21 E8.94319
G1 X111.805 Y92.962 E8.98527
G1 X112.874 Y92.767 E9.03586
G1 X113.632 Y92.671 E9.07144
G1 X115.705 Y92.438 E9.16858
G1 X116.52 Y92.358 E9.20671
G1 X117.421 Y92.31 E9.24872
G1 X118.496 Y92.358 E9.29883
G1 X119.151 Y92.422 E9.32947
G1 X121.316 Y92.665 E9.43092
G1 X122.133 Y92.769 E9.46927
G1 X123.023 Y92.923 E9.51133
G1 X124.077 Y93.214 E9.56224
G1 X124.862 Y93.478 E9.60081
G1 X126.854 Y94.175 E9.69908
G1 X127.507 Y94.414 E9.73145
G1 X128.34 Y94.762 E9.77349
G1 X129.307 Y95.282 E9.82462
G1 X130.043 Y95.731 E9.86476
G1 X131.785 Y96.827 E9.9606
G1 X132.392 Y97.22 E9.99427
G1 X133.127 Y97.744 E10.0363
G1 X133.946 Y98.456 E10.08683
G1 X134.396 Y98.892 E10.11601
G1 X136.049 Y100.546 E10.22489
G1 X136.518 Y101.027 E10.25618
G1 X137.119 Y101.701 E10.29822
G1 X137.771 Y102.595 E10.34975
G1 X138.228 Y103.301 E10.38891
G1 X139.276 Y104.967 E10.48056
G1 X139.716 Y105.689 E10.51993
G1 X140.151 Y106.481 E10.562
G1 X140.565 Y107.444 E10.61081
G1 X140.808 Y108.1 E10.64339
G1 X141.555 Y110.235 E10.74871
G1 X141.789 Y110.934 E10.78303
G1 X142.038 Y111.802 E10.82508
G1 X142.237 Y112.901 E10.87709
G1 X142.328 Y113.626 E10.91111
G1 X142.578 Y115.852 E11.01542
G1 X142.642 Y116.507 E11.04606
G1 X142.69 Y117.409 E11.08812
G1 X142.642 Y118.483 E11.13818
G1 X142.562 Y119.301 E11.17645
G1 X142.317 Y121.466 E11.27791
G1 X142.232 Y122.131 E11.30912
G1 X142.078 Y123.021 E11.35118
G1 X141.785 Y124.081 E11.40239
G1 X141.562 Y124.746 E11.43505
G1 X140.823 Y126.86 E11.53933
G1 X140.584 Y127.512 E11.57166
G1 X140.236 Y128.345 E11.6137
G1 X139.718 Y129.307 E11.66458
G1 X139.269 Y130.043 E11.70472
G1 X138.247 Y131.669 E11.79415
G1 X137.767 Y132.409 E11.83522
G1 X137.242 Y133.144 E11.87728
G1 X136.532 Y133.957 E11.92754
G1 X136.099 Y134.403 E11.95648
G1 X134.446 Y136.056 E12.06534
G1 X133.964 Y136.525 E12.09665
G1 X133.29 Y137.126 E12.1387
G1 X132.41 Y137.767 E12.1894
G1 X131.827 Y138.146 E12.22178
G1 X129.912 Y139.352 E12.32716
G1 X129.323 Y139.711 E12.35927
G1 X128.531 Y140.146 E12.40135
G1 X127.54 Y140.572 E12.45158
G1 X126.724 Y140.871 E12.49204
G1 X124.761 Y141.557 E12.58887
G1 X124.064 Y141.79 E12.62309
G1 X123.195 Y142.038 E12.66517
G1 X122.126 Y142.233 E12.71577
G1 X121.368 Y142.329 E12.75135
G1 X119.132 Y142.579 E12.85611
G1 X118.466 Y142.643 E12.88727
G1 X117.564 Y142.69 E12.92933
G1 X116.489 Y142.641 E12.97943
G1 X115.699 Y142.562 E13.0164
G1 X113.684 Y142.335 E13.11082
G1 X112.867 Y142.231 E13.14917
G1 X111.977 Y142.077 E13.19123
G1 X110.919 Y141.785 E13.24234
G1 X110.131 Y141.52 E13.28105
G1 X108.286 Y140.875 E13.37206
G1 X107.488 Y140.583 E13.41163
G1 X106.654 Y140.235 E13.45371
G1 X105.689 Y139.716 E13.50473
G1 X104.957 Y139.269 E13.54467
G1 X103.215 Y138.173 E13.6405
G1 X102.608 Y137.78 E13.67417
G1 X101.873 Y137.256 E13.7162
G1 X101.054 Y136.543 E13.76677
G1 X100.486 Y135.991 E13.80365
G1 X99.039 Y134.543 E13.89897
G1 X98.475 Y133.964 E13.93661
G1 X97.874 Y133.29 E13.97865
G1 X97.233 Y132.41 E14.02935
G1 X96.854 Y131.827 E14.06173
G1 X95.64 Y129.899 E14.16782
G1 X95.279 Y129.305 E14.20019
G1 X94.845 Y128.514 E14.2422
G1 X94.421 Y127.523 E14.29239
G1 X94.129 Y126.724 E14.332
G1 X93.445 Y124.765 E14.42862
G1 X93.211 Y124.066 E14.46294
G1 X92.962 Y123.198 E14.50499
G1 X92.764 Y122.112 E14.55639
G1 X92.688 Y121.513 E14.58451
G1 X92.422 Y119.148 E14.69533
G1 X92.358 Y118.493 E14.72597
G1 X92.31 Y117.591 E14.76803
G1 X92.358 Y116.517 E14.81809
G1 X92.438 Y115.696 E14.8565
G1 X92.672 Y113.624 E14.9536
G1 F1500 E8.4536
G0 F6000 X91.911 Y117.613
G1 F1500 E14.9536
G1 F1200 X91.959 Y116.478 E15.00649
G1 X92.023 Y115.818 E15.03737
G1 X92.275 Y113.579 E15.14229
G1 X92.37 Y112.826 E15.17763
G1 X92.526 Y111.918 E15.22053
G1 X92.837 Y110.789 E15.27506
G1 X93.103 Y109.999 E15.31387
G1 X93.748 Y108.154 E15.40488
G1 X94.05 Y107.33 E15.44575
G1 X94.405 Y106.48 E15.48864
G1 X94.946 Y105.475 E15.54179
G1 X95.394 Y104.742 E15.58179
G1 X96.416 Y103.117 E15.67117
G1 X96.89 Y102.384 E15.71182
G1 X97.424 Y101.634 E15.75469
G1 X98.171 Y100.774 E15.80773
G1 X98.725 Y100.204 E15.84475
G1 X100.174 Y98.756 E15.94013
G1 X100.757 Y98.188 E15.97803
G1 X101.444 Y97.575 E16.02091
G1 X102.372 Y96.898 E16.07439
G1 X103.085 Y96.435 E16.11398
G1 X104.75 Y95.387 E16.20559
G1 X105.469 Y94.948 E16.24482
G1 X106.275 Y94.503 E16.28769
G1 X107.322 Y94.052 E16.34077
G1 X108.144 Y93.751 E16.38153
G1 X109.974 Y93.111 E16.47181
G1 X110.809 Y92.831 E16.51281
G1 X111.694 Y92.577 E16.55569
G1 X112.823 Y92.37 E16.60913
G1 X113.587 Y92.273 E16.64499
G1 X115.821 Y92.023 E16.74967
G1 X116.481 Y91.959 E16.78055
G1 X117.4 Y91.911 E16.8234
G1 X118.535 Y91.96 E16.8763
G1 X119.19 Y92.024 E16.90694
G1 X121.52 Y92.287 E17.01612
G1 X122.184 Y92.372 E17.04729
G1 X123.091 Y92.528 E17.09015
G1 X124.204 Y92.835 E17.14391
G1 X124.994 Y93.1 E17.18271
G1 X126.847 Y93.748 E17.27412
G1 X127.644 Y94.039 E17.31363
G1 X128.494 Y94.392 E17.35648
G1 X129.515 Y94.94 E17.41044
G1 X130.129 Y95.314 E17.44392
G1 X132.002 Y96.491 E17.54692
G1 X132.609 Y96.884 E17.58059
G1 X133.359 Y97.418 E17.62346
G1 X134.224 Y98.169 E17.6768
G1 X134.796 Y98.725 E17.71395
G1 X136.244 Y100.174 E17.80933
G1 X136.804 Y100.748 E17.84668
G1 X137.418 Y101.434 E17.88954
G1 X138.107 Y102.378 E17.94396
G1 X138.486 Y102.962 E17.97638
G1 X139.7 Y104.892 E18.08255
G1 X140.058 Y105.481 E18.11465
G1 X140.502 Y106.288 E18.15754
G1 X140.94 Y107.305 E18.2091
G1 X141.249 Y108.144 E18.25073
G1 X141.935 Y110.108 E18.3476
G1 X142.169 Y110.807 E18.38192
G1 X142.423 Y111.692 E18.4248
G1 X142.634 Y112.851 E18.47965
G1 X142.725 Y113.581 E18.51391
G1 X142.976 Y115.813 E18.61849
G1 X143.04 Y116.468 E18.64914
G1 X143.089 Y117.387 E18.69199
G1 X143.041 Y118.522 E18.74489
G1 X142.977 Y119.182 E18.77576
G1 X142.732 Y121.36 E18.87782
G1 X142.628 Y122.182 E18.9164
G1 X142.472 Y123.089 E18.95926
G1 X142.164 Y124.208 E19.0133
G1 X141.898 Y124.999 E19.05216
G1 X141.253 Y126.845 E19.14321
G1 X140.959 Y127.649 E19.18307
G1 X140.605 Y128.499 E19.22595
G1 X140.06 Y129.515 E19.27963
G1 X139.686 Y130.129 E19.31311
G1 X138.585 Y131.882 E19.4095
G1 X138.102 Y132.627 E19.45085
G1 X137.568 Y133.377 E19.49372
G1 X136.819 Y134.236 E19.54678
G1 X136.386 Y134.682 E19.57573
G1 X134.725 Y136.343 E19.68511
G1 X134.243 Y136.812 E19.71643
G1 X133.556 Y137.425 E19.7593
G1 X132.628 Y138.102 E19.81279
G1 X131.915 Y138.565 E19.85237
G1 X130.25 Y139.613 E19.94398
G1 X129.531 Y140.052 E19.98321
G1 X128.725 Y140.497 E20.02608
G1 X127.678 Y140.948 E20.07916
G1 X126.856 Y141.249 E20.11992
G1 X125.026 Y141.889 E20.2102
G1 X124.191 Y142.169 E20.25121
G1 X123.306 Y142.423 E20.29408
G1 X122.177 Y142.63 E20.34753
G1 X121.413 Y142.727 E20.38339
G1 X119.34 Y142.96 E20.48052
G1 X118.504 Y143.041 E20.51963
G1 X117.585 Y143.09 E20.56249
G1 X116.45 Y143.039 E20.61539
G1 X115.801 Y142.975 E20.64576
G1 X113.48 Y142.713 E20.75452
G1 X112.816 Y142.628 E20.78569
G1 X111.909 Y142.472 E20.82854
G1 X110.792 Y142.164 E20.8825
G1 X109.999 Y141.897 E20.92146
G1 X108.005 Y141.199 E21.01983
G1 X107.35 Y140.959 E21.05231
G1 X106.5 Y140.605 E21.09519
G1 X105.48 Y140.057 E21.1491
G1 X104.868 Y139.684 E21.18248
G1 X102.998 Y138.509 E21.28532
G1 X102.391 Y138.116 E21.31899
G1 X101.641 Y137.582 E21.36186
G1 X100.776 Y136.831 E21.4152
G1 X100.203 Y136.274 E21.45241
G1 X98.756 Y134.826 E21.54773
G1 X98.188 Y134.243 E21.58563
G1 X97.575 Y133.556 E21.6285
G1 X96.898 Y132.628 E21.68199
G1 X96.436 Y131.916 E21.72151
G1 X95.387 Y130.25 E21.81318
G1 X94.938 Y129.513 E21.85337
G1 X94.494 Y128.706 E21.89626
G1 X94.045 Y127.661 E21.94922
G1 X93.806 Y127.01 E21.98151
G1 X93.065 Y124.892 E22.086
G1 X92.831 Y124.193 E22.12032
G1 X92.577 Y123.308 E22.16319
G1 X92.367 Y122.162 E22.21744
G1 X92.273 Y121.413 E22.25259
G1 X92.04 Y119.34 E22.34973
G1 X91.96 Y118.532 E22.38754
G1 X91.911 Y117.613 E22.43039
G1 F1500 E15.93039
;MESH:Cylinder_.1tolerance.stl
G0 F6000 X101.846 Y117.621
G0 X102.922 Y117.5
G0 X117.243 Y117.501
;TYPE:WALL-INNER
G1 F1500 E22.43039
G1 F960 X117.297 Y117.655 E22.43989
G1 X117.392 Y117.733 E22.44704
G1 X117.608 Y117.734 E22.45962
G1 X117.75 Y117.563 E22.47255
G1 X117.733 Y117.392 E22.48256
G1 X117.561 Y117.25 E22.49554
G1 X117.439 Y117.25 E22.50264
G1 X117.315 Y117.326 E22.5111
G1 X117.243 Y117.501 E22.52212
G0 F6000 X117.805 Y118.142
G1 F1200 X118.057 Y117.937 E22.53725
G1 X118.191 Y117.663 E22.55145
G1 X118.192 Y117.339 E22.56653
G1 X118.058 Y117.063 E22.58082
G1 X117.805 Y116.858 E22.59598
G1 X117.661 Y116.808 E22.60308
G1 X117.339 Y116.808 E22.61808
G1 X117.195 Y116.858 E22.62517
G1 X116.942 Y117.063 E22.64034
G1 X116.81 Y117.337 E22.6545
G1 X116.79 Y117.501 E22.66219
G1 X116.858 Y117.803 E22.67661
G1 X116.943 Y117.938 E22.68403
G1 X117.195 Y118.141 E22.6991
G1 X117.5 Y118.209 E22.71365
G1 X117.805 Y118.142 E22.72819
G0 F6000 X116.813 Y118.372
G1 F1200 X117.021 Y118.503 E22.73964
G1 X117.249 Y118.583 E22.75089
G1 X117.5 Y118.612 E22.76266
G1 X117.751 Y118.584 E22.77442
G1 X117.98 Y118.504 E22.78571
G1 X118.188 Y118.373 E22.79716
G1 X118.372 Y118.188 E22.80931
G1 X118.505 Y117.978 E22.82088
G1 X118.584 Y117.753 E22.83199
G1 X118.607 Y117.505 E22.84358
G1 X118.584 Y117.25 E22.85551
G1 X118.504 Y117.02 E22.86684
G1 X118.373 Y116.812 E22.87829
G1 X118.188 Y116.627 E22.89047
G1 X117.98 Y116.496 E22.90192
G1 X117.751 Y116.416 E22.91321
G1 X117.5 Y116.388 E22.92497
G1 X117.249 Y116.416 E22.93673
G1 X117.02 Y116.496 E22.94803
G1 X116.812 Y116.627 E22.95948
G1 X116.628 Y116.812 E22.97163
G1 X116.496 Y117.023 E22.98321
G1 X116.417 Y117.247 E22.99427
G1 X116.388 Y117.501 E23.00618
G1 X116.416 Y117.752 E23.01794
G1 X116.495 Y117.978 E23.02909
G1 X116.628 Y118.189 E23.0407
G1 X116.813 Y118.372 E23.05282
G0 F6000 X117.841 Y118.977
G1 F1200 X118.155 Y118.867 E23.06831
G1 X118.439 Y118.688 E23.08394
G1 X118.686 Y118.439 E23.10027
G1 X118.868 Y118.152 E23.1161
G1 X118.976 Y117.842 E23.13138
G1 X119.01 Y117.505 E23.14716
G1 X118.977 Y117.16 E23.16329
G1 X118.867 Y116.846 E23.17879
G1 X118.687 Y116.561 E23.19448
G1 X118.439 Y116.312 E23.21085
G1 X118.155 Y116.133 E23.22648
G1 X117.841 Y116.023 E23.24197
G1 X117.5 Y115.986 E23.25794
G1 X117.159 Y116.023 E23.27391
