;FLAVOR:Marlin
;TIME:4737
;Filament used: 4.48855m
;Layer height: 0.28
;MINX:54.507
;MINY:53.298
;MINZ:0.28
;MAXX:180.398
;MAXY:164.099
;MAXZ:2.24
;Generated with Cura_SteamEngine main
M82 ;absolute extrusion mode
; Ender 3 Custom Start G-code
G92 E0 ; Reset Extruder
G28 ; Home all axes
M104 S175 ; Start heating up the nozzle most of the way
M190 S60 ; Start heating the bed, wait until target temperature reached
M109 S200 ; Finish heating the nozzle
G1 Z2.0 F3000 ; Move Z Axis up little to prevent scratching of Heat Bed
G1 X0.1 Y20 Z0.3 F5000.0 ; Move to start position
G1 X0.1 Y200.0 Z0.3 F1500.0 E15 ; Draw the first line
G1 X0.4 Y200.0 Z0.3 F5000.0 ; Move to side a little
G1 X0.4 Y20 Z0.3 F1500.0 E30 ; Draw the second line
G92 E0 ; Reset Extruder
G1 Z2.0 F3000 ; Move Z Axis up little to prevent scratching of Heat Bed
G1 X5 Y20 Z0.3 F5000.0 ; Move over to prevent blob squish
G92 E0
G92 E0
G1 F1500 E-6.5
;LAYER_COUNT:8
;LAYER:0
M107
G0 F6000 X59.369 Y59.251 Z0.28
G0 X56.783 Y64.182
;TYPE:SKIRT
G1 F1500 E0
G1 F1200 X57.033 Y63.278 E0.04367
G1 X57.359 Y62.399 E0.08733
G1 X57.759 Y61.55 E0.13103
G1 X58.229 Y60.739 E0.17468
G1 X58.767 Y59.971 E0.21834
G1 X59.369 Y59.251 E0.26204
G1 X60.029 Y58.585 E0.3057
G1 X60.744 Y57.978 E0.34937
G1 X61.508 Y57.434 E0.39305
G1 X62.316 Y56.957 E0.43674
G1 X63.161 Y56.55 E0.48041
G1 X63.797 Y56.3 E0.51223
G1 X65.114 Y55.829 E0.57736
G1 X67.281 Y55.036 E0.68481
G1 X69.095 Y54.331 E0.77543
G1 X69.983 Y54.028 E0.81912
G1 X70.893 Y53.803 E0.86277
G1 X71.819 Y53.656 E0.90643
G1 X72.77 Y53.587 E0.95083
G1 X73.399 Y53.574 E0.98012
G1 X87.37 Y53.575 E1.63067
G1 X88.067 Y53.585 E1.66313
G1 X88.844 Y53.624 E1.69935
G1 X91.618 Y53.861 E1.82899
G1 X94.151 Y54.003 E1.94713
G1 X96.683 Y54.075 E2.06507
G1 X99.17 Y54.075 E2.18088
G1 X101.719 Y54.003 E2.29962
G1 X104.218 Y53.86 E2.41617
G1 X106.738 Y53.646 E2.53394
G1 X109.157 Y53.379 E2.64726
G1 X110.104 Y53.311 E2.69147
G1 X110.733 Y53.298 E2.72076
G1 X124.608 Y53.299 E3.36684
G1 X125.309 Y53.309 E3.39949
G1 X126.245 Y53.362 E3.44314
G1 X127.174 Y53.495 E3.48684
G1 X128.239 Y53.75 E3.53783
G1 X131.295 Y54.643 E3.68608
G1 X133.724 Y55.275 E3.80295
G1 X136.165 Y55.837 E3.91959
G1 X138.683 Y56.342 E4.03917
G1 X141.105 Y56.756 E4.15359
G1 X143.609 Y57.113 E4.27136
G1 X146.109 Y57.397 E4.38852
G1 X148.651 Y57.612 E4.50731
G1 X151.11 Y57.752 E4.622
G1 X153.668 Y57.824 E4.74116
G1 X156.157 Y57.824 E4.85706
G1 X158.759 Y57.75 E4.97827
G1 X161.184 Y57.62 E5.09135
G1 X162.131 Y57.593 E5.13546
G1 X168.755 Y57.594 E5.4439
G1 X169.453 Y57.604 E5.47641
G1 X170.389 Y57.658 E5.52006
G1 X171.317 Y57.79 E5.56371
G1 X172.231 Y58.002 E5.6074
G1 X173.123 Y58.291 E5.65106
G1 X173.988 Y58.654 E5.69474
G1 X174.818 Y59.09 E5.7384
G1 X175.609 Y59.595 E5.7821
G1 X176.353 Y60.166 E5.82577
G1 X177.046 Y60.798 E5.86944
G1 X177.683 Y61.486 E5.9131
G1 X178.258 Y62.227 E5.95677
G1 X178.769 Y63.013 E6.00043
G1 X179.211 Y63.841 E6.04413
G1 X179.58 Y64.703 E6.08779
G1 X179.875 Y65.593 E6.13145
G1 X180.093 Y66.505 E6.17511
G1 X180.233 Y67.433 E6.21881
G1 X180.291 Y68.294 E6.259
G1 X180.304 Y68.923 E6.28829
G1 X180.303 Y75.545 E6.59664
G1 X180.293 Y76.244 E6.62919
G1 X180.275 Y76.728 E6.65174
G1 X180.096 Y79.792 E6.79466
G1 X180.025 Y82.275 E6.91033
G1 X180.025 Y84.8 E7.0279
G1 X180.096 Y87.329 E7.14571
G1 X180.276 Y90.47 E7.29221
G1 X180.304 Y91.43 E7.33693
G1 X180.303 Y98.065 E7.64588
G1 X180.292 Y98.782 E7.67927
G1 X180.204 Y100.012 E7.73669
G1 X180.059 Y101.134 E7.78937
G1 X179.964 Y101.801 E7.82074
G1 X179.682 Y104.28 E7.93692
G1 X179.469 Y106.781 E8.0538
G1 X179.324 Y109.313 E8.17189
G1 X179.253 Y111.798 E8.28765
G1 X179.253 Y114.322 E8.40518
G1 X179.324 Y116.847 E8.5228
G1 X179.466 Y119.367 E8.64033
G1 X179.678 Y121.873 E8.75743
G1 X179.966 Y124.412 E8.87642
G1 X180.284 Y126.71 E8.98444
G1 X180.383 Y127.884 E9.0393
G1 X180.398 Y128.547 E9.07018
G1 X180.397 Y142.517 E9.72069
G1 X180.387 Y143.219 E9.75338
G1 X180.334 Y144.155 E9.79703
G1 X180.201 Y145.083 E9.84068
G1 X180 Y145.958 E9.88249
G1 X179.837 Y146.548 E9.91099
G1 X179.334 Y148.277 E9.99484
G1 X178.694 Y150.739 E10.11329
G1 X178.122 Y153.215 E10.23162
G1 X177.872 Y154.119 E10.27529
G1 X177.546 Y154.998 E10.31895
G1 X177.147 Y155.847 E10.36263
G1 X176.676 Y156.658 E10.4063
G1 X176.139 Y157.426 E10.44993
G1 X175.537 Y158.146 E10.49364
G1 X174.877 Y158.812 E10.5373
G1 X174.162 Y159.419 E10.58097
G1 X173.398 Y159.963 E10.62464
G1 X172.591 Y160.44 E10.66829
G1 X171.746 Y160.847 E10.71196
G1 X171.078 Y161.108 E10.74536
G1 X170.082 Y161.461 E10.79456
G1 X169.809 Y161.567 E10.8082
G1 X168.159 Y162.16 E10.88984
G1 X167.182 Y162.547 E10.93877
G1 X166.992 Y162.613 E10.94814
G1 X165.78 Y163.08 E11.00862
G1 X164.891 Y163.379 E11.0523
G1 X163.98 Y163.602 E11.09597
G1 X163.053 Y163.746 E11.13965
G1 X162.136 Y163.811 E11.18246
G1 X161.507 Y163.824 E11.21175
G1 X147.536 Y163.823 E11.8623
G1 X146.839 Y163.813 E11.89476
G1 X146.066 Y163.775 E11.9308
G1 X143.229 Y163.534 E12.06337
G1 X140.717 Y163.393 E12.18053
G1 X138.196 Y163.322 E12.29796
G1 X135.673 Y163.324 E12.41544
G1 X133.183 Y163.395 E12.53144
G1 X130.665 Y163.539 E12.64888
G1 X128.14 Y163.755 E12.76688
G1 X125.698 Y164.024 E12.88128
G1 X124.802 Y164.086 E12.9231
G1 X124.173 Y164.099 E12.95239
G1 X110.298 Y164.098 E13.59847
G1 X109.597 Y164.088 E13.63112
G1 X108.661 Y164.035 E13.67477
G1 X107.732 Y163.902 E13.71847
G1 X106.662 Y163.646 E13.7697
G1 X103.641 Y162.761 E13.91628
G1 X101.229 Y162.133 E14.03234
G1 X98.768 Y161.565 E14.14995
G1 X96.292 Y161.068 E14.26754
G1 X93.816 Y160.643 E14.38452
G1 X91.334 Y160.288 E14.50127
G1 X88.849 Y160.005 E14.61773
G1 X86.32 Y159.789 E14.73592
G1 X83.802 Y159.645 E14.85336
G1 X81.312 Y159.574 E14.96935
G1 X78.788 Y159.572 E15.08688
G1 X76.204 Y159.644 E15.20725
G1 X73.718 Y159.778 E15.32317
G1 X72.774 Y159.805 E15.36715
G1 X66.151 Y159.804 E15.67554
G1 X65.453 Y159.794 E15.70805
G1 X64.517 Y159.74 E15.7517
G1 X63.589 Y159.608 E15.79535
G1 X62.675 Y159.396 E15.83904
G1 X61.783 Y159.107 E15.8827
G1 X60.918 Y158.744 E15.92638
G1 X60.088 Y158.308 E15.97004
G1 X59.297 Y157.803 E16.01374
G1 X58.553 Y157.232 E16.05741
G1 X57.86 Y156.6 E16.10108
G1 X57.223 Y155.912 E16.14474
G1 X56.648 Y155.171 E16.18841
G1 X56.137 Y154.385 E16.23207
G1 X55.695 Y153.557 E16.27577
G1 X55.326 Y152.695 E16.31943
G1 X55.031 Y151.805 E16.36309
G1 X54.813 Y150.893 E16.40675
G1 X54.673 Y149.965 E16.45045
G1 X54.615 Y149.093 E16.49115
G1 X54.602 Y148.463 E16.52049
G1 X54.603 Y141.85 E16.82842
G1 X54.613 Y141.157 E16.86069
G1 X54.631 Y140.675 E16.88315
G1 X54.81 Y137.61 E17.02611
G1 X54.881 Y135.127 E17.14178
G1 X54.881 Y132.602 E17.25935
G1 X54.81 Y130.073 E17.37716
G1 X54.615 Y126.597 E17.53927
G1 X54.602 Y125.968 E17.56857
G1 X54.603 Y119.332 E17.87757
G1 X54.614 Y118.615 E17.91096
G1 X54.703 Y117.382 E17.96852
G1 X54.951 Y115.519 E18.05604
G1 X55.234 Y113.001 E18.17402
G1 X55.444 Y110.506 E18.29061
G1 X55.584 Y107.988 E18.40804
G1 X55.653 Y105.466 E18.52552
G1 X55.65 Y102.936 E18.64333
G1 X55.578 Y100.455 E18.7589
G1 X55.43 Y97.896 E18.87826
G1 X55.219 Y95.449 E18.99262
G1 X54.752 Y91.609 E19.17275
G1 X54.625 Y90.715 E19.21479
G1 X54.52 Y89.479 E19.27255
G1 X54.507 Y88.85 E19.30185
G1 X54.507 Y75.037 E19.94504
G1 X54.521 Y74.137 E19.98695
G1 X54.576 Y73.2 E20.03066
G1 X54.711 Y72.272 E20.07433
G1 X54.951 Y71.268 E20.12239
G1 X55.564 Y69.147 E20.2252
G1 X56.202 Y66.696 E20.34313
G1 X56.783 Y64.182 E20.46328
G1 F1500 E13.96328
G0 F6000 X55.952 Y69.244
G1 F1500 E20.46328
G1 F1200 X56.593 Y66.781 E20.58179
G1 X57.173 Y64.272 E20.7017
G1 X57.419 Y63.385 E20.74456
G1 X57.741 Y62.522 E20.78745
G1 X58.137 Y61.691 E20.83031
G1 X58.603 Y60.897 E20.87318
G1 X59.137 Y60.147 E20.91605
G1 X59.733 Y59.446 E20.9589
G1 X60.388 Y58.799 E21.00177
G1 X61.097 Y58.211 E21.04466
G1 X61.854 Y57.687 E21.08753
G1 X62.654 Y57.231 E21.13041
G1 X63.49 Y56.846 E21.17326
G1 X63.932 Y56.677 E21.1953
G1 X65.176 Y56.232 E21.25682
G1 X67.406 Y55.416 E21.36739
G1 X69.24 Y54.703 E21.45902
G1 X70.112 Y54.407 E21.50189
G1 X71.006 Y54.188 E21.54475
G1 X71.916 Y54.047 E21.58763
G1 X72.781 Y53.987 E21.62801
G1 X73.399 Y53.974 E21.65679
G1 X87.364 Y53.975 E22.30706
G1 X88.061 Y53.985 E22.33952
G1 X88.81 Y54.022 E22.37444
G1 X91.631 Y54.263 E22.50627
G1 X94.116 Y54.403 E22.62217
G1 X96.672 Y54.475 E22.74123
G1 X99.181 Y54.475 E22.85806
G1 X101.717 Y54.403 E22.9762
G1 X104.237 Y54.26 E23.09373
G1 X106.816 Y54.04 E23.21425
G1 X109.203 Y53.776 E23.32608
G1 X110.115 Y53.711 E23.36865
G1 X110.733 Y53.698 E23.39744
G1 X124.602 Y53.699 E24.04324
G1 X125.303 Y53.709 E24.07588
G1 X126.222 Y53.762 E24.11874
G1 X127.133 Y53.895 E24.16161
G1 X128.126 Y54.134 E24.20917
G1 X131.17 Y55.024 E24.35685
G1 X133.647 Y55.668 E24.47602
G1 X136.062 Y56.224 E24.59142
G1 X138.615 Y56.736 E24.71266
G1 X141.052 Y57.153 E24.82779
G1 X143.574 Y57.512 E24.94641
G1 X146.066 Y57.795 E25.06319
G1 X148.593 Y58.009 E25.18128
G1 X151.112 Y58.152 E25.29876
G1 X153.657 Y58.224 E25.41732
G1 X156.168 Y58.224 E25.53424
G1 X158.744 Y58.151 E25.65424
G1 X161.513 Y58.006 E25.78335
G1 X162.131 Y57.993 E25.81213
G1 X168.749 Y57.994 E26.1203
G1 X169.447 Y58.004 E26.1528
G1 X170.366 Y58.057 E26.19566
G1 X171.277 Y58.19 E26.23853
G1 X172.173 Y58.401 E26.2814
G1 X173.047 Y58.689 E26.32425
G1 X173.894 Y59.052 E26.36716
G1 X174.705 Y59.487 E26.41001
G1 X175.475 Y59.991 E26.45286
G1 X176.199 Y60.56 E26.49574
G1 X176.871 Y61.19 E26.53863
G1 X177.486 Y61.875 E26.5815
G1 X178.039 Y62.611 E26.62436
G1 X178.526 Y63.392 E26.66722
G1 X178.943 Y64.213 E26.7101
G1 X179.288 Y65.067 E26.75299
G1 X179.557 Y65.947 E26.79583
G1 X179.749 Y66.848 E26.83873
G1 X179.862 Y67.761 E26.88157
G1 X179.891 Y68.305 E26.90694
G1 X179.904 Y68.923 E26.93572
G1 X179.903 Y75.54 E27.24383
G1 X179.893 Y76.239 E27.27639
G1 X179.876 Y76.705 E27.2981
G1 X179.698 Y79.758 E27.4405
G1 X179.625 Y82.299 E27.55887
G1 X179.625 Y84.811 E27.67584
G1 X179.695 Y87.329 E27.79313
G1 X179.877 Y90.493 E27.9407
G1 X179.904 Y91.43 E27.98435
G1 X179.903 Y98.059 E28.29303
G1 X179.892 Y98.776 E28.32642
G1 X179.807 Y99.961 E28.38174
G1 X179.663 Y101.077 E28.43413
G1 X179.569 Y101.735 E28.46508
G1 X179.285 Y104.233 E28.58215
G1 X179.07 Y106.758 E28.70015
G1 X178.926 Y109.28 E28.81778
G1 X178.853 Y111.822 E28.93619
G1 X178.853 Y114.333 E29.05312
G1 X178.924 Y116.882 E29.17185
G1 X179.065 Y119.388 E29.28873
G1 X179.28 Y121.916 E29.40687
G1 X179.565 Y124.433 E29.52482
G1 X179.888 Y126.765 E29.63444
G1 X179.983 Y127.896 E29.68729
G1 X179.998 Y128.547 E29.71761
G1 X179.997 Y142.511 E30.36784
G1 X179.987 Y143.213 E30.40053
G1 X179.934 Y144.132 E30.44339
G1 X179.801 Y145.043 E30.48626
G1 X179.614 Y145.853 E30.52497
G1 X179.453 Y146.436 E30.55313
G1 X178.951 Y148.161 E30.63679
G1 X178.3 Y150.663 E30.75717
G1 X177.732 Y153.125 E30.87482
G1 X177.486 Y154.012 E30.91768
G1 X177.164 Y154.874 E30.96053
G1 X176.769 Y155.706 E31.00342
G1 X176.303 Y156.5 E31.04629
G1 X175.769 Y157.25 E31.08916
G1 X175.173 Y157.951 E31.132
G1 X174.518 Y158.598 E31.17487
G1 X173.809 Y159.186 E31.21776
G1 X173.052 Y159.71 E31.26063
G1 X172.252 Y160.166 E31.30351
G1 X171.416 Y160.551 E31.34637
G1 X170.944 Y160.731 E31.36989
G1 X169.809 Y161.133 E31.42596
G1 X169.674 Y161.19 E31.43278
G1 X168.03 Y161.781 E31.51413
G1 X167.035 Y162.175 E31.56396
G1 X166.832 Y162.245 E31.57396
G1 X165.636 Y162.706 E31.63364
G1 X164.763 Y163 E31.67654
G1 X163.868 Y163.216 E31.71941
G1 X162.958 Y163.354 E31.76227
G1 X162.125 Y163.411 E31.80115
G1 X161.507 Y163.424 E31.82993
G1 X147.542 Y163.423 E32.4802
G1 X146.845 Y163.413 E32.51266
G1 X146.1 Y163.376 E32.54739
G1 X143.251 Y163.134 E32.68053
G1 X140.75 Y162.993 E32.79717
G1 X138.207 Y162.922 E32.91563
G1 X135.696 Y162.924 E33.03255
G1 X133.151 Y162.997 E33.15111
G1 X130.607 Y163.142 E33.26976
G1 X128.107 Y163.356 E33.38659
G1 X125.655 Y163.626 E33.50146
G1 X124.791 Y163.686 E33.54179
G1 X124.173 Y163.699 E33.57057
G1 X110.304 Y163.698 E34.21637
G1 X109.603 Y163.688 E34.24901
G1 X108.684 Y163.635 E34.29188
G1 X107.773 Y163.502 E34.33475
G1 X106.775 Y163.262 E34.38254
G1 X103.758 Y162.378 E34.52893
G1 X101.314 Y161.742 E34.64653
G1 X98.871 Y161.178 E34.76328
G1 X96.36 Y160.674 E34.88253
G1 X93.869 Y160.246 E35.00022
G1 X91.404 Y159.894 E35.11617
G1 X88.856 Y159.604 E35.23558
G1 X86.378 Y159.392 E35.35139
G1 X83.834 Y159.247 E35.47004
G1 X81.289 Y159.174 E35.58859
G1 X78.777 Y159.172 E35.70556
G1 X76.218 Y159.244 E35.82477
G1 X73.695 Y159.378 E35.94241
G1 X72.774 Y159.405 E35.98532
G1 X66.157 Y159.404 E36.29343
G1 X65.459 Y159.394 E36.32594
G1 X64.54 Y159.341 E36.3688
G1 X63.629 Y159.208 E36.41167
G1 X62.733 Y158.997 E36.45453
G1 X61.859 Y158.709 E36.49738
G1 X61.012 Y158.346 E36.54029
G1 X60.201 Y157.911 E36.58315
G1 X59.431 Y157.407 E36.626
G1 X58.707 Y156.838 E36.66888
G1 X58.035 Y156.208 E36.71177
G1 X57.42 Y155.523 E36.75463
G1 X56.867 Y154.787 E36.7975
G1 X56.38 Y154.006 E36.84036
G1 X55.963 Y153.185 E36.88324
G1 X55.618 Y152.331 E36.92612
G1 X55.349 Y151.451 E36.96897
G1 X55.157 Y150.55 E37.01187
G1 X55.044 Y149.637 E37.05471
G1 X55.015 Y149.082 E37.08058
G1 X55.002 Y148.463 E37.10941
G1 X55.003 Y141.856 E37.41706
G1 X55.013 Y141.163 E37.44934
G1 X55.03 Y140.699 E37.47096
G1 X55.208 Y137.646 E37.61336
G1 X55.281 Y135.103 E37.73182
G1 X55.281 Y132.591 E37.84879
G1 X55.211 Y130.073 E37.96608
G1 X55.028 Y126.895 E38.11431
G1 X55.006 Y126.267 E38.14357
G1 X55.003 Y119.338 E38.46621
G1 X55.014 Y118.621 E38.4996
G1 X55.099 Y117.433 E38.55506
G1 X55.238 Y116.351 E38.60586
G1 X55.346 Y115.584 E38.64193
G1 X55.632 Y113.043 E38.76099
G1 X55.843 Y110.529 E38.87847
G1 X55.984 Y107.986 E38.99706
G1 X56.053 Y105.476 E39.11398
G1 X56.05 Y102.959 E39.23118
G1 X55.975 Y100.379 E39.35137
G1 X55.833 Y97.912 E39.46643
G1 X55.616 Y95.397 E39.58398
G1 X55.148 Y91.554 E39.76425
G1 X55.021 Y90.659 E39.80634
G1 X54.92 Y89.468 E39.862
G1 X54.907 Y88.85 E39.89078
G1 X54.908 Y74.859 E40.54226
G1 X54.92 Y74.143 E40.5756
G1 X54.976 Y73.224 E40.61847
G1 X55.111 Y72.314 E40.66131
G1 X55.335 Y71.379 E40.70608
G1 X55.952 Y69.244 E40.80956
G1 F1500 E34.30956
G0 F6000 X55.308 Y74.866
G1 F1500 E40.80956
G1 F1200 X55.32 Y74.15 E40.84291
G1 X55.376 Y73.249 E40.88494
G1 X55.51 Y72.356 E40.92699
G1 X55.72 Y71.49 E40.96848
G1 X56.331 Y69.376 E41.07095
G1 X56.984 Y66.867 E41.19167
G1 X57.563 Y64.362 E41.31139
G1 X57.805 Y63.492 E41.35344
G1 X58.123 Y62.647 E41.39548
G1 X58.514 Y61.833 E41.43753
G1 X58.976 Y61.057 E41.47958
G1 X59.505 Y60.325 E41.52164
G1 X60.097 Y59.642 E41.56372
G1 X60.746 Y59.015 E41.60574
G1 X61.449 Y58.447 E41.64783
G1 X62.199 Y57.944 E41.68988
G1 X62.99 Y57.51 E41.73189
G1 X64.066 Y57.054 E41.78631
G1 X65.313 Y56.608 E41.84797
G1 X67.548 Y55.79 E41.9588
G1 X69.385 Y55.076 E42.05057
G1 X70.24 Y54.787 E42.09259
G1 X71.118 Y54.574 E42.13466
G1 X72.011 Y54.439 E42.17672
G1 X72.792 Y54.387 E42.21316
G1 X73.399 Y54.374 E42.24143
G1 X87.358 Y54.375 E42.89142
G1 X88.055 Y54.385 E42.92388
G1 X88.776 Y54.421 E42.9575
G1 X91.574 Y54.66 E43.08826
G1 X94.12 Y54.803 E43.207
G1 X96.66 Y54.875 E43.32532
G1 X99.193 Y54.875 E43.44327
G1 X101.751 Y54.803 E43.56242
G1 X104.258 Y54.66 E43.67935
G1 X106.843 Y54.44 E43.80015
G1 X108.173 Y54.298 E43.86244
G1 X109.248 Y54.174 E43.91282
G1 X110.126 Y54.111 E43.95381
G1 X110.733 Y54.098 E43.98208
G1 X124.451 Y54.098 E44.62085
G1 X125.297 Y54.109 E44.66025
G1 X126.199 Y54.162 E44.70232
G1 X127.092 Y54.294 E44.74435
G1 X128.014 Y54.518 E44.78854
G1 X131.062 Y55.409 E44.9364
G1 X133.528 Y56.05 E45.05505
G1 X136.031 Y56.627 E45.17465
G1 X138.5 Y57.122 E45.29191
G1 X141 Y57.549 E45.41
G1 X143.509 Y57.907 E45.52802
G1 X146.024 Y58.192 E45.64588
G1 X148.572 Y58.408 E45.76495
G1 X151.112 Y58.552 E45.88341
G1 X153.646 Y58.624 E46.00145
G1 X156.179 Y58.624 E46.1194
G1 X158.776 Y58.551 E46.24037
G1 X161.23 Y58.419 E46.35481
G1 X161.838 Y58.397 E46.38314
G1 X168.743 Y58.394 E46.70466
G1 X169.441 Y58.404 E46.73717
G1 X170.343 Y58.457 E46.77924
G1 X171.236 Y58.589 E46.82127
G1 X172.114 Y58.8 E46.86332
G1 X172.97 Y59.088 E46.90538
G1 X173.797 Y59.45 E46.94741
G1 X174.589 Y59.885 E46.98949
G1 X175.34 Y60.387 E47.03155
