;FLAVOR:Marlin
;TIME:20670
;Filament used: 47.6372m
;Layer height: 0.28
;MINX:17.036
;MINY:37.317
;MINZ:0.336
;MAXX:202.995
;MAXY:183.857
;MAXZ:17.426
;Generated with Cura_SteamEngine main
M82 ;absolute extrusion mode
; Ender 3 Custom Start G-code
G92 E0 ; Reset Extruder
G28 ; Home all axes
M104 S175 ; Start heating up the nozzle most of the way
M190 S50.0 ; Start heating the bed, wait until target temperature reached
M109 S200 ; Finish heating the nozzle
G1 Z2.0 F3000 ; Move Z Axis up little to prevent scratching of Heat Bed
G1 X0.1 Y20 Z0.3 F5000.0 ; Move to start position
G1 X0.1 Y200.0 Z0.3 F1500.0 E15 ; Draw the first line
G1 X0.4 Y200.0 Z0.3 F5000.0 ; Move to side a little
G1 X0.4 Y20 Z0.3 F1500.0 E30 ; Draw the second line
G92 E0 ; Reset Extruder
G1 Z2.0 F3000 ; Move Z Axis up little to prevent scratching of Heat Bed
G1 X5 Y20 Z0.3 F5000.0 ; Move over to prevent blob squish
G92 E0
G92 E0
G1 F1500 E-6
;LAYER_COUNT:57
;LAYER:-6
M107
M204 S500
M205 X20 Y20
G0 F9000 X23.236 Y41.951 Z0.336
;TYPE:SUPPORT-INTERFACE
G1 F1500 E0
G1 F1350 X22.455 Y42.663 E0.11811
G1 X21.773 Y43.382 E0.22885
G1 X20.991 Y44.336 E0.36671
G1 X20.421 Y45.149 E0.47767
G1 X19.849 Y46.116 E0.60323
G1 X19.402 Y47.004 E0.71433
G1 X18.989 Y47.994 E0.83421
G1 X18.685 Y48.915 E0.94259
G1 X18.396 Y50.031 E1.07142
G1 X18.21 Y51.077 E1.19015
G1 X18.099 Y52.227 E1.31927
G1 X18.071 Y53.267 E1.43553
G1 X18.956 Y168.235 E14.28405
G1 X18.97 Y168.78 E14.34498
G1 X19.058 Y169.903 E14.47087
G1 X19.209 Y170.866 E14.5798
G1 X19.463 Y171.998 E14.70945
G1 X19.783 Y173.03 E14.8302
G1 X20.165 Y174.004 E14.94712
G1 X20.636 Y174.986 E15.06883
G1 X21.197 Y175.957 E15.19415
G1 X21.788 Y176.828 E15.31178
G1 X22.407 Y177.618 E15.42394
G1 X23.184 Y178.462 E15.55215
G1 X23.848 Y179.093 E15.65451
G1 X24.728 Y179.82 E15.78208
G1 X25.613 Y180.44 E15.90283
G1 X26.584 Y181.015 E16.02895
G1 X27.462 Y181.459 E16.1389
G1 X28.394 Y181.846 E16.25168
G1 X29.392 Y182.182 E16.36936
G1 X30.482 Y182.463 E16.49515
G1 X31.542 Y182.652 E16.61548
G1 X32.694 Y182.763 E16.74482
G1 X33.732 Y182.791 E16.86086
G1 X39.389 Y182.743 E17.49307
G1 X40.22 Y182.747 E17.58594
G1 X40.927 Y182.741 E17.66496
G1 X41.433 Y182.728 E17.72152
G1 X42.476 Y182.646 E17.83844
G1 X42.772 Y182.613 E17.87173
G1 X42.787 Y182.626 E17.87394
G1 X43.354 Y182.572 E17.9376
G1 X177.823 Y181.537 E32.9655
G1 X178.392 Y181.564 E33.02916
G1 X179.166 Y181.638 E33.11605
G1 X180.215 Y181.667 E33.23332
G1 X187.367 Y181.612 E34.03261
G1 X189.051 Y181.509 E34.22116
G1 X190.084 Y181.349 E34.33798
G1 X191.205 Y181.085 E34.46668
G1 X192.173 Y180.786 E34.5799
G1 X193.217 Y180.369 E34.70553
G1 X194.121 Y179.935 E34.8176
G1 X194.967 Y179.451 E34.92652
G1 X195.924 Y178.815 E35.05493
G1 X196.684 Y178.217 E35.16301
G1 X197.54 Y177.446 E35.29175
G1 X198.23 Y176.719 E35.40376
G1 X198.955 Y175.843 E35.53084
G1 X199.578 Y174.957 E35.65188
G1 X200.152 Y173.987 E35.77784
G1 X200.558 Y173.179 E35.8789
G1 X201.005 Y172.129 E36.00643
G1 X201.32 Y171.176 E36.1186
G1 X201.603 Y170.077 E36.24542
G1 X201.79 Y169.03 E36.36428
G1 X201.901 Y167.877 E36.49373
G1 X201.929 Y166.838 E36.60988
G1 X201.043 Y51.806 E49.46556
G1 X201.03 Y51.33 E49.51877
G1 X200.941 Y50.198 E49.64567
G1 X200.793 Y49.245 E49.75344
G1 X200.537 Y48.105 E49.88402
G1 X200.225 Y47.099 E50.00172
G1 X199.831 Y46.097 E50.12205
G1 X199.369 Y45.128 E50.24202
G1 X198.885 Y44.282 E50.35094
G1 X198.294 Y43.396 E50.46996
G1 X197.591 Y42.489 E50.5982
G1 X196.815 Y41.647 E50.72617
G1 X196.153 Y41.019 E50.82814
G1 X195.199 Y40.237 E50.96599
G1 X194.477 Y39.729 E51.06465
G1 X193.485 Y39.127 E51.19433
G1 X192.437 Y38.607 E51.32507
G1 X191.548 Y38.238 E51.43264
G1 X190.538 Y37.904 E51.55152
G1 X189.406 Y37.624 E51.68184
G1 X188.459 Y37.456 E51.78932
G1 X187.308 Y37.345 E51.91855
G1 X186.268 Y37.317 E52.03481
G1 X183.669 Y37.329 E52.32527
G1 X180.611 Y37.362 E52.66703
G1 X179.78 Y37.358 E52.7599
G1 X179.073 Y37.364 E52.83891
G1 X178.567 Y37.377 E52.89548
G1 X177.524 Y37.459 E53.0124
G1 X177.228 Y37.492 E53.04568
G1 X177.213 Y37.479 E53.0479
G1 X176.646 Y37.533 E53.11155
G1 X42.177 Y38.568 E68.13945
G1 X41.609 Y38.541 E68.203
G1 X40.834 Y38.467 E68.29
G1 X39.785 Y38.438 E68.40728
G1 X32.544 Y38.494 E69.21651
G1 X31.932 Y38.514 E69.28494
G1 X31.047 Y38.586 E69.38417
G1 X29.987 Y38.744 E69.50394
G1 X28.858 Y38.999 E69.63329
G1 X27.855 Y39.309 E69.75061
G1 X26.924 Y39.674 E69.86236
G1 X25.888 Y40.163 E69.99039
G1 X25.033 Y40.653 E70.10052
G1 X24.081 Y41.287 E70.22834
G1 X23.236 Y41.951 E70.34844
G0 F9000 X23.864 Y41.966
G1 F1350 X163.147 Y181.249 E92.3613
G0 F9000 X165.392 Y181.231
G1 F1350 X25.189 Y41.029 E114.51947
G0 F9000 X26.662 Y40.239
G1 F1350 X167.638 Y181.214 E136.79982
G0 F9000 X169.883 Y181.196
G1 F1350 X28.282 Y39.595 E159.17902
G0 F9000 X30.082 Y39.133
G1 F1350 X172.128 Y181.179 E181.62855
G0 F9000 X174.373 Y181.162
G1 F1350 X32.119 Y38.907 E204.11104
G0 F9000 X34.354 Y38.879
G1 F1350 X176.619 Y181.145 E226.59526
G0 F9000 X178.952 Y181.215
G1 F1350 X36.599 Y38.862 E249.09331
G0 F9000 X38.845 Y38.845
G1 F1350 X181.258 Y181.258 E271.60085
G0 F9000 X183.504 Y181.241
G1 F1350 X41.162 Y38.9 E294.09708
G0 F9000 X43.483 Y38.958
G1 F1350 X185.749 Y181.223 E316.5813
G0 F9000 X187.962 Y181.174
G1 F1350 X45.729 Y38.941 E339.06039
G0 F9000 X47.974 Y38.923
G1 F1350 X190.006 Y180.955 E361.50771
G0 F9000 X191.797 Y180.483
G1 F1350 X50.22 Y38.906 E383.88312
G0 F9000 X52.465 Y38.888
G1 F1350 X193.409 Y179.832 E406.15849
G0 F9000 X194.871 Y179.032
G1 F1350 X54.71 Y38.871 E428.31011
G0 F9000 X56.956 Y38.854
G1 F1350 X196.194 Y178.092 E450.31585
G0 F9000 X197.388 Y177.024
G1 F1350 X59.201 Y38.837 E472.15549
G0 F9000 X61.446 Y38.819
G1 F1350 X198.45 Y175.823 E493.80816
G0 F9000 X199.386 Y174.496
G1 F1350 X63.692 Y38.802 E515.2538
G0 F9000 X65.937 Y38.784
G1 F1350 X200.184 Y173.031 E536.47075
G0 F9000 X200.822 Y171.406
G1 F1350 X68.183 Y38.767 E557.43356
G0 F9000 X70.428 Y38.75
G1 F1350 X201.28 Y169.602 E578.11394
G0 F9000 X201.509 Y167.568
G1 F1350 X72.674 Y38.733 E598.47555
G0 F9000 X74.919 Y38.715
G1 F1350 X201.516 Y165.313 E618.48354
G0 F9000 X201.499 Y163.032
G1 F1350 X77.165 Y38.698 E638.1338
G0 F9000 X79.41 Y38.68
G1 F1350 X201.481 Y160.752 E657.42648
G0 F9000 X201.463 Y158.471
G1 F1350 X81.655 Y38.663 E676.36142
G0 F9000 X83.901 Y38.646
G1 F1350 X201.446 Y156.192 E694.9388
G0 F9000 X201.429 Y153.911
G1 F1350 X86.146 Y38.629 E713.15852
G0 F9000 X88.391 Y38.611
G1 F1350 X201.411 Y151.631 E731.02066
G0 F9000 X201.393 Y149.35
G1 F1350 X90.637 Y38.594 E748.52499
G0 F9000 X92.882 Y38.576
G1 F1350 X201.376 Y147.07 E765.67183
G0 F9000 X201.358 Y144.79
G1 F1350 X95.128 Y38.559 E782.46093
G0 F9000 X97.373 Y38.542
G1 F1350 X201.341 Y142.51 E798.89246
G0 F9000 X201.323 Y140.229
G1 F1350 X99.619 Y38.525 E814.96618
G0 F9000 X101.864 Y38.507
G1 F1350 X201.306 Y137.949 E830.6824
G0 F9000 X201.288 Y135.669
G1 F1350 X104.11 Y38.49 E846.04089
G0 F9000 X106.355 Y38.472
G1 F1350 X201.27 Y133.388 E861.04172
G0 F9000 X201.253 Y131.108
G1 F1350 X108.6 Y38.456 E875.6849
G0 F9000 X110.846 Y38.438
G1 F1350 X201.235 Y128.827 E889.97035
G0 F9000 X201.218 Y126.548
G1 F1350 X113.091 Y38.421 E903.8983
G0 F9000 X115.336 Y38.403
G1 F1350 X201.2 Y124.267 E917.4686
G0 F9000 X201.183 Y121.987
G1 F1350 X117.582 Y38.386 E930.68125
G0 F9000 X119.827 Y38.369
G1 F1350 X201.165 Y119.706 E943.53616
G0 F9000 X201.147 Y117.426
G1 F1350 X122.073 Y38.352 E956.03334
G0 F9000 X124.318 Y38.334
G1 F1350 X201.13 Y115.145 E968.17294
G0 F9000 X201.113 Y112.866
G1 F1350 X126.564 Y38.317 E979.95497
G0 F9000 X128.809 Y38.299
G1 F1350 X201.095 Y110.585 E991.37935
G0 F9000 X201.077 Y108.305
G1 F1350 X131.055 Y38.282 E1002.44599
G0 F9000 X133.3 Y38.265
G1 F1350 X201.06 Y106.025 E1013.15506
G0 F9000 X201.042 Y103.744
G1 F1350 X135.546 Y38.248 E1023.50631
G0 F9000 X137.791 Y38.23
G1 F1350 X201.024 Y101.464 E1033.5
G0 F9000 X201.007 Y99.184
G1 F1350 X140.036 Y38.213 E1043.1361
G0 F9000 X142.281 Y38.195
G1 F1350 X200.99 Y96.904 E1052.41471
G0 F9000 X200.972 Y94.623
G1 F1350 X144.527 Y38.178 E1061.33551
G0 F9000 X146.772 Y38.161
G1 F1350 X200.954 Y92.343 E1069.89866
G0 F9000 X200.937 Y90.062
G1 F1350 X149.018 Y38.144 E1078.10407
G0 F9000 X151.263 Y38.126
G1 F1350 X200.919 Y87.782 E1085.95191
G0 F9000 X200.901 Y85.501
G1 F1350 X153.509 Y38.109 E1093.44193
G0 F9000 X155.754 Y38.091
G1 F1350 X200.884 Y83.222 E1100.57454
G0 F9000 X200.867 Y80.941
G1 F1350 X158 Y38.074 E1107.34942
G0 F9000 X160.245 Y38.057
G1 F1350 X200.849 Y78.661 E1113.76664
G0 F9000 X200.831 Y76.38
G1 F1350 X162.491 Y38.04 E1119.82605
G0 F9000 X164.736 Y38.022
G1 F1350 X200.814 Y74.1 E1125.52797
G0 F9000 X200.796 Y71.82
G1 F1350 X166.981 Y38.005 E1130.87223
G0 F9000 X169.226 Y37.987
G1 F1350 X200.779 Y69.54 E1135.85899
G0 F9000 X200.761 Y67.259
G1 F1350 X171.472 Y37.97 E1140.48795
G0 F9000 X173.717 Y37.953
G1 F1350 X200.744 Y64.979 E1144.75933
G0 F9000 X200.726 Y62.699
G1 F1350 X175.963 Y37.936 E1148.67297
G0 F9000 X178.104 Y37.814
G1 F1350 X200.708 Y60.418 E1152.2454
G0 F9000 X200.691 Y58.138
G1 F1350 X180.315 Y37.762 E1155.46571
G0 F9000 X182.556 Y37.741
G1 F1350 X200.674 Y55.858 E1158.32907
G0 F9000 X200.656 Y53.578
G1 F1350 X184.801 Y37.723 E1160.83486
G0 F9000 X187.079 Y37.738
G1 F1350 X200.624 Y51.283 E1162.97557
G0 F9000 X200.247 Y48.643
G1 F1350 X189.717 Y38.113 E1164.63977
G0 F9000 X193.427 Y39.561
G1 F1350 X198.791 Y44.924 E1165.48744
G1 F1500 E1159.48744
G0 F9000 X200.261 Y44.544
G0 X200.852 Y45.782
G0 X201.532 Y47.722
G0 X201.842 Y49.056
G0 X202.094 Y51.28
G0 X202.992 Y166.966
G0 X202.857 Y169.057
G0 X202.619 Y170.404
G0 X202.043 Y172.377
G0 X201.522 Y173.636
G0 X200.525 Y175.447
G0 X199.742 Y176.563
G0 X198.365 Y178.125
G0 X197.362 Y179.038
G0 X195.674 Y180.265
G0 X194.506 Y180.932
G0 X192.617 Y181.754
G0 X191.323 Y182.156
G0 X189.294 Y182.549
G0 X187.394 Y182.676
G0 X183.25 Y182.706
G0 X160.912 Y182.731
G0 X160.901 Y181.266
G1 F1500 E1165.48744
G1 F1350 X22.66 Y43.025 E1187.33562
G0 F9000 X21.597 Y44.225
G1 F1350 X158.656 Y181.283 E1208.9969
G0 F9000 X156.41 Y181.3
G1 F1350 X20.652 Y45.542 E1230.45265
G0 F9000 X19.849 Y47.002
G1 F1350 X154.165 Y181.318 E1251.68051
G0 F9000 X151.919 Y181.335
G1 F1350 X19.202 Y48.618 E1272.65564
G0 F9000 X18.734 Y50.412
G1 F1350 X149.674 Y181.353 E1293.35002
G0 F9000 X147.428 Y181.37
G1 F1350 X18.492 Y52.434 E1313.72759
G0 F9000 X18.481 Y54.685
G1 F1350 X145.183 Y181.387 E1333.75209
G0 F9000 X142.938 Y181.404
G1 F1350 X18.499 Y56.965 E1353.41894
G0 F9000 X18.517 Y59.246
G1 F1350 X140.693 Y181.422 E1372.72814
G0 F9000 X138.447 Y181.439
G1 F1350 X18.533 Y61.526 E1391.67976
G0 F9000 X18.551 Y63.806
G1 F1350 X136.202 Y181.457 E1410.27381
G0 F9000 X133.956 Y181.474
G1 F1350 X18.569 Y66.086 E1428.51012
G0 F9000 X18.587 Y68.367
G1 F1350 X131.711 Y181.491 E1446.3887
G0 F9000 X129.465 Y181.508
G1 F1350 X18.604 Y70.647 E1463.90963
G0 F9000 X18.621 Y72.927
G1 F1350 X127.22 Y181.526 E1481.07306
G0 F9000 X124.974 Y181.543
G1 F1350 X18.639 Y75.207 E1497.87876
G0 F9000 X18.657 Y77.488
G1 F1350 X122.729 Y181.56 E1514.32672
G0 F9000 X120.483 Y181.577
G1 F1350 X18.674 Y79.768 E1530.41703
G0 F9000 X18.692 Y82.049
G1 F1350 X118.238 Y181.595 E1546.14969
G0 F9000 X115.993 Y181.612
G1 F1350 X18.709 Y84.328 E1561.52485
G0 F9000 X18.727 Y86.609
G1 F1350 X113.748 Y181.63 E1576.54236
G0 F9000 X111.502 Y181.647
G1 F1350 X18.744 Y88.889 E1591.20222
G0 F9000 X18.762 Y91.17
G1 F1350 X109.257 Y181.664 E1605.50434
G0 F9000 X107.011 Y181.681
G1 F1350 X18.78 Y93.45 E1619.44873
G0 F9000 X18.797 Y95.73
G1 F1350 X104.766 Y181.699 E1633.03562
G0 F9000 X102.52 Y181.716
G1 F1350 X18.814 Y98.01 E1646.26486
G0 F9000 X18.832 Y100.291
G1 F1350 X100.275 Y181.734 E1659.13645
G0 F9000 X98.029 Y181.751
G1 F1350 X18.85 Y102.571 E1671.6503
G0 F9000 X18.867 Y104.851
G1 F1350 X95.784 Y181.768 E1683.80658
G0 F9000 X93.538 Y181.785
G1 F1350 X18.885 Y107.132 E1695.60504
G0 F9000 X18.902 Y109.412
G1 F1350 X91.293 Y181.803 E1707.04601
G0 F9000 X89.048 Y181.82
G1 F1350 X18.92 Y111.692 E1718.12933
G0 F9000 X18.937 Y113.972
G1 F1350 X86.803 Y181.838 E1728.85515
G0 F9000 X84.557 Y181.855
G1 F1350 X18.955 Y116.253 E1739.22316
G0 F9000 X18.973 Y118.533
G1 F1350 X82.312 Y181.872 E1749.23351
G0 F9000 X80.066 Y181.889
G1 F1350 X18.99 Y120.814 E1758.88614
G0 F9000 X19.007 Y123.093
G1 F1350 X77.821 Y181.907 E1768.18134
G0 F9000 X75.575 Y181.924
G1 F1350 X19.025 Y125.374 E1777.11874
G0 F9000 X19.043 Y127.654
G1 F1350 X73.33 Y181.942 E1785.69855
G0 F9000 X71.084 Y181.959
G1 F1350 X19.06 Y129.935 E1793.92064
G0 F9000 X19.078 Y132.215
G1 F1350 X68.839 Y181.976 E1801.78507
G0 F9000 X66.593 Y181.993
G1 F1350 X19.095 Y134.495 E1809.29185
G0 F9000 X19.113 Y136.775
G1 F1350 X64.348 Y182.011 E1816.44106
G0 F9000 X62.103 Y182.028
G1 F1350 X19.13 Y139.056 E1823.23261
G0 F9000 X19.148 Y141.336
G1 F1350 X59.858 Y182.046 E1829.66658
G0 F9000 X57.612 Y182.063
G1 F1350 X19.166 Y143.616 E1835.74282
G0 F9000 X19.183 Y145.896
G1 F1350 X55.367 Y182.08 E1841.46149
G0 F9000 X53.121 Y182.097
G1 F1350 X19.2 Y148.177 E1846.82243
G0 F9000 X19.218 Y150.457
G1 F1350 X50.876 Y182.115 E1851.82579
G0 F9000 X48.63 Y182.132
G1 F1350 X19.236 Y152.737 E1856.47141
G0 F9000 X19.253 Y155.018
G1 F1350 X46.385 Y182.149 E1860.75939
G0 F9000 X44.139 Y182.166
G1 F1350 X19.271 Y157.298 E1864.68963
G0 F9000 X19.288 Y159.578
G1 F1350 X41.992 Y182.282 E1868.27786
G0 F9000 X39.789 Y182.342
G1 F1350 X19.306 Y161.858 E1871.51516
G0 F9000 X19.323 Y164.139
G1 F1350 X37.541 Y182.357 E1874.3944
G0 F9000 X35.298 Y182.376
G1 F1350 X19.341 Y166.419 E1876.91631
G0 F9000 X19.369 Y168.71
G1 F1350 X33.029 Y182.37 E1879.0752
G0 F9000 X30.433 Y182.036
G1 F1350 X19.721 Y171.325 E1880.76809
G0 F9000 X21.068 Y174.935
M104 S200
G1 F1350 X26.818 Y180.684 E1881.67676
G1 F1500 E1875.67676
G0 F600 X26.818 Y180.684 Z0.756
G0 F9000 X25.914 Y181.862
G0 X24.168 Y180.728
G0 X23.136 Y179.883
G0 X21.674 Y178.394
G0 X20.846 Y177.343
G0 X19.738 Y175.563
G0 X19.148 Y174.327
G0 X18.464 Y172.373
G0 X18.16 Y171.055
G0 X17.916 Y168.98
G0 X17.036 Y52.171
G0 X17.175 Y50.816
G0 X17.612 Y48.789
G0 X17.734 Y48.421
G0 X18.392 Y46.659
G0 X20.036 Y46.855
;TIME_ELAPSED:772.757007
;LAYER:-5
;TYPE:SUPPORT
G1 F1500 E1881.67676
G1 F1350 X26.435 Y40.457 E1883.09882
G1 X26.112 Y40.61 E1883.15499
G1 X25.16 Y41.159 E1883.3277
G1 X24.32 Y41.732 E1883.48749
G1 X23.51 Y42.376 E1883.65012
G1 X22.802 Y43.021 E1883.80063
G1 X22.15 Y43.706 E1883.94925
G1 X21.485 Y44.51 E1884.11322
G1 X20.846 Y45.411 E1884.28682
G1 X20.356 Y46.225 E1884.43613
G1 X19.89 Y47.141 E1884.59764
G1 X19.459 Y48.162 E1884.7718
G1 X19.161 Y49.064 E1884.92109
G1 X19.084 Y49.363 E1884.96962
G1 X28.963 Y39.484 E1887.16522
G1 X30.075 Y39.235 E1887.3443
G1 X30.89 Y39.112 E1887.47383
G1 X18.689 Y51.314 E1890.18561
G1 X18.597 Y52.26 E1890.33498
G1 X18.578 Y52.98 E1890.44817
G1 X32.565 Y38.993 E1893.55677
G1 X34.134 Y38.98 E1893.80336
G1 X18.579 Y54.534 E1897.26034
G1 X18.591 Y56.078 E1897.50299
G1 X35.701 Y38.968 E1901.30568
G1 X37.27 Y38.955 E1901.55226
G1 X18.603 Y57.622 E1905.70099
G1 X18.616 Y59.165 E1905.94349
G1 X38.837 Y38.943 E1910.43771
G1 X39.775 Y38.936 E1910.58512
G1 X40.381 Y38.955 E1910.68041
G1 X18.627 Y60.71 E1915.51533
G1 X18.639 Y62.253 E1915.75783
G1 X41.84 Y39.052 E1920.91424
G1 X42.178 Y39.068 E1920.96742
G1 X43.39 Y39.058 E1921.1579
G1 X18.651 Y63.797 E1926.65613
G1 X18.663 Y65.34 E1926.89862
G1 X44.957 Y39.046 E1932.74245
G1 X46.525 Y39.034 E1932.98888
G1 X18.675 Y66.884 E1939.17853
G1 X18.687 Y68.428 E1939.42118
G1 X48.093 Y39.022 E1945.95665
G1 X49.66 Y39.01 E1946.20292
G1 X18.698 Y69.972 E1953.08421
G1 X18.71 Y71.516 E1953.32686
G1 X51.228 Y38.998 E1960.55397
G1 X52.796 Y38.986 E1960.80039
G1 X18.722 Y73.059 E1968.37321
G1 X18.734 Y74.603 E1968.61587
G1 X54.363 Y38.974 E1976.53439
G1 X55.931 Y38.962 E1976.78082
G1 X18.746 Y76.146 E1985.04506
G1 X18.758 Y77.69 E1985.28771
G1 X57.499 Y38.95 E1993.89777
G1 X59.066 Y38.938 E1994.14403
G1 X18.77 Y79.234 E2003.0998
G1 X18.782 Y80.778 E2003.34245
G1 X60.635 Y38.925 E2012.64426
G1 X62.202 Y38.913 E2012.89053
G1 X18.794 Y82.322 E2022.53805
G1 X18.806 Y83.865 E2022.78054
