;FLAVOR:Marlin
;TIME:13988
;Filament used: 22.3545m
;Layer height: 0.28
;MINX:54.35
;MINY:73.4
;MINZ:0.28
;MAXX:165.65
;MAXY:146.6
;MAXZ:50.68
;Generated with Cura_SteamEngine main
M82 ;absolute extrusion mode
; Ender 3 Custom Start G-code
G92 E0 ; Reset Extruder
G28 ; Home all axes
M104 S175 ; Start heating up the nozzle most of the way
M190 S50.0 ; Start heating the bed, wait until target temperature reached
M109 S200 ; Finish heating the nozzle
G1 Z2.0 F3000 ; Move Z Axis up little to prevent scratching of Heat Bed
G1 X0.1 Y20 Z0.3 F5000.0 ; Move to start position
G1 X0.1 Y200.0 Z0.3 F1500.0 E15 ; Draw the first line
G1 X0.4 Y200.0 Z0.3 F5000.0 ; Move to side a little
G1 X0.4 Y20 Z0.3 F1500.0 E30 ; Draw the second line
G92 E0 ; Reset Extruder
G1 Z2.0 F3000 ; Move Z Axis up little to prevent scratching of Heat Bed
G1 X5 Y20 Z0.3 F5000.0 ; Move over to prevent blob squish
G92 E0
G92 E0
G1 F1500 E-6
;LAYER_COUNT:181
;LAYER:0
M107
M204 S500
M205 X5 Y5
G0 F7500 X58.988 Y75.613 Z0.28
G0 X54.351 Y85.27
M205 X8 Y8
;TYPE:SKIRT
G1 F1500 E0
G1 X54.36 Y84.605 E0.03773
G1 X54.413 Y83.654 E0.09177
G1 X54.545 Y82.711 E0.14579
G1 X54.756 Y81.782 E0.19983
G1 X55.045 Y80.874 E0.25389
G1 X55.408 Y79.993 E0.30795
G1 X55.844 Y79.146 E0.362
G1 X56.35 Y78.338 E0.41608
G1 X56.921 Y77.576 E0.4701
G1 X57.554 Y76.865 E0.52411
G1 X58.245 Y76.208 E0.57821
G1 X58.988 Y75.613 E0.63221
G1 X59.779 Y75.081 E0.68629
G1 X60.612 Y74.618 E0.74036
G1 X61.48 Y74.226 E0.79439
G1 X62.378 Y73.909 E0.84842
G1 X63.3 Y73.668 E0.90248
G1 X64.239 Y73.505 E0.95655
G1 X65.391 Y73.413 E1.02211
G1 X66.03 Y73.4 E1.05837
G1 X153.756 Y73.401 E6.0353
G1 X154.454 Y73.411 E6.0749
G1 X155.405 Y73.465 E6.12894
G1 X156.348 Y73.598 E6.18297
G1 X157.277 Y73.81 E6.23703
G1 X158.185 Y74.099 E6.29109
G1 X159.065 Y74.463 E6.34512
G1 X159.912 Y74.9 E6.39919
G1 X160.719 Y75.406 E6.45323
G1 X161.481 Y75.978 E6.50728
G1 X162.192 Y76.612 E6.56133
G1 X162.847 Y77.303 E6.61534
G1 X163.443 Y78.047 E6.66943
G1 X163.973 Y78.838 E6.72344
G1 X164.436 Y79.671 E6.77751
G1 X164.827 Y80.539 E6.83152
G1 X165.144 Y81.438 E6.8856
G1 X165.384 Y82.36 E6.93965
G1 X165.547 Y83.298 E6.99366
G1 X165.637 Y84.441 E7.05871
G1 X165.65 Y85.08 E7.09497
G1 X165.649 Y134.654 E9.90743
G1 X165.64 Y135.381 E9.94868
G1 X165.588 Y136.333 E10.00277
G1 X165.457 Y137.276 E10.05679
G1 X165.247 Y138.206 E10.11087
G1 X164.96 Y139.114 E10.1649
G1 X164.597 Y139.995 E10.21896
G1 X164.162 Y140.843 E10.27303
G1 X163.658 Y141.651 E10.32705
G1 X163.087 Y142.414 E10.38112
G1 X162.455 Y143.126 E10.43513
G1 X161.765 Y143.783 E10.48918
G1 X161.022 Y144.38 E10.54326
G1 X160.232 Y144.912 E10.59729
G1 X159.4 Y145.376 E10.65134
G1 X158.532 Y145.769 E10.70539
G1 X157.634 Y146.087 E10.75944
G1 X156.713 Y146.33 E10.81348
G1 X155.774 Y146.494 E10.86756
G1 X154.609 Y146.587 E10.93386
G1 X153.97 Y146.6 E10.97012
G1 X66.261 Y146.599 E15.94608
G1 X65.563 Y146.59 E15.98569
G1 X64.611 Y146.538 E16.03978
G1 X63.668 Y146.406 E16.0938
G1 X62.739 Y146.195 E16.14784
G1 X61.831 Y145.908 E16.20187
G1 X60.95 Y145.545 E16.25593
G1 X60.102 Y145.11 E16.31
G1 X59.294 Y144.605 E16.36405
G1 X58.532 Y144.034 E16.41807
G1 X57.82 Y143.401 E16.47212
G1 X57.163 Y142.71 E16.52622
G1 X56.567 Y141.967 E16.58026
G1 X56.035 Y141.177 E16.63429
G1 X55.571 Y140.345 E16.68834
G1 X55.179 Y139.477 E16.74237
G1 X54.861 Y138.579 E16.79641
G1 X54.619 Y137.657 E16.85049
G1 X54.456 Y136.719 E16.90451
G1 X54.363 Y135.548 E16.97115
G1 X54.35 Y134.908 E17.00747
G1 X54.351 Y85.27 E19.82356
M205 X5 Y5
G0 F7500 X54.891 Y85.278
M205 X8 Y8
G1 F1500 X54.9 Y84.613 E19.86129
G1 X54.953 Y83.684 E19.91408
G1 X55.085 Y82.764 E19.96681
G1 X55.295 Y81.859 E20.01952
G1 X55.583 Y80.975 E20.07226
G1 X55.946 Y80.118 E20.12506
G1 X56.381 Y79.297 E20.17778
G1 X56.884 Y78.515 E20.23053
G1 X57.454 Y77.78 E20.28329
G1 X58.084 Y77.097 E20.33601
G1 X58.77 Y76.47 E20.38874
G1 X59.508 Y75.904 E20.4415
G1 X60.292 Y75.404 E20.49425
G1 X61.116 Y74.973 E20.54701
G1 X61.974 Y74.615 E20.59975
G1 X62.859 Y74.331 E20.65248
G1 X63.766 Y74.125 E20.70525
G1 X64.687 Y73.997 E20.758
G1 X65.406 Y73.953 E20.79887
G1 X66.03 Y73.94 E20.83428
G1 X153.748 Y73.941 E25.81075
G1 X154.446 Y73.951 E25.85036
G1 X155.374 Y74.004 E25.90309
G1 X156.294 Y74.137 E25.95583
G1 X157.2 Y74.349 E26.00862
G1 X158.083 Y74.637 E26.06131
G1 X158.939 Y75 E26.11406
G1 X159.761 Y75.436 E26.16685
G1 X160.542 Y75.94 E26.21958
G1 X161.276 Y76.51 E26.2723
G1 X161.959 Y77.141 E26.32506
G1 X162.586 Y77.828 E26.37782
G1 X163.151 Y78.566 E26.43055
G1 X163.65 Y79.351 E26.48332
G1 X164.08 Y80.175 E26.53605
G1 X164.438 Y81.033 E26.5888
G1 X164.721 Y81.919 E26.64157
G1 X164.926 Y82.825 E26.69426
G1 X165.053 Y83.746 E26.74701
G1 X165.097 Y84.456 E26.78737
G1 X165.11 Y85.08 E26.82278
G1 X165.109 Y134.648 E29.6349
G1 X165.1 Y135.375 E29.67615
G1 X165.049 Y136.303 E29.72888
G1 X164.918 Y137.224 E29.78165
G1 X164.708 Y138.129 E29.83436
G1 X164.421 Y139.014 E29.88714
G1 X164.06 Y139.87 E29.93985
G1 X163.626 Y140.693 E29.99263
G1 X163.123 Y141.474 E30.04533
G1 X162.554 Y142.21 E30.09811
G1 X161.925 Y142.895 E30.15087
G1 X161.239 Y143.522 E30.2036
G1 X160.502 Y144.089 E30.25635
G1 X159.719 Y144.59 E30.30909
G1 X158.895 Y145.021 E30.36185
G1 X158.038 Y145.381 E30.41458
G1 X157.153 Y145.665 E30.46731
G1 X156.246 Y145.873 E30.5201
G1 X155.326 Y146.001 E30.5728
G1 X154.594 Y146.047 E30.61441
G1 X153.97 Y146.06 E30.64982
G1 X66.268 Y146.059 E35.62539
G1 X65.57 Y146.05 E35.66499
G1 X64.641 Y145.998 E35.71778
G1 X63.721 Y145.867 E35.7705
G1 X62.815 Y145.656 E35.82327
G1 X61.931 Y145.369 E35.876
G1 X61.075 Y145.007 E35.92873
G1 X60.253 Y144.573 E35.98146
G1 X59.471 Y144.07 E36.03421
G1 X58.735 Y143.501 E36.08699
G1 X58.051 Y142.871 E36.13975
G1 X57.424 Y142.185 E36.19247
G1 X56.858 Y141.447 E36.24524
G1 X56.358 Y140.664 E36.29794
G1 X55.926 Y139.84 E36.35073
G1 X55.567 Y138.983 E36.40344
G1 X55.283 Y138.097 E36.45622
G1 X55.076 Y137.191 E36.50895
G1 X54.948 Y136.27 E36.5617
G1 X54.903 Y135.533 E36.60359
G1 X54.89 Y134.908 E36.63906
G1 X54.891 Y85.278 E39.4547
M205 X5 Y5
G0 F7500 X55.431 Y85.285
M205 X8 Y8
G1 F1500 X55.44 Y84.62 E39.49243
G1 X55.492 Y83.715 E39.54386
G1 X55.624 Y82.819 E39.59524
G1 X55.834 Y81.937 E39.64667
G1 X56.121 Y81.078 E39.69806
G1 X56.483 Y80.247 E39.74948
G1 X56.917 Y79.451 E39.80091
G1 X57.419 Y78.697 E39.8523
G1 X57.986 Y77.99 E39.90372
G1 X58.612 Y77.335 E39.95512
G1 X59.295 Y76.739 E40.00655
G1 X60.026 Y76.204 E40.05794
G1 X60.803 Y75.737 E40.10937
G1 X61.617 Y75.339 E40.16078
G1 X62.463 Y75.015 E40.21217
G1 X63.335 Y74.767 E40.2636
G1 X64.225 Y74.597 E40.31501
G1 X65.421 Y74.493 E40.38312
G1 X66.03 Y74.48 E40.41768
G1 X153.74 Y74.481 E45.3937
G1 X154.438 Y74.491 E45.4333
G1 X155.343 Y74.544 E45.48473
G1 X156.239 Y74.676 E45.53611
G1 X157.121 Y74.887 E45.58756
G1 X157.98 Y75.175 E45.63896
G1 X158.81 Y75.538 E45.69036
G1 X159.606 Y75.972 E45.74179
G1 X160.36 Y76.475 E45.79321
G1 X161.066 Y77.042 E45.84458
G1 X161.72 Y77.669 E45.89598
G1 X162.317 Y78.352 E45.94745
G1 X162.85 Y79.084 E45.99882
G1 X163.317 Y79.861 E46.05025
G1 X163.714 Y80.676 E46.10168
G1 X164.037 Y81.522 E46.15306
G1 X164.285 Y82.394 E46.20449
G1 X164.454 Y83.284 E46.25588
G1 X164.557 Y84.471 E46.32348
G1 X164.57 Y85.08 E46.35803
G1 X164.569 Y134.641 E49.16976
G1 X164.56 Y135.368 E49.21101
G1 X164.509 Y136.273 E49.26243
G1 X164.378 Y137.17 E49.31386
G1 X164.169 Y138.051 E49.36523
G1 X163.883 Y138.911 E49.41665
G1 X163.522 Y139.742 E49.46805
G1 X163.089 Y140.539 E49.51951
G1 X162.588 Y141.294 E49.57091
G1 X162.022 Y142.001 E49.62229
G1 X161.396 Y142.657 E49.67374
G1 X160.715 Y143.254 E49.72512
G1 X159.983 Y143.789 E49.77655
G1 X159.208 Y144.258 E49.82795
G1 X158.394 Y144.656 E49.87935
G1 X157.548 Y144.981 E49.93077
G1 X156.677 Y145.23 E49.98216
G1 X155.787 Y145.402 E50.03359
G1 X154.579 Y145.507 E50.10238
G1 X153.97 Y145.52 E50.13694
G1 X66.275 Y145.519 E55.1121
G1 X65.577 Y145.51 E55.15171
G1 X64.672 Y145.458 E55.20313
G1 X63.775 Y145.327 E55.25456
G1 X62.894 Y145.118 E55.30593
G1 X62.034 Y144.831 E55.35737
G1 X61.203 Y144.47 E55.40877
G1 X60.407 Y144.036 E55.4602
G1 X59.652 Y143.535 E55.51161
G1 X58.945 Y142.969 E55.56299
G1 X58.29 Y142.342 E55.61443
G1 X57.693 Y141.661 E55.66581
G1 X57.158 Y140.929 E55.71725
G1 X56.69 Y140.153 E55.76866
G1 X56.292 Y139.339 E55.82006
G1 X55.967 Y138.493 E55.87148
G1 X55.719 Y137.621 E55.92291
G1 X55.548 Y136.731 E55.97433
G1 X55.443 Y135.518 E56.0434
G1 X55.43 Y134.908 E56.07802
G1 X55.431 Y85.285 E58.89326
M205 X5 Y5
G1 F1500 E52.89326
;MESH:lightbulbstandv2.stl
G0 F7500 X65.035 Y85.285
G0 X66.145 Y85.285
G0 X66.625 Y85.591
G1 F1500 E58.89326
G0 F7500 X66.541 Y85.591
M205 X8 Y8
;TYPE:WALL-INNER
G1 F1500 X66.541 Y134.409 E61.97057
G1 X153.46 Y134.41 E67.44961
G1 X153.46 Y85.59 E70.52705
G1 X66.541 Y85.591 E76.0061
M205 X5 Y5
G0 F7500 X65.971 Y85.021
M205 X8 Y8
;TYPE:WALL-OUTER
G1 F1500 X65.971 Y134.979 E78.84034
G1 X154.03 Y134.98 E83.83616
G1 X154.03 Y85.02 E86.67053
G1 X65.971 Y85.021 E91.66635
M205 X5 Y5
G0 F7500 X65.971 Y85.221
G1 F1500 E85.66635
G0 F7500 X66.595 Y85.645
G0 X66.145 Y129.979
G0 X70.854 Y129.769
G0 X71.718 Y130.064
G0 X103.811 Y130.064
G0 X104.199 Y129.979
G1 F1500 E91.66635
G0 F7500 X104.172 Y129.908
M205 X8 Y8
;TYPE:WALL-INNER
G1 F1500 X103.756 Y130.04 E91.69386
G1 X71.9 Y130.04 E93.70194
G1 X71.65 Y130.014 E93.71779
G1 X71.311 Y129.843 E93.74172
G1 X71.041 Y129.567 E93.76606
G1 X70.91 Y129.156 E93.79325
G1 X70.91 Y90.95 E96.20161
G1 X70.936 Y90.7 E96.21746
G1 X71.107 Y90.361 E96.24139
G1 X71.383 Y90.091 E96.26573
G1 X71.794 Y89.96 E96.29292
G1 X103.777 Y89.96 E98.30901
G1 X104.217 Y90.123 E98.33859
G1 X104.484 Y90.419 E98.36372
G1 X104.64 Y90.776 E98.38828
G1 X104.64 Y129.197 E100.81019
G1 X104.489 Y129.581 E100.8362
G1 X104.172 Y129.908 E100.86491
M205 X5 Y5
G1 F1500 E94.86491
G0 F7500 X104.199 Y129.979
G0 X103.811 Y130.064
G0 X71.718 Y130.064
G0 X71.115 Y129.794
G0 X70.886 Y129.211
G0 X70.886 Y90.768
G0 X70.975 Y90.418
G1 F1500 E100.86491
G0 F7500 X71.576 Y90.685
M205 X8 Y8
;TYPE:WALL-OUTER
G1 F1500 X71.65 Y90.613 E100.87077
G1 X71.854 Y90.533 E100.8832
G1 X103.707 Y90.535 E102.69031
G1 X103.922 Y90.632 E102.70369
G1 X103.994 Y90.71 E102.70971
G1 X104.067 Y90.905 E102.72152
G1 X104.068 Y129.084 E104.88752
G1 X103.976 Y129.311 E104.90141
G1 X103.901 Y129.387 E104.90747
G1 X103.696 Y129.467 E104.91996
G1 X71.843 Y129.465 E106.72706
G1 X71.635 Y129.374 E106.73994
G1 X71.563 Y129.3 E106.7458
G1 X71.483 Y129.096 E106.75823
G1 X71.48 Y90.95 E108.92235
G1 X71.576 Y90.685 E108.93834
M205 X5 Y5
G0 F7500 X71.65 Y90.613
G0 X71.74 Y90.578
G1 F1500 E102.93834
G0 F7500 X71.502 Y89.962
G0 X104.161 Y89.888
G1 F1500 E108.93834
G0 F7500 X104.281 Y89.612
M205 X8 Y8
;TYPE:SKIN
G1 F1500 X104.57 Y89.775 E108.95717
G1 X104.913 Y90.156 E108.98625
G1 X105.044 Y90.455 E109.00477
G1 X105.137 Y90.788 E109.02439
G1 X105.136 Y129.282 E111.20825
G1 X104.933 Y129.825 E111.24114
G1 X104.694 Y130.117 E111.26255
G1 X104.252 Y130.406 E111.29251
G1 X103.835 Y130.536 E111.31729
G1 X71.69 Y130.539 E113.14096
G1 X71.239 Y130.377 E113.16815
G1 X70.83 Y130.092 E113.19643
G1 X70.543 Y129.649 E113.22637
G1 X70.414 Y129.233 E113.25108
G1 X70.411 Y129.186 E113.25376
G1 X70.411 Y90.739 E115.43496
G1 X70.572 Y90.29 E115.46202
G1 X70.856 Y89.881 E115.49027
G1 X71.299 Y89.594 E115.52021
G1 X71.715 Y89.464 E115.54494
G1 X103.86 Y89.461 E117.36861
G1 X104.281 Y89.612 E117.39398
M205 X5 Y5
G1 F1500 E111.39398
G0 F7500 X104.161 Y89.888
G0 X71.739 Y89.936
G0 X71.156 Y90.165
G0 X70.913 Y90.707
G0 X70.646 Y129.244
G0 X66.841 Y131.68
G0 X66.741 Y133.91
G1 F1500 E117.39398
G0 F7500 X67.04 Y133.91
M205 X8 Y8
G1 F1500 X152.961 Y133.911 E122.26851
G1 X152.961 Y86.089 E124.98158
G1 X67.041 Y86.091 E129.85605
G1 X67.04 Y133.91 E132.56894
M205 X5 Y5
G0 F7500 X67.58 Y133.369
M205 X8 Y8
G1 F1500 X67.693 Y133.369 E132.57536
G1 X67.58 Y133.256 E132.58442
G1 X67.58 Y132.492 E132.62777
G1 X68.457 Y133.369 E132.69813
G1 X69.22 Y133.369 E132.74142
G1 X67.58 Y131.729 E132.873
G1 X67.58 Y130.965 E132.91634
G1 X69.984 Y133.369 E133.10922
G1 X70.748 Y133.369 E133.15256
G1 X67.58 Y130.201 E133.40674
G1 X67.58 Y129.438 E133.45002
G1 X71.511 Y133.369 E133.76542
G1 X72.275 Y133.369 E133.80876
G1 X67.58 Y128.674 E134.18545
G1 X67.58 Y127.91 E134.22879
G1 X73.039 Y133.369 E134.66678
G1 X73.802 Y133.369 E134.71007
G1 X71.463 Y131.03 E134.89773
M205 X5 Y5
G1 F1500 E128.89773
G0 F7500 X71.682 Y130.219
G0 X103.811 Y130.064
G0 X104.394 Y129.835
G0 X104.664 Y129.232
G0 X104.664 Y90.789
G0 X104.479 Y90.318
G0 X104.177 Y89.894
G1 F1500 E134.89773
G0 F7500 X104.537 Y89.13
M104 S200
M205 X8 Y8
G1 F1500 X104.916 Y89.351 E134.92262
G1 X105.373 Y89.863 E134.96156
G1 X105.549 Y90.276 E134.98702
G1 X148.643 Y133.37 E138.44455
G1 X147.88 Y133.37 E138.48783
G1 X105.678 Y91.168 E141.87379
G1 X105.678 Y91.932 E141.91713
G1 X147.116 Y133.37 E145.24179
G1 X146.352 Y133.37 E145.28513
G1 X105.678 Y92.696 E148.54849
G1 X105.678 Y93.459 E148.59178
G1 X145.589 Y133.37 E151.79392
G1 X144.825 Y133.37 E151.83726
G1 X105.678 Y94.223 E154.97811
G1 X105.678 Y94.987 E155.02145
G1 X144.061 Y133.37 E158.101
G1 X143.298 Y133.37 E158.14429
G1 X105.678 Y95.75 E161.16262
G1 X105.678 Y96.514 E161.20596
G1 X142.534 Y133.37 E164.16299
G1 X141.77 Y133.37 E164.20634
G1 X105.678 Y97.278 E167.10207
G1 X105.678 Y98.041 E167.14536
G1 X141.006 Y133.37 E169.97984
G1 X140.243 Y133.37 E170.02313
G1 X105.678 Y98.805 E172.79635
G1 X105.678 Y99.569 E172.83969
G1 X139.479 Y133.37 E175.55162
G1 X138.715 Y133.37 E175.59496
G1 X105.678 Y100.332 E178.24563
G1 X105.678 Y101.096 E178.28897
G1 X137.952 Y133.37 E180.87838
G1 X137.188 Y133.37 E180.92173
G1 X105.678 Y101.86 E183.44984
G1 X105.678 Y102.623 E183.49312
G1 X136.424 Y133.37 E185.95998
G1 X135.661 Y133.37 E186.00327
G1 X105.678 Y103.387 E188.40887
G1 X105.678 Y104.151 E188.45221
G1 X134.897 Y133.37 E190.79651
G1 X134.133 Y133.37 E190.83985
G1 X105.678 Y104.914 E193.1229
G1 X105.678 Y105.678 E193.16624
G1 X133.37 Y133.37 E195.38803
G1 X132.606 Y133.37 E195.43137
G1 X105.678 Y106.442 E197.59186
G1 X105.678 Y107.205 E197.63515
G1 X131.842 Y133.37 E199.73438
G1 X131.079 Y133.37 E199.77767
G1 X105.678 Y107.969 E201.81564
G1 X105.678 Y108.733 E201.85899
G1 X130.315 Y133.37 E203.83566
G1 X129.551 Y133.37 E203.87901
G1 X105.678 Y109.496 E205.79443
G1 X105.678 Y110.26 E205.83777
G1 X128.788 Y133.37 E207.69193
G1 X128.024 Y133.37 E207.73528
G1 X105.678 Y111.024 E209.52814
G1 X105.678 Y111.787 E209.57143
G1 X127.26 Y133.37 E211.30304
G1 X126.497 Y133.37 E211.34633
G1 X105.678 Y112.551 E213.01668
G1 X105.678 Y113.315 E213.06002
G1 X125.733 Y133.37 E214.66908
G1 X124.969 Y133.37 E214.71242
G1 X105.678 Y114.078 E216.26022
G1 X105.678 Y114.842 E216.30356
G1 X124.206 Y133.37 E217.7901
G1 X123.442 Y133.37 E217.83345
G1 X105.678 Y115.606 E219.25869
G1 X105.678 Y116.369 E219.30197
G1 X122.678 Y133.37 E220.66596
G1 X121.915 Y133.37 E220.70925
G1 X105.678 Y117.133 E222.01198
G1 X105.678 Y117.897 E222.05532
G1 X121.151 Y133.37 E223.29675
G1 X120.387 Y133.37 E223.34009
G1 X105.678 Y118.661 E224.52023
G1 X105.678 Y119.424 E224.56351
G1 X119.624 Y133.37 E225.68243
G1 X118.86 Y133.37 E225.72577
G1 X105.678 Y120.188 E226.78339
G1 X105.678 Y120.952 E226.82674
G1 X118.096 Y133.37 E227.82306
G1 X117.333 Y133.37 E227.86635
G1 X105.678 Y121.715 E228.80145
G1 X105.678 Y122.479 E228.84479
G1 X116.569 Y133.37 E229.7186
G1 X115.805 Y133.37 E229.76195
G1 X105.678 Y123.243 E230.57446
G1 X105.678 Y124.006 E230.61774
G1 X115.042 Y133.37 E231.36904
G1 X114.278 Y133.37 E231.41238
G1 X105.678 Y124.77 E232.10238
G1 X105.678 Y125.534 E232.14572
G1 X113.514 Y133.37 E232.77442
G1 X112.751 Y133.37 E232.81771
G1 X105.678 Y126.297 E233.38519
G1 X105.678 Y127.061 E233.42853
G1 X111.987 Y133.37 E233.93471
G1 X111.223 Y133.37 E233.97806
G1 X105.678 Y127.825 E234.42295
G1 X105.678 Y128.588 E234.46623
G1 X110.459 Y133.37 E234.84986
G1 X109.695 Y133.369 E234.89321
G1 X105.689 Y129.363 E235.21462
G1 X105.476 Y129.913 E235.24808
G1 X108.931 Y133.369 E235.52532
G1 X108.168 Y133.369 E235.56861
G1 X105.177 Y130.378 E235.80858
